;FLAVOR:Marlin
;TIME:3396
;Filament used: 2.25359m
;Layer height: 0.16
;MINX:91.735
;MINY:115.957
;MINZ:0.2
;MAXX:128.278
;MAXY:146.037
;MAXZ:15.08
;Generated with Cura_SteamEngine 4.7.1
M140 S60
M105
M190 S60
M104 S200
M105
M109 S200
M82 ;absolute extrusion mode
; Ender 3 Custom Start G-code
G92 E0 ; Reset Extruder
G28 ; Home all axes
G1 Z2.0 F3000 ; Move Z Axis up little to prevent scratching of Heat Bed
G1 X0.1 Y20 Z0.3 F5000.0 ; Move to start position
G1 X0.1 Y200.0 Z0.3 F1500.0 E15 ; Draw the first line
G1 X0.4 Y200.0 Z0.3 F5000.0 ; Move to side a little
G1 X0.4 Y20 Z0.3 F1500.0 E30 ; Draw the second line
G92 E0 ; Reset Extruder
G1 Z2.0 F3000 ; Move Z Axis up little to prevent scratching of Heat Bed
G1 X5 Y20 Z0.3 F5000.0 ; Move over to prevent blob squish
G92 E0
G92 E0
G1 F1500 E-6.5
;LAYER_COUNT:77
;LAYER:0
M107
G0 F6000 X96.598 Y121.151 Z0.2
;TYPE:SKIRT
G1 F1500 E0
G1 F1200 X123.402 Y121.151 E0.8915
G1 X123.402 Y121.403 E0.89989
G1 X96.598 Y121.403 E1.79139
G1 X96.598 Y121.151 E1.79977
G0 F6000 X96.198 Y120.751
G1 F1200 X123.802 Y120.751 E2.71789
G1 X123.802 Y121.803 E2.75287
G1 X96.198 Y121.803 E3.67099
G1 X96.198 Y120.751 E3.70598
G0 F6000 X95.798 Y120.351
G1 F1200 X124.202 Y120.351 E4.6507
G1 X124.202 Y122.203 E4.7123
G1 X95.798 Y122.203 E5.65702
G1 X95.798 Y120.351 E5.71861
G0 F6000 X95.398 Y119.951
G1 F1200 X124.602 Y119.951 E6.68994
G1 X124.602 Y122.603 E6.77815
G1 X95.398 Y122.603 E7.74948
G1 X95.398 Y119.951 E7.83768
G0 F6000 X94.998 Y119.551
G1 F1200 X125.002 Y119.551 E8.83562
G1 X125.002 Y123.003 E8.95044
G1 X94.998 Y123.003 E9.94837
G1 X94.998 Y119.551 E10.06319
G0 F6000 X94.998 Y139.215
G1 F1200 X125.002 Y139.215 E11.06112
G1 X125.002 Y142.443 E11.16849
G1 X94.998 Y142.443 E12.16642
G1 X94.998 Y139.215 E12.27379
G0 F6000 X95.398 Y139.615
G1 F1200 X124.602 Y139.615 E13.24512
G1 X124.602 Y142.043 E13.32587
G1 X95.398 Y142.043 E14.2972
G1 X95.398 Y139.615 E14.37796
G0 F6000 X95.798 Y140.015
G1 F1200 X124.202 Y140.015 E15.32268
G1 X124.202 Y141.643 E15.37683
G1 X95.798 Y141.643 E16.32155
G1 X95.798 Y140.015 E16.37569
G0 F6000 X96.198 Y140.415
G1 F1200 X123.802 Y140.415 E17.29381
G1 X123.802 Y141.243 E17.32135
G1 X96.198 Y141.243 E18.23946
G1 X96.198 Y140.415 E18.267
G0 F6000 X96.598 Y140.815
G1 F1200 X123.402 Y140.815 E19.1585
G1 X123.402 Y140.843 E19.15943
G1 X96.598 Y140.843 E20.05094
G1 X96.598 Y140.815 E20.05187
G1 F1500 E13.55187
;MESH:SOPORTE DE SENSOR.stl
G0 F6000 X94.663 Y140.815
G0 X93.598 Y140.815
G0 X93.398 Y144.043
;TYPE:WALL-INNER
G1 F1500 E20.05187
G1 F1200 X126.602 Y144.043 E21.15624
G1 X126.602 Y117.951 E22.02406
G1 X93.398 Y117.951 E23.12843
G1 X93.398 Y144.043 E23.99626
G0 F6000 X93.798 Y143.643
;TYPE:WALL-OUTER
G1 F1200 X126.202 Y143.643 E25.07402
G1 X126.202 Y118.351 E25.91523
G1 X93.798 Y118.351 E26.99299
G1 X93.798 Y143.643 E27.83421
G0 F6000 X93.498 Y143.643
G0 X93.57 Y118.123
G0 X94.039 Y117.551
;TYPE:WALL-INNER
G1 F1200 X93.944 Y117.551 E27.83737
G1 X93.735 Y117.551 E27.84432
G1 X93.596 Y117.551 E27.84894
G1 X93.735 Y117.393 E27.85168
G1 X93.944 Y117.21 E27.85807
G1 X94.023 Y117.158 E27.861
G1 X94.183 Y117.051 E27.8674
G1 X94.44 Y116.923 E27.87695
G1 X94.717 Y116.831 E27.88665
G1 X94.991 Y116.776 E27.89595
G1 X95.293 Y116.758 E27.90601
G1 X124.706 Y116.757 E28.88429
G1 X125.008 Y116.775 E28.89435
G1 X125.28 Y116.83 E28.90358
G1 X125.571 Y116.928 E28.9138
G1 X125.812 Y117.047 E28.92274
G1 X125.977 Y117.157 E28.92933
G1 X126.051 Y117.207 E28.9323
G1 X126.274 Y117.402 E28.94216
G1 X126.404 Y117.551 E28.94873
G1 X126.274 Y117.551 E28.94901
G1 X126.051 Y117.551 E28.95334
G1 X125.961 Y117.551 E28.95614
G1 X94.039 Y117.551 E30.01787
G0 F6000 X93.57 Y118.123
G0 X93.57 Y143.871
G0 X94.084 Y144.642
G0 X94.984 Y145.219
G1 F1200 X94.727 Y145.168 E30.02658
G1 X94.43 Y145.067 E30.03702
G1 X94.178 Y144.943 E30.04636
G1 X94.02 Y144.837 E30.05269
G1 X93.956 Y144.794 E30.05525
G1 X93.718 Y144.585 E30.06579
G1 X93.594 Y144.443 E30.07206
G1 X93.718 Y144.443 E30.07228
G1 X93.956 Y144.443 E30.0769
G1 X94.034 Y144.443 E30.07935
G1 X125.967 Y144.443 E31.14144
G1 X126.047 Y144.443 E31.1441
G1 X126.265 Y144.443 E31.15135
G1 X126.405 Y144.443 E31.15601
G1 X126.265 Y144.602 E31.15877
G1 X126.047 Y144.794 E31.16557
G1 X125.98 Y144.838 E31.16808
G1 X125.83 Y144.937 E31.17406
G1 X125.562 Y145.071 E31.18402
G1 X125.288 Y145.162 E31.19362
G1 X125.006 Y145.217 E31.20318
G1 X124.697 Y145.237 E31.21348
G1 X95.294 Y145.237 E32.19143
G1 X94.984 Y145.219 E32.20175
G0 F6000 X94.933 Y145.616
G1 F1200 X94.621 Y145.554 E32.21233
G1 X94.275 Y145.437 E32.22448
G1 X93.979 Y145.291 E32.23546
G1 X93.709 Y145.11 E32.24627
G1 X93.44 Y144.874 E32.25817
G1 X93.418 Y144.848 E32.25931
G1 X93.219 Y144.621 E32.26935
G1 X93.046 Y144.362 E32.27971
G1 X92.886 Y144.036 E32.29179
G1 X92.779 Y143.72 E32.30288
G1 X92.715 Y143.396 E32.31387
G1 X92.693 Y143.04 E32.32573
G1 X92.693 Y118.943 E33.1272
G1 X92.714 Y118.599 E33.13866
G1 X92.778 Y118.277 E33.14958
G1 X92.891 Y117.944 E33.16128
G1 X93.042 Y117.638 E33.17263
G1 X93.215 Y117.379 E33.18299
G1 X93.456 Y117.105 E33.19512
G1 X93.699 Y116.892 E33.20587
G1 X93.98 Y116.705 E33.2171
G1 X94.262 Y116.566 E33.22755
G1 X94.291 Y116.551 E33.22864
G1 X94.61 Y116.445 E33.23982
G1 X94.638 Y116.44 E33.24077
G1 X94.938 Y116.379 E33.25095
G1 X94.966 Y116.378 E33.25188
G1 X95.268 Y116.36 E33.26194
G1 X95.286 Y116.358 E33.26254
G1 X124.713 Y116.357 E34.24129
G1 X125.061 Y116.378 E34.25289
G1 X125.385 Y116.443 E34.26388
G1 X125.723 Y116.557 E34.27574
G1 X126.015 Y116.702 E34.28658
G1 X126.296 Y116.889 E34.29781
G1 X126.554 Y117.115 E34.30922
G1 X126.784 Y117.378 E34.32084
G1 X126.954 Y117.633 E34.33103
G1 X127.112 Y117.954 E34.34293
G1 X127.221 Y118.279 E34.35433
G1 X127.285 Y118.599 E34.36519
G1 X127.307 Y118.954 E34.37702
G1 X127.307 Y143.051 E35.17849
G1 X127.286 Y143.396 E35.18998
G1 X127.222 Y143.715 E35.2008
G1 X127.107 Y144.055 E35.21274
G1 X126.961 Y144.352 E35.22375
G1 X126.782 Y144.619 E35.23444
G1 X126.565 Y144.865 E35.24535
G1 X126.548 Y144.885 E35.24622
G1 X126.529 Y144.901 E35.24705
G1 X126.29 Y145.112 E35.25765
G1 X126.268 Y145.126 E35.25852
G1 X126.029 Y145.285 E35.26807
G1 X125.74 Y145.428 E35.27879
G1 X125.711 Y145.443 E35.27988
G1 X125.389 Y145.55 E35.29117
G1 X125.062 Y145.614 E35.30225
G1 X125.032 Y145.615 E35.30325
G1 X124.725 Y145.635 E35.31348
G1 X124.708 Y145.637 E35.31405
G1 X95.287 Y145.637 E36.29259
G1 X94.933 Y145.616 E36.30439
G0 F6000 X94.884 Y146.013
;TYPE:WALL-OUTER
G1 F1200 X94.514 Y145.94 E36.31693
G1 X94.123 Y145.808 E36.33066
G1 X93.776 Y145.636 E36.34354
G1 X93.464 Y145.428 E36.35601
G1 X93.16 Y145.161 E36.36947
G1 X92.903 Y144.867 E36.38246
G1 X92.697 Y144.559 E36.39478
G1 X92.515 Y144.187 E36.40855
G1 X92.393 Y143.826 E36.42123
G1 X92.318 Y143.447 E36.43408
G1 X92.293 Y143.049 E36.44734
G1 X92.293 Y118.943 E37.24911
G1 X92.317 Y118.55 E37.26221
G1 X92.392 Y118.17 E37.27509
G1 X92.521 Y117.789 E37.28847
G1 X92.692 Y117.443 E37.30131
G1 X92.902 Y117.129 E37.31387
G1 X93.169 Y116.825 E37.32733
G1 X93.458 Y116.572 E37.3401
G1 X93.78 Y116.357 E37.35298
G1 X94.133 Y116.183 E37.36607
G1 X94.511 Y116.057 E37.37932
G1 X94.885 Y115.982 E37.39201
G1 X95.278 Y115.958 E37.4051
G1 X124.721 Y115.957 E38.38438
G1 X125.114 Y115.981 E38.39748
G1 X125.487 Y116.056 E38.41013
G1 X125.877 Y116.187 E38.42382
G1 X126.218 Y116.356 E38.43647
G1 X126.541 Y116.571 E38.44938
G1 X126.839 Y116.832 E38.46255
G1 X127.097 Y117.128 E38.47561
G1 X127.303 Y117.436 E38.48794
G1 X127.482 Y117.801 E38.50146
G1 X127.608 Y118.176 E38.51462
G1 X127.682 Y118.548 E38.52723
G1 X127.707 Y118.945 E38.54046
G1 X127.707 Y143.051 E39.34223
G1 X127.683 Y143.445 E39.35536
G1 X127.608 Y143.825 E39.36824
G1 X127.479 Y144.204 E39.38156
G1 X127.308 Y144.553 E39.39449
G1 X127.098 Y144.866 E39.40702
G1 X126.832 Y145.169 E39.42043
G1 X126.538 Y145.427 E39.43344
G1 X126.225 Y145.635 E39.44594
G1 X125.867 Y145.812 E39.45922
G1 X125.487 Y145.939 E39.47255
G1 X125.117 Y146.011 E39.48509
G1 X124.719 Y146.037 E39.49835
G1 X95.279 Y146.037 E40.47753
G1 X94.884 Y146.013 E40.49069
G0 F6000 X94.94 Y145.577
G0 X95.07 Y144.833
;TYPE:SKIN
G1 F1200 X124.882 Y144.833 E41.48224
G1 X124.671 Y144.847 E41.48928
G1 X95.317 Y144.847 E42.4656
G1 X95.07 Y144.833 E42.47382
G0 F6000 X94.892 Y144.955
;TYPE:SKIN
G1 F1200 X94.539 Y144.602 E42.48213
G0 F6000 X94.822 Y144.602
G1 F1200 X94.899 Y144.679 E42.48394
G0 F6000 X94.613 Y144.959
G1 F1200 X94.256 Y144.602 E42.49233
G1 F1500 E35.99233
G0 F6000 X94.256 Y144.553
G0 X125.917 Y144.642
G0 X125.798 Y144.718
G0 X125.103 Y145.087
G0 X125.058 Y144.857
G1 F1500 E42.49233
G1 F1200 X125.213 Y145.012 E42.49598
G0 F6000 X125.428 Y144.944
G1 F1200 X125.086 Y144.602 E42.50402
G0 F6000 X125.369 Y144.602
G1 F1200 X125.626 Y144.859 E42.51007
G0 F6000 X125.808 Y144.758
G1 F1200 X125.652 Y144.602 E42.51374
G0 F6000 X125.652 Y144.553
G0 X126.43 Y143.871
G0 X126.43 Y118.123
G0 X125.911 Y117.352
G0 X125.683 Y117.203
G0 X124.938 Y116.882
G0 X124.922 Y117.161
;TYPE:SKIN
G1 F1200 X95.093 Y117.161 E43.50585
G1 X95.316 Y117.148 E43.51328
G1 X124.683 Y117.147 E44.49003
G1 X124.922 Y117.161 E44.49799
G0 F6000 X125.095 Y117.176
;TYPE:SKIN
G1 F1200 X125.31 Y117.391 E44.50305
G0 F6000 X125.593 Y117.391
G1 F1200 X125.174 Y116.971 E44.51292
G0 F6000 X125.612 Y117.127
G1 F1200 X125.876 Y117.391 E44.51913
G1 F1500 E38.01913
G0 F6000 X125.968 Y117.37
G0 X94.92 Y117.441
G0 X94.92 Y117.265
G1 F1500 E44.51913
G1 F1200 X94.67 Y117.014 E44.52502
G0 F6000 X94.462 Y117.089
G1 F1200 X94.762 Y117.39 E44.53208
G0 F6000 X94.48 Y117.39
G1 F1200 X94.273 Y117.183 E44.53695
G0 F6000 X94.103 Y117.296
G1 F1200 X94.197 Y117.39 E44.53916
G0 F6000 X93.363 Y117.688
G1 F1200 X93.207 Y117.814 E44.54492
G1 X93.054 Y118.793 E44.57339
G1 X93.045 Y124.441 E44.73565
G1 X93.045 Y143.108 E45.27191
G1 X93.133 Y144.045 E45.29894
G1 X93.379 Y144.291 E45.30894
G1 F1500 E38.80894
G0 F6000 X93.454 Y144.365
G0 X126.544 Y144.363
G0 X126.603 Y144.422
G1 F1500 E45.30894
G1 F1200 X126.728 Y144.264 E45.31468
G1 X126.905 Y143.593 E45.33444
G1 X126.954 Y141.944 E45.38144
G1 X126.952 Y118.75 E46.04216
G1 X126.903 Y118.135 E46.05973
G1 X126.693 Y117.642 E46.07499
G1 X126.52 Y117.752 E46.08084
G0 F6000 X126.543 Y117.775
G1 F1500 E39.58084
;MESH:NONMESH
G0 F300 X126.543 Y117.775 Z0.4
G0 F6000 X94.998 Y118.151
G0 X94.998 Y119.551
;TIME_ELAPSED:83.523568
;LAYER:1
M106 S85
;TYPE:SUPPORT
G1 F1500 E46.08084
G1 F1350 X125.002 Y119.551 E47.07877
G1 X125.002 Y123.003 E47.19359
G1 X94.998 Y123.003 E48.19152
G1 X94.998 Y119.551 E48.30634
G0 F7500 X96 Y119.831
G1 F1350 X95.278 Y119.831 E48.33035
G1 X95.278 Y122.723 E48.42654
G1 X96 Y122.723 E48.45055
G1 X96 Y119.831 E48.54674
G1 X98 Y119.831 E48.61326
G1 X98 Y122.723 E48.70945
G1 X100 Y122.723 E48.77597
G1 X100 Y119.831 E48.87216
G1 X102 Y119.831 E48.93868
G1 X102 Y122.723 E49.03487
G1 X104 Y122.723 E49.10139
G1 X104 Y119.831 E49.19758
G1 X106 Y119.831 E49.2641
G1 X106 Y122.723 E49.36028
G1 X108 Y122.723 E49.4268
G1 X108 Y119.831 E49.52299
G1 X110 Y119.831 E49.58951
G1 X110 Y122.723 E49.6857
G1 X112 Y122.723 E49.75222
G1 X112 Y119.831 E49.84841
G1 X114 Y119.831 E49.91493
G1 X114 Y122.723 E50.01112
G1 X116 Y122.723 E50.07764
G1 X116 Y119.831 E50.17383
G1 X118 Y119.831 E50.24035
G1 X118 Y122.723 E50.33654
G1 X120 Y122.723 E50.40306
G1 X120 Y119.831 E50.49924
G1 X122 Y119.831 E50.56576
G1 X122 Y122.723 E50.66195
G1 X124 Y122.723 E50.72847
G1 X124 Y119.831 E50.82466
G1 X124.722 Y119.831 E50.84868
G1 X124.722 Y122.723 E50.94486
G1 X124 Y122.723 E50.96888
G1 F1500 E44.46888
G0 F7500 X124 Y123.868
G0 X125.002 Y138.35
G0 X125.002 Y139.215
G1 F1500 E50.96888
G1 F1350 X125.002 Y142.443 E51.07624
G1 X94.998 Y142.443 E52.07418
G1 X94.998 Y139.215 E52.18154
G1 X125.002 Y139.215 E53.17948
G0 F7500 X124.722 Y139.495
G1 F1350 X124 Y139.495 E53.20349
G1 X124 Y142.163 E53.29223
G1 X122 Y142.163 E53.35875
G1 X122 Y139.495 E53.44749
G1 X120 Y139.495 E53.51401
G1 X120 Y142.163 E53.60275
G1 X118 Y142.163 E53.66927
G1 X118 Y139.495 E53.75801
G1 X116 Y139.495 E53.82453
G1 X116 Y142.163 E53.91326
G1 X114 Y142.163 E53.97978
G1 X114 Y139.495 E54.06852
G1 X112 Y139.495 E54.13504
G1 X112 Y142.163 E54.22378
G1 X110 Y142.163 E54.2903
G1 X110 Y139.495 E54.37904
G1 X108 Y139.495 E54.44556
G1 X108 Y142.163 E54.5343
G1 X106 Y142.163 E54.60082
G1 X106 Y139.495 E54.68956
G1 X104 Y139.495 E54.75608
G1 X104 Y142.163 E54.84481
G1 X102 Y142.163 E54.91133
G1 X102 Y139.495 E55.00007
G1 X100 Y139.495 E55.06659
G1 X100 Y142.163 E55.15533
G1 X98 Y142.163 E55.22185
G1 X98 Y139.495 E55.31059
G1 X96 Y139.495 E55.37711
G1 X95.278 Y139.495 E55.40112
G1 X95.278 Y142.163 E55.48986
G1 X96 Y142.163 E55.51387
G1 X96 Y139.495 E55.60261
G1 F1500 E49.10261
G0 F7500 X96 Y138.35
G0 X128.278 Y144.533
G0 X124 Y142.163
G1 F1500 E55.60261
G1 F1350 X124.722 Y142.163 E55.62663
G1 X124.722 Y139.495 E55.71536
G1 F1500 E49.21536
;MESH:SOPORTE DE SENSOR.stl
G0 F7500 X124.722 Y138.35
G0 X125.337 Y137.432
G0 X126.442 Y137.432
G0 X126.43 Y143.871
G0 X93.398 Y144.043
;TYPE:WALL-INNER
G1 F1500 E55.71536
G1 F1350 X126.602 Y144.043 E56.81973
G1 X126.602 Y117.951 E57.68756
G1 X93.398 Y117.951 E58.79193
G1 X93.398 Y144.043 E59.65975
G0 F7500 X93.798 Y143.643
;TYPE:WALL-OUTER
G1 F1350 X126.202 Y143.643 E60.73751
G1 X126.202 Y118.351 E61.57873
G1 X93.798 Y118.351 E62.65649
G1 X93.798 Y143.643 E63.4977
G0 F7500 X93.498 Y143.643
G0 X93.57 Y118.123
G0 X94.039 Y117.551
;TYPE:WALL-INNER
G1 F1350 X93.939 Y117.551 E63.50103
G1 X93.735 Y117.551 E63.50782
G1 X93.594 Y117.551 E63.51251
G1 X93.735 Y117.391 E63.51529
G1 X93.939 Y117.212 E63.52153
G1 X94.022 Y117.158 E63.52459
G1 X94.201 Y117.04 E63.53172
G1 X94.429 Y116.927 E63.54019
G1 X94.711 Y116.833 E63.55007
G1 X94.997 Y116.777 E63.55976
G1 X95.296 Y116.758 E63.56973
G1 X124.703 Y116.757 E64.54781
G1 X125.001 Y116.776 E64.55774
G1 X125.291 Y116.833 E64.56757
G1 X125.568 Y116.925 E64.57728
G1 X125.802 Y117.041 E64.58597
G1 X125.979 Y117.158 E64.59302
G1 X126.062 Y117.212 E64.59632
G1 X126.264 Y117.39 E64.60527
G1 X126.406 Y117.551 E64.61241
G1 X126.264 Y117.551 E64.61281
G1 X126.062 Y117.551 E64.61679
G1 X125.962 Y117.551 E64.61988
G1 X94.039 Y117.551 E65.68164
G0 F7500 X93.57 Y118.123
G0 X93.57 Y143.871
G0 X94.086 Y144.642
G0 X94.996 Y145.218
G1 F1350 X94.714 Y145.163 E65.6912
G1 X94.427 Y145.068 E65.70125
G1 X94.198 Y144.953 E65.70977
G1 X94.021 Y144.836 E65.71683
G1 X93.939 Y144.783 E65.72008
G1 X93.728 Y144.596 E65.72945
G1 X93.593 Y144.443 E65.73624
G1 X93.728 Y144.443 E65.73656
G1 X93.939 Y144.443 E65.74065
G1 X94.037 Y144.443 E65.74368
G1 X125.962 Y144.443 E66.80551
G1 X126.051 Y144.443 E66.80847
G1 X126.278 Y144.443 E66.81602
G1 X126.407 Y144.443 E66.82031
G1 X126.278 Y144.589 E66.82275
G1 X126.051 Y144.788 E66.82962
G1 X125.977 Y144.837 E66.83238
G1 X125.801 Y144.954 E66.83941
G1 X125.559 Y145.073 E66.84838
G1 X125.291 Y145.162 E66.85777
G1 X125.006 Y145.217 E66.86742
G1 X124.697 Y145.237 E66.87772
G1 X95.296 Y145.237 E67.8556
G1 X94.996 Y145.218 E67.8656
G0 F7500 X94.939 Y145.615
G1 F1350 X94.613 Y145.551 E67.87665
G1 X94.278 Y145.44 E67.88839
G1 X93.997 Y145.3 E67.89883
G1 X93.698 Y145.103 E67.91074
G1 X93.675 Y145.082 E67.91177
G1 X93.444 Y144.878 E67.92202
G1 X93.294 Y144.707 E67.92959
G1 X93.23 Y144.635 E67.93279
G1 X93.035 Y144.34 E67.94456
G1 X92.886 Y144.035 E67.95585
G1 X92.778 Y143.717 E67.96702
G1 X92.716 Y143.392 E67.97802
G1 X92.693 Y143.038 E67.98982
G1 X92.693 Y118.945 E68.79116
G1 X92.715 Y118.602 E68.80259
G1 X92.777 Y118.281 E68.81346
G1 X92.89 Y117.947 E68.82519
