;FLAVOR:Marlin
;TIME:8228
;Filament used: 4.48526m
;Layer height: 0.16
;MINX:71.085
;MINY:82.585
;MINZ:0.2
;MAXX:148.915
;MAXY:147.415
;MAXZ:9.96
;Generated with Cura_SteamEngine 4.7.1
M140 S60
M105
M190 S60
M104 S200
M105
M109 S200
M82 ;absolute extrusion mode
; Ender 3 Custom Start G-code
G92 E0 ; Reset Extruder
G28 ; Home all axes
G1 Z2.0 F3000 ; Move Z Axis up little to prevent scratching of Heat Bed
G1 X0.1 Y20 Z0.3 F5000.0 ; Move to start position
G1 X0.1 Y200.0 Z0.3 F1500.0 E15 ; Draw the first line
G1 X0.4 Y200.0 Z0.3 F5000.0 ; Move to side a little
G1 X0.4 Y20 Z0.3 F1500.0 E30 ; Draw the second line
G92 E0 ; Reset Extruder
G1 Z2.0 F3000 ; Move Z Axis up little to prevent scratching of Heat Bed
G1 X5 Y20 Z0.3 F5000.0 ; Move over to prevent blob squish
G92 E0
G92 E0
G1 F1500 E-6.5
;LAYER_COUNT:57
;LAYER:0
M107
;MESH:CNC_Shield_Cover_Top.STL
G0 F6000 X87.312 Y106.757 Z0.2
;TYPE:WALL-INNER
G1 F1500 E0
G1 F1200 X87.312 Y98.757 E0.26608
G1 X81.772 Y98.757 E0.45034
G1 X81.772 Y106.757 E0.71642
G1 X87.312 Y106.757 E0.90068
G0 F6000 X86.912 Y106.357
G1 F1200 X86.912 Y99.157 E1.14016
G1 X82.172 Y99.157 E1.29781
G1 X82.172 Y106.357 E1.53728
G1 X86.912 Y106.357 E1.69494
G0 F6000 X86.512 Y105.957
;TYPE:WALL-OUTER
G1 F1200 X86.512 Y99.557 E1.9078
G1 X82.572 Y99.557 E2.03885
G1 X82.572 Y105.957 E2.25171
G1 X86.512 Y105.957 E2.38276
G1 F1500 E-4.11724
G0 F6000 X86.712 Y105.957
G0 X86.673 Y106.029
G0 X85.385 Y106.927
G0 X85.385 Y105.092
G0 X104.696 Y95.526
G0 X104.696 Y97.361
G0 X105.951 Y96.519
G0 X106.623 Y94.571
;TYPE:WALL-INNER
G1 F1500 E2.38276
G1 F1200 X141.897 Y94.571 E3.55597
G1 X141.897 Y86.571 E3.82206
G1 X98.623 Y86.571 E5.26135
G1 X98.623 Y97.191 E5.61458
G1 X106.623 Y97.191 E5.88066
G1 X106.623 Y94.571 E5.9678
G0 F6000 X118.977 Y94.171
G1 F1200 X141.497 Y94.171 E6.71682
G1 X141.497 Y86.971 E6.95629
G1 X118.977 Y86.971 E7.70531
G1 X118.977 Y94.171 E7.94478
G0 F6000 X119.377 Y93.771
;TYPE:WALL-OUTER
G1 F1200 X141.097 Y93.771 E8.66719
G1 X141.097 Y87.371 E8.88006
G1 X119.377 Y87.371 E9.60247
G1 X119.377 Y93.771 E9.81533
G0 F6000 X119.177 Y93.771
G0 X118.661 Y93.874
G0 X106.451 Y94.171
;TYPE:WALL-INNER
G1 F1200 X118.811 Y94.171 E10.22643
G1 X118.811 Y86.971 E10.32606
G1 X106.451 Y86.971 E10.73715
G1 X106.451 Y94.171 E10.97663
G0 F6000 X106.851 Y93.771
;TYPE:WALL-OUTER
G1 F1200 X118.411 Y93.771 E11.36111
G1 X118.411 Y87.371 E11.57398
G1 X106.851 Y87.371 E11.95846
G1 X106.851 Y93.771 E12.17133
G0 F6000 X106.651 Y93.771
G0 X106.223 Y96.791
;TYPE:WALL-INNER
G1 F1200 X106.223 Y94.171 E12.25847
G1 X106.223 Y86.971 E12.39531
G1 X99.023 Y86.971 E12.63479
G1 X99.023 Y96.791 E12.9614
G1 X106.223 Y96.791 E13.20087
G0 F6000 X105.823 Y96.391
;TYPE:WALL-OUTER
G1 F1200 X105.823 Y87.371 E13.50088
G1 X99.423 Y87.371 E13.71374
G1 X99.423 Y96.391 E14.01375
G1 X105.823 Y96.391 E14.22662
G1 F1500 E7.72662
G0 F6000 X106.023 Y96.391
G0 X105.966 Y96.494
G0 X102.526 Y97.381
G0 X102.526 Y95.526
G0 X100.861 Y104.882
G0 X102.696 Y104.882
G0 X102.526 Y112.954
;TYPE:WALL-INNER
G1 F1500 E14.22662
G1 F1200 X102.526 Y102.955 E14.55918
G1 X94.526 Y102.955 E14.82527
G1 X94.526 Y108.493 E15.00946
G1 X83.35 Y108.493 E15.38118
G1 X83.35 Y110.968 E15.46349
G1 X79.23 Y110.968 E15.60053
G1 X79.23 Y118.968 E15.86661
G1 X83.128 Y118.968 E15.99625
G1 X83.128 Y121.372 E16.07621
G1 X95.881 Y121.372 E16.50038
G1 X95.881 Y116.035 E16.67789
G1 X84.77 Y116.035 E17.04744
G1 X84.77 Y113.83 E17.12078
G1 X96.103 Y113.83 E17.49772
G1 X96.103 Y113.156 E17.52013
G1 X96.103 Y112.956 E17.52679
G1 X96.303 Y112.956 E17.53109
G1 X97.836 Y112.961 E17.58208
G1 X102.526 Y112.954 E17.73807
G0 F6000 X102.126 Y112.555
G1 F1200 X102.126 Y103.355 E18.04407
G1 X94.926 Y103.355 E18.28354
G1 X94.926 Y108.893 E18.46773
G1 X83.75 Y108.893 E18.83945
G1 X83.75 Y111.368 E18.92177
G1 X79.63 Y111.368 E19.0588
G1 X79.63 Y118.568 E19.29827
G1 X83.528 Y118.568 E19.42792
G1 X83.528 Y120.972 E19.50788
G1 X95.481 Y120.972 E19.90544
G1 X95.481 Y116.435 E20.05634
G1 X84.37 Y116.435 E20.42589
G1 X84.37 Y113.43 E20.52584
G1 X95.703 Y113.43 E20.90277
G1 X95.703 Y112.755 E20.92522
G1 X95.703 Y112.555 E20.93188
G1 X95.903 Y112.555 E20.93618
G1 X97.836 Y112.561 E21.00048
G1 X102.126 Y112.555 E21.14316
G0 F6000 X101.726 Y112.156
;TYPE:WALL-OUTER
G1 F1200 X101.726 Y103.755 E21.42258
G1 X95.326 Y103.755 E21.63545
G1 X95.326 Y112.154 E21.9148
G1 X97.836 Y112.161 E21.99828
G1 X101.726 Y112.156 E22.12766
G1 F1500 E15.62766
G0 F6000 X101.926 Y112.156
G0 X101.869 Y112.259
G0 X95.503 Y113.03
G0 X95.303 Y113.03
G1 F1500 E22.12766
G1 F1200 X95.303 Y109.293 E22.25196
G1 X84.15 Y109.293 E22.62291
G1 X84.15 Y113.03 E22.7472
G1 X95.303 Y113.03 E23.11815
G1 F1500 E16.61815
G0 F6000 X95.503 Y113.03
G0 X95.474 Y113.998
G0 X84.952 Y114.012
G0 X84.952 Y115.853
G0 X95.419 Y115.864
G0 X95.281 Y120.572
G0 X95.081 Y120.572
G1 F1500 E23.11815
G1 F1200 X95.081 Y116.835 E23.24244
G1 X83.97 Y116.835 E23.612
G1 X83.97 Y111.768 E23.78052
G1 X80.03 Y111.768 E23.91157
G1 X80.03 Y118.168 E24.12443
G1 X83.928 Y118.168 E24.25408
G1 X83.928 Y120.572 E24.33404
G1 X95.081 Y120.572 E24.70499
G1 F1500 E18.20499
G0 F6000 X95.281 Y120.572
G0 X95.242 Y120.644
G0 X93.811 Y121.562
G0 X93.811 Y119.707
G0 X92.146 Y140.661
G0 X93.981 Y140.661
G0 X93.811 Y144.071
;TYPE:WALL-INNER
G1 F1500 E24.70499
G1 F1200 X93.811 Y138.734 E24.8825
G1 X81.058 Y138.734 E25.30667
G1 X81.058 Y144.071 E25.48418
G1 X93.811 Y144.071 E25.90834
G0 F6000 X93.411 Y143.671
G1 F1200 X93.411 Y139.134 E26.05924
G1 X81.458 Y139.134 E26.4568
G1 X81.458 Y143.671 E26.6077
G1 X93.411 Y143.671 E27.00526
G0 F6000 X93.011 Y143.271
;TYPE:WALL-OUTER
G1 F1200 X93.011 Y139.534 E27.12955
G1 X81.858 Y139.534 E27.5005
G1 X81.858 Y143.271 E27.6248
G1 X93.011 Y143.271 E27.99575
G1 F1500 E21.49575
G0 F6000 X93.211 Y143.271
G0 X93.981 Y140.661
G0 X92.146 Y140.661
G0 X92.063 Y131.698
G0 X92.063 Y133.533
G0 X93.99 Y133.363
;TYPE:WALL-INNER
G1 F1500 E27.99575
G1 F1200 X93.99 Y122.983 E28.34099
G1 X81.99 Y122.983 E28.74011
G1 X81.99 Y133.363 E29.08535
G1 X93.99 Y133.363 E29.48447
G0 F6000 X93.59 Y132.963
G1 F1200 X93.59 Y123.383 E29.8031
G1 X82.39 Y123.383 E30.17562
G1 X82.39 Y132.963 E30.49425
G1 X93.59 Y132.963 E30.86676
G0 F6000 X93.19 Y132.563
;TYPE:WALL-OUTER
G1 F1200 X93.19 Y123.783 E31.15879
G1 X82.79 Y123.783 E31.50469
G1 X82.79 Y132.563 E31.79672
G1 X93.19 Y132.563 E32.14262
G1 F1500 E25.64262
G0 F6000 X93.39 Y132.563
G0 X94.16 Y131.321
G0 X92.325 Y131.321
G0 X106.647 Y131.436
G0 X104.812 Y131.436
G0 X104.982 Y133.363
;TYPE:WALL-INNER
G1 F1500 E32.14262
G1 F1200 X116.982 Y133.363 E32.54174
G1 X116.982 Y122.983 E32.88698
G1 X104.982 Y122.983 E33.28611
G1 X104.982 Y133.363 E33.63135
G0 F6000 X105.382 Y132.963
G1 F1200 X116.582 Y132.963 E34.00386
G1 X116.582 Y123.383 E34.32249
G1 X105.382 Y123.383 E34.695
G1 X105.382 Y132.963 E35.01364
G0 F6000 X105.782 Y132.563
;TYPE:WALL-OUTER
G1 F1200 X116.182 Y132.563 E35.35954
G1 X116.182 Y123.783 E35.65157
G1 X105.782 Y123.783 E35.99747
G1 X105.782 Y132.563 E36.2895
G1 F1500 E29.7895
G0 F6000 X105.582 Y132.563
G0 X105.639 Y132.666
G0 X112.918 Y133.533
G0 X112.918 Y131.698
G0 X129.591 Y131.436
G0 X127.756 Y131.436
G0 X127.926 Y133.363
;TYPE:WALL-INNER
G1 F1500 E36.2895
G1 F1200 X139.926 Y133.363 E36.68862
G1 X139.926 Y122.983 E37.03386
G1 X127.926 Y122.983 E37.43298
G1 X127.926 Y133.363 E37.77822
G0 F6000 X128.326 Y132.963
G1 F1200 X139.526 Y132.963 E38.15073
G1 X139.526 Y123.383 E38.46936
G1 X128.326 Y123.383 E38.84188
G1 X128.326 Y132.963 E39.16051
G0 F6000 X128.726 Y132.563
;TYPE:WALL-OUTER
G1 F1200 X139.126 Y132.563 E39.50642
G1 X139.126 Y123.783 E39.79844
G1 X128.726 Y123.783 E40.14434
G1 X128.726 Y132.563 E40.43637
G1 F1500 E33.93637
G0 F6000 X128.526 Y132.563
G0 X127.756 Y131.436
G0 X129.591 Y131.436
G0 X128.035 Y140.609
G0 X127.73 Y138.746
G0 X127.518 Y139.616
G0 X127.054 Y139.628
G0 X126.382 Y144.293
;TYPE:WALL-INNER
G1 F1500 E40.43637
G1 F1200 X139.135 Y144.293 E40.86054
G1 X139.135 Y138.956 E41.03804
G1 X126.382 Y138.956 E41.46221
G1 X126.382 Y144.293 E41.63972
G0 F6000 X126.782 Y143.893
G1 F1200 X138.735 Y143.893 E42.03728
G1 X138.735 Y139.356 E42.18818
G1 X126.782 Y139.356 E42.58574
G1 X126.782 Y143.893 E42.73664
G0 F6000 X127.182 Y143.493
;TYPE:WALL-OUTER
G1 F1200 X138.335 Y143.493 E43.10759
G1 X138.335 Y139.756 E43.23188
G1 X127.182 Y139.756 E43.60283
G1 X127.182 Y143.493 E43.72713
G0 F6000 X126.982 Y143.493
G0 X126.2 Y144.438
G0 X116.544 Y144.438
G0 X116.362 Y144.219
;TYPE:WALL-INNER
G1 F1200 X116.362 Y138.882 E43.90464
G1 X103.609 Y138.882 E44.3288
G1 X103.609 Y144.219 E44.50631
G1 X116.362 Y144.219 E44.93048
G0 F6000 X115.962 Y143.819
G1 F1200 X115.962 Y139.282 E45.08138
G1 X104.009 Y139.282 E45.47894
G1 X104.009 Y143.819 E45.62984
G1 X115.962 Y143.819 E46.0274
G0 F6000 X115.562 Y143.419
;TYPE:WALL-OUTER
G1 F1200 X115.562 Y139.682 E46.15169
G1 X104.409 Y139.682 E46.52264
G1 X104.409 Y143.419 E46.64693
G1 X115.562 Y143.419 E47.01788
G1 F1500 E40.51788
G0 F6000 X115.762 Y143.419
G0 X115.69 Y143.547
G0 X103.427 Y144.438
G0 X73.879 Y144.621
;TYPE:WALL-INNER
G1 F1500 E47.01788
G1 F1200 X73.879 Y144.422 E47.0245
G1 X73.879 Y85.381 E48.98821
G1 X145.922 Y85.379 E51.38437
G1 X146.121 Y85.379 E51.39099
G1 X146.121 Y85.578 E51.39528
G1 X146.121 Y97.955 E51.80694
G1 X140.114 Y97.955 E52.00673
G1 X140.114 Y117.955 E52.67193
G1 X146.12 Y117.955 E52.87169
G1 X146.121 Y144.42 E53.75192
G1 X146.121 Y144.619 E53.75854
G1 X145.922 Y144.619 E53.76282
G1 X139.135 Y144.619 E53.98856
G1 X126.383 Y144.619 E54.33509
G1 X74.078 Y144.621 E56.07476
G1 X73.879 Y144.621 E56.07905
G0 F6000 X73.707 Y145.016
G1 F1200 X73.661 Y145.001 E56.08066
G1 X73.595 Y144.966 E56.08314
G1 X73.544 Y144.918 E56.08547
G1 X73.503 Y144.848 E56.08817
G1 X73.488 Y144.802 E56.08978
G1 X73.479 Y144.717 E56.09262
G1 X73.479 Y85.296 E58.06897
G1 X73.488 Y85.198 E58.07224
G1 X73.505 Y85.146 E58.07406
G1 X73.542 Y85.082 E58.07652
G1 X73.59 Y85.036 E58.07873
G1 X73.618 Y85.02 E58.07981
G1 X73.663 Y84.998 E58.08147
G1 X73.7 Y84.986 E58.08277
G1 X73.752 Y84.981 E58.0845
G1 X146.226 Y84.979 E60.495
G1 X146.293 Y84.984 E60.49723
G1 X146.339 Y84.999 E60.49884
G1 X146.405 Y85.034 E60.50133
G1 X146.456 Y85.082 E60.50366
G1 X146.497 Y85.152 E60.50635
G1 X146.512 Y85.198 E60.50796
G1 X146.521 Y85.283 E60.51081
G1 X146.521 Y98.355 E60.94558
G1 X140.514 Y98.355 E61.14538
G1 X140.514 Y117.555 E61.78397
G1 X146.52 Y117.555 E61.98373
G1 X146.521 Y144.704 E62.88671
G1 X146.512 Y144.802 E62.88998
G1 X146.495 Y144.854 E62.8918
G1 X146.458 Y144.918 E62.89426
G1 X146.41 Y144.964 E62.89647
G1 X146.337 Y145.003 E62.89923
G1 X146.3 Y145.014 E62.90051
G1 X146.248 Y145.019 E62.90225
G1 X73.774 Y145.021 E65.31274
G1 X73.707 Y145.016 E65.31498
G0 F6000 X73.642 Y145.412
;TYPE:WALL-OUTER
G1 F1200 X73.598 Y145.401 E65.31649
G1 X73.509 Y145.373 E65.31959
G1 X73.372 Y145.301 E65.32474
G1 X73.348 Y145.283 E65.32573
G1 X73.244 Y145.185 E65.33049
G1 X73.218 Y145.153 E65.33186
G1 X73.136 Y145.013 E65.33725
G1 X73.094 Y144.884 E65.34177
G1 X73.079 Y144.739 E65.34662
G1 X73.079 Y85.267 E67.32466
G1 X73.082 Y85.248 E67.3253
G1 X73.093 Y85.118 E67.32964
G1 X73.137 Y84.984 E67.33433
G1 X73.215 Y84.849 E67.33952
G1 X73.248 Y84.81 E67.34122
G1 X73.29 Y84.768 E67.34319
G1 X73.335 Y84.727 E67.34522
G1 X73.382 Y84.693 E67.34715
G1 X73.439 Y84.662 E67.34931
G1 X73.509 Y84.627 E67.35191
G1 X73.597 Y84.599 E67.35498
G1 X73.629 Y84.591 E67.35608
G1 X73.736 Y84.581 E67.35965
G1 X146.245 Y84.579 E69.77131
G1 X146.358 Y84.588 E69.77508
G1 X146.402 Y84.599 E69.77659
G1 X146.491 Y84.627 E69.77969
G1 X146.628 Y84.699 E69.78484
G1 X146.652 Y84.717 E69.78584
G1 X146.756 Y84.815 E69.79059
G1 X146.782 Y84.847 E69.79196
G1 X146.864 Y84.987 E69.79736
G1 X146.906 Y85.116 E69.80187
G1 X146.921 Y85.261 E69.80672
G1 X146.921 Y98.755 E70.25553
G1 X140.914 Y98.755 E70.45532
G1 X140.914 Y117.155 E71.06731
G1 X146.92 Y117.155 E71.26707
G1 X146.921 Y144.733 E72.18432
G1 X146.918 Y144.752 E72.18496
G1 X146.907 Y144.882 E72.1893
G1 X146.863 Y145.016 E72.19399
G1 X146.785 Y145.151 E72.19918
G1 X146.752 Y145.19 E72.20087
G1 X146.71 Y145.232 E72.20285
G1 X146.665 Y145.273 E72.20487
G1 X146.618 Y145.307 E72.2068
G1 X146.561 Y145.338 E72.20896
G1 X146.491 Y145.373 E72.21157
G1 X146.403 Y145.401 E72.21464
G1 X146.371 Y145.409 E72.21573
G1 X146.264 Y145.419 E72.21931
G1 X73.755 Y145.421 E74.63097
G1 X73.642 Y145.412 E74.63474
G0 F6000 X73.713 Y144.978
G0 X74.269 Y144.231
;TYPE:SKIN
G1 F1200 X74.269 Y85.771 E76.57912
G1 X145.731 Y85.769 E78.95596
G1 X145.731 Y97.565 E79.3483
G1 X139.724 Y97.565 E79.54809
G1 X139.724 Y118.345 E80.23924
G1 X145.73 Y118.345 E80.439
G1 X145.731 Y144.229 E81.2999
G1 X139.525 Y144.229 E81.50631
G1 X139.525 Y138.566 E81.69467
G1 X125.992 Y138.566 E82.14478
G1 X125.992 Y144.23 E82.33316
G1 X116.752 Y144.23 E82.64049
G1 X116.752 Y138.492 E82.83133
G1 X103.219 Y138.492 E83.28144
G1 X103.219 Y144.23 E83.47229
G1 X94.201 Y144.231 E83.77223
G1 X94.201 Y138.344 E83.96803
G1 X80.668 Y138.344 E84.41814
G1 X80.668 Y144.231 E84.61394
G1 X74.269 Y144.231 E84.82677
G1 F1500 E78.32677
G0 F6000 X73.989 Y144.231
G0 X74.089 Y133.503
G0 X72.214 Y133.503
G0 X83.655 Y131.436
G0 X81.82 Y131.436
G0 X81.88 Y133.503
G0 X81.6 Y133.753
G1 F1500 E84.82677
G1 F1200 X94.38 Y133.753 E85.25184
G1 X94.38 Y122.593 E85.62302
G1 X81.6 Y122.593 E86.04809
G1 X81.6 Y133.753 E86.41927
G1 F1500 E79.91927
G0 F6000 X81.88 Y133.503
G0 X82.662 Y123.655
G0 X83.018 Y122.793
G0 X83.018 Y121.562
G0 X82.738 Y121.762
G1 F1500 E86.41927
G1 F1200 X96.271 Y121.762 E86.86938
G1 X96.271 Y115.645 E87.07283
G1 X85.16 Y115.645 E87.44238
G1 X85.16 Y114.22 E87.48978
G1 X96.493 Y114.22 E87.86672
G1 X96.493 Y113.347 E87.89575
G1 X97.835 Y113.351 E87.94039
G1 X102.916 Y113.345 E88.10938
G1 X102.916 Y102.565 E88.46793
G1 X94.136 Y102.565 E88.75995
G1 X94.136 Y108.103 E88.94415
G1 X82.96 Y108.103 E89.31586
G1 X82.96 Y110.578 E89.39818
G1 X78.84 Y110.578 E89.53521
G1 X78.84 Y119.358 E89.82724
G1 X82.738 Y119.358 E89.95688
G1 X82.738 Y121.762 E90.03684
G1 F1500 E83.53684
G0 F6000 X83.018 Y121.512
G0 X83.798 Y118.296
G0 X83.798 Y117.068
G0 X84.098 Y117.068
G0 X84.098 Y112.797
G0 X83.798 Y111.64
G0 X81.662 Y110.778
G0 X81.662 Y112.633
G0 X83.437 Y104.83
G0 X81.602 Y104.83
G0 X81.662 Y106.897
G0 X81.382 Y107.147
G1 F1500 E90.03684
G1 F1200 X87.702 Y107.147 E90.24705
G1 X87.702 Y98.367 E90.53907
G1 X81.382 Y98.367 E90.74927
G1 X81.382 Y107.147 E91.0413
G1 F1500 E84.5413
G0 F6000 X81.662 Y106.897
G0 X85.385 Y106.927
G0 X85.385 Y105.092
G0 X100.288 Y95.264
G0 X98.453 Y95.264
G0 X98.513 Y97.331
G0 X98.233 Y97.581
G1 F1500 E91.0413
G1 F1200 X107.013 Y97.581 E91.33332
G1 X107.013 Y94.961 E91.42046
G1 X142.287 Y94.961 E92.59368
G1 X142.287 Y86.181 E92.8857
G1 X98.233 Y86.181 E94.35095
G1 X98.233 Y97.581 E94.73011
G1 F1500 E88.23011
G0 F6000 X98.513 Y97.331
G0 X104.872 Y97.381
G0 X104.872 Y95.526
G0 X106.647 Y125.025
G0 X104.812 Y125.025
G0 X104.872 Y133.503
G0 X104.592 Y133.753
G1 F1500 E94.73011
G1 F1200 X117.372 Y133.753 E95.15518
G1 X117.372 Y122.593 E95.52636
G1 X104.592 Y122.593 E95.95142
G1 X104.592 Y133.753 E96.32261
G1 F1500 E89.82261
G0 F6000 X104.872 Y133.503
G0 X115.055 Y133.533
G0 X115.055 Y131.698
G0 X129.591 Y131.436
G0 X127.756 Y131.436
G0 X127.816 Y133.503
G0 X127.536 Y133.753
G1 F1500 E96.32261
G1 F1200 X140.316 Y133.753 E96.74767
G1 X140.316 Y122.593 E97.11886
G1 X127.536 Y122.593 E97.54392
G1 X127.536 Y133.753 E97.9151
G1 F1500 E91.4151
G0 F6000 X127.816 Y133.503
G0 X127.756 Y131.436
G0 X129.591 Y131.436
