;FLAVOR:Marlin
;TIME:3315
;Filament used: 1.37203m
;Layer height: 0.16
;MINX:96.481
;MINY:97.19
;MINZ:0.2
;MAXX:123.657
;MAXY:122.81
;MAXZ:25.92
;Generated with Cura_SteamEngine 4.7.1
M140 S60
M105
M190 S60
M104 S200
M105
M109 S200
M82 ;absolute extrusion mode
; Ender 3 Custom Start G-code
G92 E0 ; Reset Extruder
G28 ; Home all axes
G1 Z2.0 F3000 ; Move Z Axis up little to prevent scratching of Heat Bed
G1 X0.1 Y20 Z0.3 F5000.0 ; Move to start position
G1 X0.1 Y200.0 Z0.3 F1500.0 E15 ; Draw the first line
G1 X0.4 Y200.0 Z0.3 F5000.0 ; Move to side a little
G1 X0.4 Y20 Z0.3 F1500.0 E30 ; Draw the second line
G92 E0 ; Reset Extruder
G1 Z2.0 F3000 ; Move Z Axis up little to prevent scratching of Heat Bed
G1 X5 Y20 Z0.3 F5000.0 ; Move over to prevent blob squish
G92 E0
G92 E0
G1 F1500 E-6.5
;LAYER_COUNT:174
;LAYER:0
M107
G0 F6000 X98.862 Y98.443 Z0.2
;TYPE:SKIRT
G1 F1500 E0
G1 F1200 X99.002 Y98.303 E0.00659
G1 X99.419 Y97.943 E0.02491
G1 X99.883 Y97.646 E0.04323
G1 X100.386 Y97.42 E0.06157
G1 X100.916 Y97.269 E0.0799
G1 X101.689 Y97.19 E0.10575
G1 X106.954 Y97.19 E0.28086
G1 X107.49 Y97.229 E0.29874
G1 X107.871 Y97.19 E0.31147
G1 X112.156 Y97.19 E0.45399
G1 X112.593 Y97.222 E0.46857
G1 X112.618 Y97.217 E0.46941
G1 X113.073 Y97.19 E0.48457
G1 X116.806 Y97.19 E0.60873
G1 X117.356 Y97.23 E0.62708
G1 X117.894 Y97.349 E0.6454
G1 X118.409 Y97.545 E0.66373
G1 X118.89 Y97.813 E0.68204
G1 X119.493 Y98.303 E0.70789
G1 X119.61 Y98.42 E0.71339
G1 X119.97 Y98.837 E0.73171
G1 X120.267 Y99.301 E0.75004
G1 X120.493 Y99.804 E0.76838
G1 X120.644 Y100.334 E0.78671
G1 X120.723 Y101.104 E0.81245
G1 X120.724 Y102.356 E0.85409
G1 X120.684 Y102.906 E0.87243
G1 X120.566 Y103.444 E0.89075
G1 X120.371 Y103.959 E0.90907
G1 X120.103 Y104.441 E0.92741
G1 X119.611 Y105.046 E0.95335
G1 X119.48 Y105.177 E0.95951
G1 X119.063 Y105.537 E0.97783
G1 X118.599 Y105.834 E0.99616
G1 X118.096 Y106.06 E1.0145
G1 X117.566 Y106.211 E1.03283
G1 X117.466 Y106.221 E1.03617
G1 X117.464 Y107.252 E1.07046
G1 X117.572 Y107.619 E1.08318
G1 X117.657 Y108.41 E1.10965
G1 X117.659 Y109.195 E1.13575
G1 X117.657 Y111.241 E1.2038
G1 X117.617 Y111.791 E1.22215
G1 X117.498 Y112.329 E1.24047
G1 X117.465 Y112.408 E1.24332
G1 X117.467 Y113.826 E1.29048
G1 X117.807 Y113.882 E1.30194
G1 X118.332 Y114.048 E1.32026
G1 X118.828 Y114.289 E1.3386
G1 X119.283 Y114.598 E1.35689
G1 X119.689 Y114.971 E1.37523
G1 X120.037 Y115.398 E1.39355
G1 X120.32 Y115.871 E1.41188
G1 X120.531 Y116.38 E1.43021
G1 X120.667 Y116.914 E1.44854
G1 X120.725 Y117.578 E1.47071
G1 X120.725 Y118.892 E1.51441
G1 X120.685 Y119.442 E1.53275
G1 X120.566 Y119.98 E1.55108
G1 X120.37 Y120.495 E1.56941
G1 X120.102 Y120.976 E1.58772
G1 X119.601 Y121.59 E1.61408
G1 X119.482 Y121.708 E1.61965
G1 X119.063 Y122.067 E1.638
G1 X118.597 Y122.361 E1.65633
G1 X118.094 Y122.585 E1.67464
G1 X117.563 Y122.734 E1.69299
G1 X116.806 Y122.81 E1.71829
G1 X113.074 Y122.81 E1.84242
G1 X112.538 Y122.771 E1.86029
G1 X112.157 Y122.81 E1.87303
G1 X107.872 Y122.81 E2.01555
G1 X107.435 Y122.778 E2.03012
G1 X107.41 Y122.783 E2.03097
G1 X106.955 Y122.81 E2.04613
G1 X101.667 Y122.81 E2.22201
G1 X101.117 Y122.77 E2.24035
G1 X100.579 Y122.651 E2.25868
G1 X100.064 Y122.455 E2.27701
G1 X99.583 Y122.187 E2.29532
G1 X98.98 Y121.697 E2.32116
G1 X98.863 Y121.58 E2.32667
G1 X98.503 Y121.163 E2.34499
G1 X98.206 Y120.699 E2.36331
G1 X97.98 Y120.196 E2.38165
G1 X97.829 Y119.666 E2.39998
G1 X97.75 Y118.896 E2.42573
G1 X97.749 Y117.653 E2.46707
G1 X97.789 Y117.103 E2.48541
G1 X97.907 Y116.565 E2.50373
G1 X98.102 Y116.05 E2.52205
G1 X98.37 Y115.568 E2.54039
G1 X98.862 Y114.963 E2.56633
G1 X99.002 Y114.823 E2.57291
G1 X99.419 Y114.463 E2.59123
G1 X99.883 Y114.166 E2.60956
G1 X100.386 Y113.94 E2.6279
G1 X100.916 Y113.789 E2.64623
G1 X101.689 Y113.71 E2.67207
G1 X102.527 Y113.71 E2.69994
G1 X102.525 Y112.657 E2.73497
G1 X102.529 Y109.844 E2.82853
G1 X102.526 Y107.641 E2.9018
G1 X102.528 Y106.29 E2.94673
G1 X101.667 Y106.29 E2.97537
G1 X101.117 Y106.25 E2.99371
G1 X100.579 Y106.131 E3.01204
G1 X100.064 Y105.935 E3.03037
G1 X99.583 Y105.667 E3.04868
G1 X98.98 Y105.177 E3.07452
G1 X98.863 Y105.06 E3.08003
G1 X98.503 Y104.643 E3.09835
G1 X98.206 Y104.179 E3.11667
G1 X97.98 Y103.676 E3.13501
G1 X97.829 Y103.146 E3.15334
G1 X97.75 Y102.376 E3.17909
G1 X97.749 Y101.133 E3.22043
G1 X97.789 Y100.583 E3.23877
G1 X97.907 Y100.045 E3.25709
G1 X98.102 Y99.53 E3.27541
G1 X98.37 Y99.048 E3.29375
G1 X98.862 Y98.443 E3.31969
G0 F6000 X99.145 Y98.726
G1 F1200 X99.285 Y98.586 E3.32627
G1 X99.681 Y98.247 E3.34361
G1 X100.123 Y97.972 E3.36092
G1 X100.603 Y97.768 E3.37827
G1 X101.108 Y97.64 E3.3956
G1 X101.689 Y97.59 E3.41499
G1 X106.954 Y97.59 E3.59011
G1 X107.438 Y97.627 E3.60625
G1 X107.871 Y97.59 E3.62071
G1 X112.156 Y97.59 E3.76323
G1 X112.666 Y97.629 E3.78024
G1 X113.073 Y97.59 E3.79384
G1 X116.806 Y97.59 E3.918
G1 X117.326 Y97.63 E3.93534
G1 X117.833 Y97.749 E3.95266
G1 X118.316 Y97.944 E3.96999
G1 X118.764 Y98.21 E3.98732
G1 X119.21 Y98.586 E4.00672
G1 X119.327 Y98.703 E4.01222
G1 X119.666 Y99.099 E4.02956
G1 X119.941 Y99.541 E4.04688
G1 X120.145 Y100.021 E4.06422
G1 X120.273 Y100.526 E4.08155
G1 X120.323 Y101.104 E4.10085
G1 X120.324 Y102.356 E4.14249
G1 X120.284 Y102.876 E4.15983
G1 X120.166 Y103.383 E4.17715
G1 X119.971 Y103.867 E4.1945
G1 X119.705 Y104.315 E4.21183
G1 X119.328 Y104.763 E4.23131
G1 X119.197 Y104.894 E4.23747
G1 X118.801 Y105.233 E4.25481
G1 X118.359 Y105.508 E4.27212
G1 X117.879 Y105.712 E4.28947
G1 X117.374 Y105.84 E4.30679
G1 X117.066 Y105.866 E4.31708
G1 X117.064 Y107.301 E4.3648
G1 X117.192 Y107.759 E4.38062
G1 X117.257 Y108.411 E4.40241
G1 X117.259 Y109.194 E4.42846
G1 X117.257 Y111.241 E4.49654
G1 X117.217 Y111.761 E4.51389
G1 X117.098 Y112.268 E4.53121
G1 X117.064 Y112.346 E4.53404
G1 X117.068 Y114.19 E4.59537
G1 X117.255 Y114.194 E4.60159
G1 X117.769 Y114.284 E4.61895
G1 X118.262 Y114.452 E4.63627
G1 X118.724 Y114.693 E4.6536
G1 X119.144 Y115.002 E4.67094
G1 X119.512 Y115.371 E4.68828
G1 X119.818 Y115.792 E4.70559
G1 X120.057 Y116.256 E4.72295
G1 X120.223 Y116.75 E4.74028
G1 X120.31 Y117.264 E4.75762
G1 X120.325 Y117.578 E4.76807
G1 X120.325 Y118.892 E4.81178
G1 X120.285 Y119.412 E4.82912
G1 X120.166 Y119.919 E4.84645
G1 X119.971 Y120.402 E4.86377
G1 X119.705 Y120.85 E4.8811
G1 X119.319 Y121.306 E4.90097
G1 X119.2 Y121.424 E4.90654
G1 X118.803 Y121.762 E4.92389
G1 X118.359 Y122.035 E4.94122
G1 X117.878 Y122.236 E4.95856
G1 X117.373 Y122.362 E4.97587
G1 X116.806 Y122.41 E4.9948
G1 X113.074 Y122.41 E5.11892
G1 X112.59 Y122.373 E5.13507
G1 X112.157 Y122.41 E5.14952
G1 X107.872 Y122.41 E5.29204
G1 X107.362 Y122.371 E5.30906
G1 X106.955 Y122.41 E5.32265
G1 X101.667 Y122.41 E5.49853
G1 X101.147 Y122.37 E5.51588
G1 X100.64 Y122.251 E5.5332
G1 X100.157 Y122.056 E5.55053
G1 X99.709 Y121.79 E5.56785
G1 X99.263 Y121.414 E5.58726
G1 X99.146 Y121.297 E5.59276
G1 X98.807 Y120.901 E5.6101
G1 X98.532 Y120.459 E5.62741
G1 X98.328 Y119.979 E5.64476
G1 X98.2 Y119.474 E5.66209
G1 X98.15 Y118.896 E5.68138
G1 X98.149 Y117.653 E5.72273
G1 X98.189 Y117.133 E5.74007
G1 X98.307 Y116.626 E5.75739
G1 X98.502 Y116.142 E5.77474
G1 X98.768 Y115.694 E5.79207
G1 X99.145 Y115.246 E5.81154
G1 X99.285 Y115.106 E5.81813
G1 X99.681 Y114.767 E5.83547
G1 X100.123 Y114.492 E5.85278
G1 X100.603 Y114.288 E5.87013
G1 X101.108 Y114.16 E5.88746
G1 X101.689 Y114.11 E5.90685
G1 X102.928 Y114.11 E5.94806
G1 X102.925 Y112.657 E5.99639
G1 X102.929 Y109.844 E6.08995
G1 X102.926 Y107.642 E6.16319
G1 X102.929 Y105.89 E6.22146
G1 X101.667 Y105.89 E6.26343
G1 X101.147 Y105.85 E6.28078
G1 X100.64 Y105.731 E6.2981
G1 X100.157 Y105.536 E6.31543
G1 X99.709 Y105.27 E6.33275
G1 X99.263 Y104.894 E6.35216
G1 X99.146 Y104.777 E6.35766
G1 X98.807 Y104.381 E6.375
G1 X98.532 Y103.939 E6.39231
G1 X98.328 Y103.459 E6.40966
G1 X98.2 Y102.954 E6.42699
G1 X98.15 Y102.376 E6.44628
G1 X98.149 Y101.133 E6.48762
G1 X98.189 Y100.613 E6.50497
G1 X98.307 Y100.106 E6.52228
G1 X98.502 Y99.622 E6.53964
G1 X98.768 Y99.174 E6.55697
G1 X99.145 Y98.726 E6.57644
G0 F6000 X99.428 Y99.009
G1 F1200 X99.568 Y98.869 E6.58303
G1 X99.941 Y98.552 E6.59931
G1 X100.361 Y98.3 E6.6156
G1 X100.816 Y98.12 E6.63188
G1 X101.294 Y98.016 E6.64815
G1 X101.689 Y97.99 E6.66131
G1 X106.954 Y97.99 E6.83643
G1 X107.42 Y98.028 E6.85198
G1 X107.476 Y98.016 E6.85388
G1 X107.871 Y97.99 E6.86705
G1 X112.156 Y97.99 E7.00957
G1 X112.637 Y98.029 E7.02562
G1 X112.77 Y98.005 E7.03011
G1 X113.073 Y97.99 E7.0402
G1 X116.806 Y97.99 E7.16436
G1 X117.294 Y98.03 E7.18065
G1 X117.769 Y98.149 E7.19694
G1 X118.218 Y98.343 E7.2132
G1 X118.63 Y98.608 E7.2295
G1 X118.927 Y98.869 E7.24265
G1 X119.044 Y98.986 E7.24815
G1 X119.361 Y99.359 E7.26443
G1 X119.613 Y99.779 E7.28072
G1 X119.793 Y100.234 E7.297
G1 X119.897 Y100.712 E7.31327
G1 X119.923 Y101.105 E7.32637
G1 X119.924 Y102.357 E7.36801
G1 X119.884 Y102.844 E7.38426
G1 X119.766 Y103.319 E7.40054
G1 X119.572 Y103.769 E7.41684
G1 X119.308 Y104.181 E7.43311
G1 X119.045 Y104.48 E7.44636
G1 X118.914 Y104.611 E7.45252
G1 X118.541 Y104.928 E7.4688
G1 X118.121 Y105.18 E7.48509
G1 X117.666 Y105.36 E7.50137
G1 X117.188 Y105.464 E7.51764
G1 X116.793 Y105.49 E7.5308
G1 X116.667 Y105.49 E7.53499
G1 X116.664 Y107.373 E7.59762
G1 X116.686 Y107.422 E7.59941
G1 X116.811 Y107.895 E7.61568
G1 X116.857 Y108.412 E7.63295
G1 X116.859 Y109.193 E7.65892
G1 X116.857 Y111.241 E7.72704
G1 X116.817 Y111.729 E7.74332
G1 X116.698 Y112.204 E7.75961
G1 X116.664 Y112.28 E7.76238
G1 X116.669 Y114.588 E7.83914
G1 X116.757 Y114.583 E7.84208
G1 X117.246 Y114.595 E7.85834
G1 X117.727 Y114.687 E7.87463
G1 X118.186 Y114.856 E7.8909
G1 X118.612 Y115.097 E7.90718
G1 X118.993 Y115.405 E7.92348
G1 X119.319 Y115.77 E7.93975
G1 X119.581 Y116.183 E7.95602
G1 X119.773 Y116.634 E7.97232
G1 X119.888 Y117.109 E7.98858
G1 X119.925 Y117.578 E8.00423
G1 X119.925 Y118.892 E8.04793
G1 X119.885 Y119.38 E8.06421
G1 X119.766 Y119.855 E8.0805
G1 X119.572 Y120.304 E8.09677
G1 X119.307 Y120.716 E8.11306
G1 X119.037 Y121.022 E8.12664
G1 X118.918 Y121.14 E8.13221
G1 X118.544 Y121.455 E8.14847
G1 X118.123 Y121.705 E8.16476
G1 X117.667 Y121.884 E8.18105
G1 X117.188 Y121.986 E8.19734
G1 X116.806 Y122.01 E8.21007
G1 X113.074 Y122.01 E8.3342
G1 X112.608 Y121.972 E8.34975
G1 X112.552 Y121.984 E8.35165
G1 X112.157 Y122.01 E8.36482
G1 X107.872 Y122.01 E8.50734
G1 X107.391 Y121.971 E8.52339
G1 X107.258 Y121.995 E8.52788
G1 X106.955 Y122.01 E8.53797
G1 X101.667 Y122.01 E8.71385
G1 X101.179 Y121.97 E8.73014
G1 X100.704 Y121.851 E8.74643
G1 X100.255 Y121.657 E8.76269
G1 X99.843 Y121.392 E8.77899
G1 X99.546 Y121.131 E8.79214
G1 X99.429 Y121.014 E8.79764
G1 X99.112 Y120.641 E8.81392
G1 X98.86 Y120.221 E8.83021
G1 X98.68 Y119.766 E8.84649
G1 X98.576 Y119.288 E8.86276
G1 X98.55 Y118.895 E8.87586
G1 X98.549 Y117.652 E8.9172
G1 X98.589 Y117.165 E8.93345
G1 X98.707 Y116.69 E8.94973
G1 X98.901 Y116.24 E8.96603
G1 X99.165 Y115.828 E8.98231
G1 X99.428 Y115.529 E8.99555
G1 X99.568 Y115.389 E9.00213
G1 X99.941 Y115.072 E9.01842
G1 X100.361 Y114.82 E9.03471
G1 X100.816 Y114.64 E9.05098
G1 X101.294 Y114.536 E9.06725
G1 X101.689 Y114.51 E9.08042
G1 X103.329 Y114.51 E9.13496
G1 X103.325 Y112.658 E9.19656
G1 X103.329 Y109.845 E9.29012
G1 X103.326 Y107.642 E9.3634
G1 X103.329 Y105.49 E9.43497
G1 X101.667 Y105.49 E9.49025
G1 X101.179 Y105.45 E9.50653
G1 X100.704 Y105.331 E9.52282
G1 X100.255 Y105.137 E9.53909
G1 X99.843 Y104.872 E9.55538
G1 X99.546 Y104.611 E9.56853
G1 X99.429 Y104.494 E9.57404
G1 X99.112 Y104.121 E9.59032
G1 X98.86 Y103.701 E9.60661
G1 X98.68 Y103.246 E9.62288
G1 X98.576 Y102.768 E9.63915
G1 X98.55 Y102.375 E9.65225
G1 X98.549 Y101.132 E9.6936
G1 X98.589 Y100.645 E9.70985
G1 X98.707 Y100.17 E9.72613
G1 X98.901 Y99.72 E9.74243
G1 X99.165 Y99.308 E9.7587
G1 X99.428 Y99.009 E9.77194
G0 F6000 X99.711 Y99.292
G1 F1200 X99.851 Y99.152 E9.77853
G1 X100.2 Y98.859 E9.79369
G1 X100.595 Y98.632 E9.80884
G1 X101.023 Y98.477 E9.82398
G1 X101.689 Y98.39 E9.84632
G1 X106.954 Y98.39 E10.02143
G1 X107.408 Y98.43 E10.03659
G1 X107.459 Y98.444 E10.03835
G1 X107.871 Y98.39 E10.05217
G1 X112.156 Y98.39 E10.19469
G1 X112.61 Y98.43 E10.20985
G1 X112.639 Y98.426 E10.21082
G1 X113.073 Y98.39 E10.22531
G1 X116.806 Y98.39 E10.34947
G1 X117.26 Y98.43 E10.36463
G1 X117.7 Y98.548 E10.37978
G1 X118.112 Y98.742 E10.39492
G1 X118.644 Y99.152 E10.41726
G1 X118.761 Y99.269 E10.42277
G1 X119.054 Y99.618 E10.43792
G1 X119.281 Y100.013 E10.45308
G1 X119.436 Y100.441 E10.46822
G1 X119.523 Y101.105 E10.49049
G1 X119.524 Y102.357 E10.53213
G1 X119.484 Y102.811 E10.54729
G1 X119.366 Y103.251 E10.56244
G1 X119.173 Y103.664 E10.5776
G1 X118.762 Y104.197 E10.59999
G1 X118.631 Y104.328 E10.60615
G1 X118.282 Y104.621 E10.62131
G1 X117.887 Y104.848 E10.63646
G1 X117.459 Y105.003 E10.6516
G1 X116.793 Y105.09 E10.67394
G1 X116.268 Y105.09 E10.6914
G1 X116.264 Y107.46 E10.77023
G1 X116.319 Y107.585 E10.77477
G1 X116.427 Y108.027 E10.7899
G1 X116.457 Y108.413 E10.80278
G1 X116.459 Y109.192 E10.82869
G1 X116.457 Y111.241 E10.89684
G1 X116.417 Y111.695 E10.912
G1 X116.299 Y112.135 E10.92715
G1 X116.264 Y112.211 E10.92993
G1 X116.269 Y114.818 E11.01664
G1 X116.268 Y115.011 E11.02306
G1 X116.779 Y114.982 E11.04009
G1 X117.235 Y114.996 E11.05526
G1 X117.68 Y115.09 E11.07039
G1 X118.103 Y115.26 E11.08555
G1 X118.49 Y115.501 E11.10071
G1 X118.828 Y115.807 E11.11588
G1 X119.108 Y116.166 E11.13102
G1 X119.321 Y116.569 E11.14618
G1 X119.461 Y117.003 E11.16135
G1 X119.525 Y117.578 E11.18059
G1 X119.525 Y118.892 E11.22429
G1 X119.485 Y119.346 E11.23945
G1 X119.367 Y119.786 E11.25461
G1 X119.173 Y120.198 E11.26975
G1 X118.91 Y120.571 E11.28493
G1 X118.756 Y120.738 E11.29249
G1 X118.637 Y120.856 E11.29806
G1 X118.286 Y121.147 E11.31323
G1 X117.89 Y121.373 E11.32839
G1 X117.461 Y121.526 E11.34354
G1 X116.806 Y121.61 E11.3655
G1 X113.074 Y121.61 E11.48963
G1 X112.62 Y121.57 E11.50479
G1 X112.569 Y121.556 E11.50655
G1 X112.157 Y121.61 E11.52037
G1 X107.872 Y121.61 E11.66289
G1 X107.418 Y121.57 E11.67805
G1 X107.389 Y121.574 E11.67902
G1 X106.955 Y121.61 E11.6935
G1 X101.667 Y121.61 E11.86938
G1 X101.213 Y121.57 E11.88454
G1 X100.773 Y121.452 E11.89969
G1 X100.361 Y121.258 E11.91484
G1 X99.829 Y120.848 E11.93718
G1 X99.712 Y120.731 E11.94268
G1 X99.419 Y120.382 E11.95784
G1 X99.192 Y119.987 E11.97299
G1 X99.037 Y119.559 E11.98813
G1 X98.95 Y118.895 E12.01041
G1 X98.949 Y117.652 E12.05175
G1 X98.989 Y117.198 E12.06691
G1 X99.107 Y116.758 E12.08206
G1 X99.3 Y116.345 E12.09722
G1 X99.711 Y115.812 E12.11961
G1 X99.851 Y115.672 E12.12619
G1 X100.2 Y115.379 E12.14135
G1 X100.595 Y115.152 E12.1565
G1 X101.023 Y114.997 E12.17164
G1 X101.689 Y114.91 E12.19398
G1 X103.73 Y114.91 E12.26186
G1 X103.725 Y112.658 E12.33677
G1 X103.729 Y109.845 E12.43033
G1 X103.726 Y107.643 E12.50357
G1 X103.73 Y105.09 E12.58848
G1 X101.667 Y105.09 E12.65709
G1 X101.213 Y105.05 E12.67225
G1 X100.773 Y104.932 E12.6874
G1 X100.361 Y104.738 E12.70255
G1 X99.829 Y104.328 E12.72489
G1 X99.712 Y104.211 E12.73039
G1 X99.419 Y103.862 E12.74555
G1 X99.192 Y103.467 E12.7607
G1 X99.037 Y103.039 E12.77584
G1 X98.95 Y102.375 E12.79812
G1 X98.949 Y101.132 E12.83946
G1 X98.989 Y100.678 E12.85462
G1 X99.107 Y100.238 E12.86977
G1 X99.3 Y99.825 E12.88493
G1 X99.711 Y99.292 E12.90732
G0 F6000 X99.993 Y99.574
G1 F1200 X100.133 Y99.434 E12.9139
G1 X100.457 Y99.168 E12.92785
G1 X100.824 Y98.967 E12.94176
G1 X101.224 Y98.84 E12.95572
G1 X101.689 Y98.79 E12.97128
G1 X106.954 Y98.79 E13.14639
G1 X107.371 Y98.83 E13.16032
G1 X107.406 Y98.84 E13.16153
G1 X107.871 Y98.79 E13.17709
