;FLAVOR:Marlin
;TIME:6344
;Filament used: 2.70091m
;Layer height: 0.16
;MINX:89.336
;MINY:76.835
;MINZ:0.2
;MAXX:129.8
;MAXY:133.124
;MAXZ:9.96
;Generated with Cura_SteamEngine 4.7.1
M140 S60
M105
M190 S60
M104 S200
M105
M109 S200
M82 ;absolute extrusion mode
; Ender 3 Custom Start G-code
G92 E0 ; Reset Extruder
G28 ; Home all axes
G1 Z2.0 F3000 ; Move Z Axis up little to prevent scratching of Heat Bed
G1 X0.1 Y20 Z0.3 F5000.0 ; Move to start position
G1 X0.1 Y200.0 Z0.3 F1500.0 E15 ; Draw the first line
G1 X0.4 Y200.0 Z0.3 F5000.0 ; Move to side a little
G1 X0.4 Y20 Z0.3 F1500.0 E30 ; Draw the second line
G92 E0 ; Reset Extruder
G1 Z2.0 F3000 ; Move Z Axis up little to prevent scratching of Heat Bed
G1 X5 Y20 Z0.3 F5000.0 ; Move over to prevent blob squish
G92 E0
G92 E0
G1 F1500 E-4
;LAYER_COUNT:80
;LAYER:0
M107
G0 F6000 X93.115 Y117.122 Z0.2
;TYPE:SKIRT
G1 F1500 E0
G1 F1200 X125.992 Y117.121 E1.09349
G1 X126.018 Y117.118 E1.09436
G1 X126.027 Y117.254 E1.0989
G1 X126.009 Y117.408 E1.10405
G1 X125.857 Y117.604 E1.1123
G1 X125.762 Y117.832 E1.12052
G1 X125.759 Y117.844 E1.12093
G1 X93.29 Y117.845 E2.20085
G1 X93.167 Y117.569 E2.2109
G1 X93.123 Y117.508 E2.21341
G1 X93.122 Y117.292 E2.22059
G1 X93.107 Y117.189 E2.22405
G1 X93.115 Y117.122 E2.2263
G0 F6000 X93.017 Y116.722
G1 F1200 X125.992 Y116.721 E3.32305
G1 X126.129 Y116.705 E3.32764
G1 X126.176 Y116.694 E3.32924
G1 X126.315 Y116.643 E3.33417
G1 X126.447 Y116.575 E3.33911
G1 X126.399 Y116.829 E3.3477
G1 X126.426 Y117.227 E3.36097
G1 X126.431 Y117.243 E3.36153
G1 X126.39 Y117.588 E3.37308
G1 X126.308 Y117.668 E3.37689
G1 X126.148 Y117.939 E3.38736
G1 X126.074 Y118.208 E3.39664
G1 X125.985 Y118.234 E3.39972
G1 X125.933 Y118.244 E3.40149
G1 X93.075 Y118.245 E4.49435
G1 X92.983 Y118.214 E4.49758
G1 X92.944 Y118.031 E4.5038
G1 X92.843 Y117.804 E4.51206
G1 X92.723 Y117.638 E4.51888
G1 X92.722 Y117.293 E4.53035
G1 X92.704 Y117.195 E4.53366
G1 X92.741 Y116.874 E4.54441
G1 X92.71 Y116.646 E4.55206
G1 X92.809 Y116.687 E4.55563
G1 X92.861 Y116.701 E4.55742
G1 X93.017 Y116.722 E4.56266
G0 F6000 X93.017 Y116.322
G1 F1200 X125.992 Y116.321 E5.65941
G1 X126.085 Y116.305 E5.66255
G1 X126.131 Y116.288 E5.66418
G1 X126.355 Y116.172 E5.67257
G1 X126.661 Y116.047 E5.68356
G1 X126.682 Y116.037 E5.68434
G1 X126.806 Y115.968 E5.68906
G1 X126.833 Y115.95 E5.69013
G1 X127.008 Y115.811 E5.69757
G1 X127.106 Y116.083 E5.70718
G1 X126.817 Y116.704 E5.72997
G1 X126.798 Y116.802 E5.73329
G1 X126.825 Y117.2 E5.74655
G1 X126.834 Y117.241 E5.74795
G1 X126.787 Y117.637 E5.76121
G1 X126.811 Y117.738 E5.76467
G1 X126.587 Y117.955 E5.77504
G1 X126.533 Y118.046 E5.77856
G1 X126.427 Y118.429 E5.79178
G1 X126.427 Y118.52 E5.7948
G1 X126.075 Y118.624 E5.80701
G1 X125.971 Y118.644 E5.81053
G1 X93.025 Y118.645 E6.90632
G1 X92.965 Y118.63 E6.90838
G1 X92.636 Y118.519 E6.91993
G1 X92.636 Y118.503 E6.92046
G1 X92.553 Y118.114 E6.93369
G1 X92.519 Y118.039 E6.93643
G1 X92.306 Y117.746 E6.94848
G1 X92.323 Y117.692 E6.95036
G1 X92.322 Y117.294 E6.9636
G1 X92.298 Y117.222 E6.96612
G1 X92.344 Y116.828 E6.97931
G1 X92.331 Y116.731 E6.98257
G1 X92.225 Y116.466 E6.99206
G1 X92.247 Y116.418 E6.99382
G1 X92.307 Y116.024 E7.00707
G1 X92.313 Y116.016 E7.00741
G1 X92.628 Y116.167 E7.01902
G1 X92.668 Y116.182 E7.02045
G1 X92.717 Y116.193 E7.02212
G1 X92.863 Y116.28 E7.02777
G1 X92.913 Y116.301 E7.02957
G1 X92.965 Y116.315 E7.03136
G1 X93.017 Y116.322 E7.03311
G1 F1500 E3.03311
;MESH:tapa_carcasa.stl
G0 F6000 X108.661 Y103.524
G0 X108.304 Y105.347
G0 X109.996 Y105.322
;TYPE:WALL-INNER
G1 F1500 E7.03311
G1 F1200 X110.76 Y105.287 E7.05855
G1 X110.848 Y105.281 E7.06148
G1 X111.658 Y105.16 E7.08872
G1 X112.467 Y104.957 E7.11646
G1 X113.253 Y104.676 E7.14422
G1 X114.007 Y104.32 E7.17196
G1 X114.722 Y103.89 E7.19971
G1 X115.393 Y103.395 E7.22744
G1 X116.011 Y102.834 E7.2552
G1 X116.573 Y102.215 E7.28301
G1 X117.069 Y101.544 E7.31076
G1 X117.497 Y100.83 E7.33845
G1 X117.854 Y100.075 E7.36623
G1 X118.135 Y99.289 E7.39399
G1 X118.338 Y98.481 E7.4217
G1 X118.461 Y97.654 E7.44951
G1 X118.5 Y96.826 E7.47708
G1 X118.465 Y96.062 E7.50251
G1 X118.459 Y95.974 E7.50545
G1 X118.338 Y95.164 E7.53269
G1 X118.135 Y94.355 E7.56043
G1 X117.854 Y93.569 E7.58819
G1 X117.497 Y92.815 E7.61594
G1 X117.069 Y92.101 E7.64363
G1 X116.573 Y91.429 E7.67141
G1 X116.011 Y90.811 E7.69919
G1 X115.393 Y90.25 E7.72695
G1 X114.722 Y89.753 E7.75472
G1 X114.007 Y89.325 E7.78244
G1 X113.253 Y88.968 E7.81019
G1 X112.467 Y88.687 E7.83795
G1 X111.658 Y88.484 E7.86569
G1 X110.832 Y88.361 E7.89347
G1 X110.004 Y88.322 E7.92104
G1 X109.24 Y88.357 E7.94647
G1 X109.152 Y88.363 E7.94941
G1 X108.342 Y88.484 E7.97665
G1 X107.533 Y88.687 E8.00439
G1 X106.747 Y88.968 E8.03215
G1 X105.993 Y89.325 E8.0599
G1 X105.278 Y89.753 E8.08761
G1 X104.607 Y90.25 E8.11539
G1 X103.989 Y90.811 E8.14315
G1 X103.427 Y91.429 E8.17093
G1 X102.931 Y92.101 E8.19871
G1 X102.503 Y92.815 E8.2264
G1 X102.146 Y93.569 E8.25415
G1 X101.865 Y94.355 E8.28191
G1 X101.662 Y95.164 E8.30965
G1 X101.539 Y95.989 E8.33739
G1 X101.5 Y96.822 E8.36513
G1 X101.539 Y97.655 E8.39287
G1 X101.662 Y98.481 E8.42064
G1 X101.865 Y99.289 E8.44835
G1 X102.146 Y100.075 E8.47611
G1 X102.503 Y100.83 E8.50389
G1 X102.931 Y101.544 E8.53158
G1 X103.427 Y102.215 E8.55933
G1 X103.989 Y102.834 E8.58714
G1 X104.607 Y103.395 E8.6149
G1 X105.278 Y103.89 E8.64263
G1 X105.993 Y104.32 E8.67038
G1 X106.747 Y104.676 E8.69812
G1 X107.533 Y104.957 E8.72588
G1 X108.342 Y105.16 E8.75362
G1 X109.168 Y105.283 E8.7814
G1 X109.996 Y105.322 E8.80897
G0 F6000 X109.996 Y104.922
G1 F1200 X110.736 Y104.888 E8.8336
G1 X110.804 Y104.883 E8.83587
G1 X111.58 Y104.767 E8.86197
G1 X112.351 Y104.574 E8.8884
G1 X113.1 Y104.306 E8.91486
G1 X113.818 Y103.967 E8.94127
G1 X114.5 Y103.557 E8.96774
G1 X115.139 Y103.085 E8.99416
G1 X115.728 Y102.551 E9.0206
G1 X116.263 Y101.961 E9.04709
G1 X116.736 Y101.322 E9.07354
G1 X117.144 Y100.641 E9.09994
G1 X117.484 Y99.922 E9.12639
G1 X117.752 Y99.173 E9.15285
G1 X117.945 Y98.403 E9.17925
G1 X118.062 Y97.615 E9.20575
G1 X118.1 Y96.826 E9.23202
G1 X118.066 Y96.086 E9.25666
G1 X118.061 Y96.018 E9.25893
G1 X117.945 Y95.242 E9.28503
G1 X117.752 Y94.471 E9.31146
G1 X117.484 Y93.722 E9.33792
G1 X117.144 Y93.004 E9.36434
G1 X116.736 Y92.323 E9.39075
G1 X116.263 Y91.683 E9.41721
G1 X115.728 Y91.094 E9.44368
G1 X115.139 Y90.56 E9.47012
G1 X114.5 Y90.086 E9.49659
G1 X113.818 Y89.678 E9.52302
G1 X113.1 Y89.338 E9.54944
G1 X112.351 Y89.07 E9.5759
G1 X111.58 Y88.877 E9.60233
G1 X110.793 Y88.76 E9.6288
G1 X110.004 Y88.722 E9.65507
G1 X109.264 Y88.756 E9.67971
G1 X109.196 Y88.761 E9.68198
G1 X108.42 Y88.877 E9.70807
G1 X107.649 Y89.07 E9.73451
G1 X106.9 Y89.338 E9.76097
G1 X106.182 Y89.678 E9.78739
G1 X105.5 Y90.086 E9.81382
G1 X104.861 Y90.56 E9.84028
G1 X104.272 Y91.094 E9.86673
G1 X103.737 Y91.683 E9.89319
G1 X103.264 Y92.323 E9.91966
G1 X102.856 Y93.004 E9.94607
G1 X102.516 Y93.722 E9.97249
G1 X102.248 Y94.471 E9.99895
G1 X102.055 Y95.242 E10.02538
G1 X101.938 Y96.028 E10.05181
G1 X101.9 Y96.822 E10.07825
G1 X101.938 Y97.616 E10.10469
G1 X102.055 Y98.403 E10.13115
G1 X102.248 Y99.173 E10.15756
G1 X102.516 Y99.922 E10.18401
G1 X102.856 Y100.641 E10.21047
G1 X103.264 Y101.322 E10.23687
G1 X103.737 Y101.961 E10.26331
G1 X104.272 Y102.551 E10.2898
G1 X104.861 Y103.085 E10.31625
G1 X105.5 Y103.557 E10.34267
G1 X106.182 Y103.967 E10.36914
G1 X106.9 Y104.306 E10.39554
G1 X107.649 Y104.574 E10.422
G1 X108.42 Y104.767 E10.44844
G1 X109.207 Y104.884 E10.4749
G1 X109.996 Y104.922 E10.50117
G0 F6000 X109.997 Y104.522
;TYPE:WALL-OUTER
G1 F1200 X110.71 Y104.489 E10.52491
G1 X110.758 Y104.485 E10.52652
G1 X111.502 Y104.374 E10.55154
G1 X112.235 Y104.191 E10.57666
G1 X112.947 Y103.936 E10.60182
G1 X113.629 Y103.614 E10.6269
G1 X114.278 Y103.224 E10.65209
G1 X114.885 Y102.775 E10.6772
G1 X115.445 Y102.268 E10.70232
G1 X115.953 Y101.707 E10.72749
G1 X116.403 Y101.1 E10.75263
G1 X116.791 Y100.452 E10.77775
G1 X117.114 Y99.769 E10.80288
G1 X117.369 Y99.057 E10.82803
G1 X117.552 Y98.325 E10.85313
G1 X117.663 Y97.576 E10.87831
G1 X117.7 Y96.825 E10.90332
G1 X117.667 Y96.112 E10.92706
G1 X117.663 Y96.064 E10.92866
G1 X117.552 Y95.32 E10.95368
G1 X117.369 Y94.587 E10.97881
G1 X117.114 Y93.875 E11.00396
G1 X116.791 Y93.193 E11.02906
G1 X116.403 Y92.545 E11.05418
G1 X115.953 Y91.937 E11.07934
G1 X115.445 Y91.377 E11.10449
G1 X114.885 Y90.87 E11.12961
G1 X114.278 Y90.419 E11.15476
G1 X113.629 Y90.031 E11.17991
G1 X112.947 Y89.708 E11.20501
G1 X112.235 Y89.453 E11.23017
G1 X111.502 Y89.27 E11.25529
G1 X110.754 Y89.159 E11.28045
G1 X110.003 Y89.122 E11.30545
G1 X109.29 Y89.155 E11.32919
G1 X109.242 Y89.159 E11.3308
G1 X108.498 Y89.27 E11.35582
G1 X107.765 Y89.453 E11.38094
G1 X107.053 Y89.708 E11.4061
G1 X106.371 Y90.031 E11.4312
G1 X105.722 Y90.419 E11.45635
G1 X105.115 Y90.87 E11.4815
G1 X104.555 Y91.377 E11.50662
G1 X104.047 Y91.937 E11.53177
G1 X103.597 Y92.545 E11.55693
G1 X103.209 Y93.193 E11.58205
G1 X102.886 Y93.875 E11.60715
G1 X102.631 Y94.587 E11.6323
G1 X102.448 Y95.32 E11.65743
G1 X102.337 Y96.067 E11.68255
G1 X102.3 Y96.822 E11.70769
G1 X102.337 Y97.577 E11.73283
G1 X102.448 Y98.325 E11.75798
G1 X102.631 Y99.057 E11.78308
G1 X102.886 Y99.769 E11.80823
G1 X103.209 Y100.452 E11.83336
G1 X103.597 Y101.1 E11.85848
G1 X104.047 Y101.707 E11.88361
G1 X104.555 Y102.268 E11.90879
G1 X105.115 Y102.775 E11.93391
G1 X105.722 Y103.224 E11.95902
G1 X106.371 Y103.614 E11.98421
G1 X107.053 Y103.936 E12.00929
G1 X107.765 Y104.191 E12.03444
G1 X108.498 Y104.374 E12.05957
G1 X109.246 Y104.485 E12.08472
G1 X109.997 Y104.522 E12.10973
G0 F6000 X109.997 Y104.962
G1 F1500 E8.10973
G0 F6000 X108.304 Y105.347
G0 X108.661 Y103.524
G0 X108.305 Y115.901
G0 X108.304 Y114.027
G0 X93.324 Y114.237
;TYPE:WALL-INNER
G1 F1500 E12.10973
G1 F1200 X93.159 Y113.878 E12.12287
G1 X93.058 Y113.439 E12.13786
G1 X92.965 Y112.735 E12.16147
G1 X92.944 Y112.145 E12.18111
G1 X92.945 Y89.25 E12.9426
G1 X92.941 Y86.219 E13.04341
G1 X92.945 Y80.502 E13.23356
G1 X92.971 Y80.466 E13.23504
G1 X92.999 Y80.445 E13.2362
G1 X126.053 Y80.446 E14.33558
G1 X126.129 Y80.473 E14.33827
G1 X126.152 Y80.488 E14.33918
G1 X126.199 Y80.515 E14.34098
G1 X126.218 Y80.54 E14.34203
G1 X126.229 Y80.618 E14.34465
G1 X126.231 Y84.162 E14.46252
G1 X126.218 Y91.048 E14.69155
G1 X126.218 Y101.596 E15.04238
G1 X126.229 Y107.423 E15.23618
G1 X126.224 Y112.115 E15.39224
G1 X126.21 Y112.594 E15.40818
G1 X126.202 Y112.721 E15.41241
G1 X126.1 Y113.386 E15.43479
G1 X125.984 Y113.83 E15.45005
G1 X125.767 Y114.236 E15.46536
G1 X93.324 Y114.237 E16.54442
G0 F6000 X93.137 Y114.637
G1 F1200 X93.119 Y114.628 E16.54509
G1 X93.024 Y114.543 E16.54933
G1 X92.779 Y114.009 E16.56887
G1 X92.663 Y113.508 E16.58598
G1 X92.566 Y112.776 E16.61054
G1 X92.544 Y112.145 E16.63154
G1 X92.545 Y89.25 E17.39303
G1 X92.541 Y86.219 E17.49384
G1 X92.545 Y80.436 E17.68618
G1 X92.555 Y80.382 E17.68801
G1 X92.566 Y80.344 E17.68932
G1 X92.682 Y80.181 E17.69598
G1 X92.767 Y80.121 E17.69944
G1 X92.836 Y80.071 E17.70227
G1 X92.906 Y80.05 E17.7047
G1 X92.93 Y80.045 E17.70552
G1 X125.99 Y80.045 E18.8051
G1 X126.121 Y80.047 E18.80946
G1 X126.135 Y80.05 E18.80993
G1 X126.303 Y80.11 E18.81587
G1 X126.359 Y80.146 E18.81808
G1 X126.47 Y80.209 E18.82233
G1 X126.52 Y80.276 E18.82511
G1 X126.551 Y80.313 E18.82671
G1 X126.586 Y80.38 E18.82923
G1 X126.603 Y80.406 E18.83026
G1 X126.613 Y80.484 E18.83287
G1 X126.629 Y80.592 E18.83651
G1 X126.631 Y84.162 E18.95524
G1 X126.618 Y91.048 E19.18427
G1 X126.618 Y101.596 E19.5351
G1 X126.629 Y107.423 E19.72891
G1 X126.624 Y112.127 E19.88536
G1 X126.61 Y112.606 E19.9013
G1 X126.6 Y112.761 E19.90647
G1 X126.491 Y113.474 E19.93046
G1 X126.359 Y113.976 E19.94772
G1 X126.074 Y114.51 E19.96786
G1 X125.947 Y114.61 E19.97323
G1 X125.882 Y114.636 E19.97556
G1 X93.137 Y114.637 E21.06466
G0 F6000 X93.045 Y115.037
;TYPE:WALL-OUTER
G1 F1200 X92.895 Y114.965 E21.0702
G1 X92.696 Y114.787 E21.07908
G1 X92.397 Y114.136 E21.1029
G1 X92.268 Y113.577 E21.12199
G1 X92.167 Y112.815 E21.14755
G1 X92.144 Y112.145 E21.16985
G1 X92.145 Y89.25 E21.93134
G1 X92.141 Y86.219 E22.03215
G1 X92.145 Y80.479 E22.22306
G1 X92.137 Y80.441 E22.22436
G1 X92.166 Y80.287 E22.22957
G1 X92.198 Y80.171 E22.23357
G1 X92.395 Y79.894 E22.24488
G1 X92.657 Y79.707 E22.25558
G1 X92.802 Y79.663 E22.26062
G1 X92.939 Y79.636 E22.26527
G1 X92.975 Y79.645 E22.2665
G1 X125.997 Y79.645 E23.36482
G1 X126.161 Y79.648 E23.37027
G1 X126.234 Y79.661 E23.37274
G1 X126.482 Y79.75 E23.3815
G1 X126.565 Y79.803 E23.38478
G1 X126.706 Y79.883 E23.39017
G1 X126.72 Y79.897 E23.39083
G1 X126.763 Y79.933 E23.39269
G1 X126.835 Y80.029 E23.39668
G1 X126.885 Y80.09 E23.39931
G1 X126.932 Y80.178 E23.40263
G1 X126.984 Y80.26 E23.40585
G1 X126.991 Y80.297 E23.40711
G1 X127.029 Y80.564 E23.41608
G1 X127.031 Y84.162 E23.53575
G1 X127.018 Y91.048 E23.76478
G1 X127.018 Y101.596 E24.1156
G1 X127.029 Y107.423 E24.30941
G1 X127.024 Y112.139 E24.46627
G1 X127.01 Y112.618 E24.48221
G1 X126.998 Y112.802 E24.48834
G1 X126.882 Y113.56 E24.51384
G1 X126.734 Y114.122 E24.53317
G1 X126.387 Y114.772 E24.55768
G1 X126.149 Y114.96 E24.56777
G1 X125.962 Y115.036 E24.57448
G1 X93.045 Y115.037 E25.6693
G0 F6000 X93.142 Y114.608
G0 X93.574 Y113.847
;TYPE:SKIN
G1 F1200 X93.53 Y113.751 E25.67282
G1 X93.44 Y113.358 E25.68623
G1 X93.355 Y112.71 E25.70796
G1 X93.334 Y112.145 E25.72677
G1 X93.335 Y89.25 E26.48826
G1 X93.331 Y86.219 E26.58907
G1 X93.335 Y80.835 E26.76814
G1 X125.839 Y80.836 E27.84923
G1 X125.841 Y84.162 E27.95985
G1 X125.828 Y91.048 E28.18888
G1 X125.828 Y101.596 E28.53971
G1 X125.839 Y107.423 E28.73352
G1 X125.834 Y112.103 E28.88918
G1 X125.82 Y112.568 E28.90465
G1 X125.812 Y112.683 E28.90848
G1 X125.717 Y113.304 E28.92938
G1 X125.617 Y113.689 E28.94261
G1 X125.533 Y113.846 E28.94853
G1 X93.574 Y113.847 E30.01149
G1 F1500 E26.01149
G0 F6000 X93.574 Y114.127
G0 X103.911 Y114.027
G0 X103.912 Y115.901
G0 X105.662 Y102.105
G0 X104.486 Y103.543
G0 X103.911 Y102.913
G0 X103.712 Y103.111
G1 F1500 E30.01149
G1 F1200 X104.359 Y103.697 E30.04053
G1 X105.061 Y104.215 E30.06954
G1 X105.809 Y104.665 E30.09858
G1 X106.597 Y105.037 E30.12756
G1 X107.42 Y105.331 E30.15663
G1 X108.266 Y105.543 E30.18563
G1 X109.13 Y105.671 E30.21468
G1 X109.996 Y105.712 E30.24352
G1 X110.782 Y105.677 E30.26969
G1 X110.891 Y105.669 E30.27332
G1 X111.734 Y105.543 E30.30167
G1 X112.58 Y105.331 E30.33068
G1 X113.403 Y105.037 E30.35975
G1 X114.191 Y104.665 E30.38873
G1 X114.939 Y104.215 E30.41776
G1 X115.641 Y103.697 E30.44678
G1 X116.288 Y103.111 E30.47582
G1 X116.875 Y102.463 E30.5049
G1 X117.394 Y101.761 E30.53393
G1 X117.842 Y101.014 E30.5629
G1 X118.215 Y100.225 E30.59193
G1 X118.509 Y99.402 E30.621
G1 X118.721 Y98.557 E30.64997
G1 X118.849 Y97.692 E30.67906
G1 X118.89 Y96.826 E30.70789
G1 X118.855 Y96.04 E30.73406
G1 X118.847 Y95.931 E30.7377
G1 X118.721 Y95.088 E30.76605
G1 X118.509 Y94.242 E30.79505
G1 X118.215 Y93.419 E30.82412
G1 X117.842 Y92.631 E30.85312
G1 X117.394 Y91.884 E30.88209
G1 X116.875 Y91.181 E30.91115
G1 X116.287 Y90.534 E30.94023
G1 X115.641 Y89.948 E30.96924
G1 X114.939 Y89.428 E30.9983
G1 X114.191 Y88.98 E31.0273
G1 X113.403 Y88.607 E31.05629
G1 X112.58 Y88.313 E31.08536
G1 X111.734 Y88.101 E31.11437
G1 X110.87 Y87.973 E31.14342
G1 X110.004 Y87.932 E31.17225
G1 X109.218 Y87.967 E31.19842
G1 X109.109 Y87.975 E31.20206
G1 X108.266 Y88.101 E31.23041
G1 X107.42 Y88.313 E31.25942
G1 X106.597 Y88.607 E31.28848
G1 X105.809 Y88.98 E31.31748
G1 X105.061 Y89.428 E31.34648
G1 X104.359 Y89.948 E31.37554
