;FLAVOR:Marlin
;TIME:3163
;Filament used: 2.01584m
;Layer height: 0.16
;MINX:92.166
;MINY:95.753
;MINZ:0.2
;MAXX:127.834
;MAXY:124.247
;MAXZ:14.96
;Generated with Cura_SteamEngine 4.7.1
M140 S60
M105
M190 S60
M104 S200
M105
M109 S200
M82 ;absolute extrusion mode
; Ender 3 Custom Start G-code
G92 E0 ; Reset Extruder
G28 ; Home all axes
G1 Z2.0 F3000 ; Move Z Axis up little to prevent scratching of Heat Bed
G1 X0.1 Y20 Z0.3 F5000.0 ; Move to start position
G1 X0.1 Y200.0 Z0.3 F1500.0 E15 ; Draw the first line
G1 X0.4 Y200.0 Z0.3 F5000.0 ; Move to side a little
G1 X0.4 Y20 Z0.3 F1500.0 E30 ; Draw the second line
G92 E0 ; Reset Extruder
G1 Z2.0 F3000 ; Move Z Axis up little to prevent scratching of Heat Bed
G1 X5 Y20 Z0.3 F5000.0 ; Move over to prevent blob squish
G92 E0
G92 E0
G1 F1500 E-4
;LAYER_COUNT:77
;LAYER:0
M107
G0 F6000 X96.642 Y100.125 Z0.2
;TYPE:SKIRT
G1 F1500 E0
G1 F1200 X97.6 Y100.125 E0.03186
G1 X97.6 Y100.61 E0.04799
G1 X96.642 Y100.61 E0.07986
G1 X96.642 Y100.125 E0.09599
G0 F6000 X96.242 Y99.725
G1 F1200 X98 Y99.725 E0.15446
G1 X98 Y101.01 E0.1972
G1 X96.242 Y101.01 E0.25567
G1 X96.242 Y99.725 E0.29841
G0 F6000 X95.842 Y99.325
G1 F1200 X98.4 Y99.325 E0.38349
G1 X98.4 Y101.41 E0.45284
G1 X95.842 Y101.41 E0.53792
G1 X95.842 Y99.325 E0.60726
G0 F6000 X95.442 Y98.925
G1 F1200 X98.8 Y98.925 E0.71895
G1 X98.8 Y101.81 E0.81491
G1 X95.442 Y101.81 E0.92659
G1 X95.442 Y98.925 E1.02255
G0 F6000 X95.442 Y118.21
G1 F1200 X98.8 Y118.21 E1.13424
G1 X98.8 Y121.075 E1.22953
G1 X95.442 Y121.075 E1.34121
G1 X95.442 Y118.21 E1.43651
G0 F6000 X95.842 Y118.61
G1 F1200 X98.4 Y118.61 E1.52158
G1 X98.4 Y120.675 E1.59027
G1 X95.842 Y120.675 E1.67535
G1 X95.842 Y118.61 E1.74403
G0 F6000 X96.242 Y119.01
G1 F1200 X98 Y119.01 E1.8025
G1 X98 Y120.275 E1.84457
G1 X96.242 Y120.275 E1.90305
G1 X96.242 Y119.01 E1.94512
G0 F6000 X96.642 Y119.41
G1 F1200 X97.6 Y119.41 E1.97698
G1 X97.6 Y119.875 E1.99245
G1 X96.642 Y119.875 E2.02431
G1 X96.642 Y119.41 E2.03978
G0 F6000 X121.2 Y118.21
G1 F1200 X124.557 Y118.21 E2.15143
G1 X124.557 Y121.075 E2.24672
G1 X121.2 Y121.075 E2.35838
G1 X121.2 Y118.21 E2.45367
G0 F6000 X121.6 Y118.61
G1 F1200 X124.157 Y118.61 E2.53871
G1 X124.157 Y120.675 E2.6074
G1 X121.6 Y120.675 E2.69244
G1 X121.6 Y118.61 E2.76112
G0 F6000 X122 Y119.01
G1 F1200 X123.757 Y119.01 E2.81956
G1 X123.757 Y120.275 E2.86164
G1 X122 Y120.275 E2.92007
G1 X122 Y119.01 E2.96215
G0 F6000 X122.4 Y119.41
G1 F1200 X123.357 Y119.41 E2.99398
G1 X123.357 Y119.875 E3.00944
G1 X122.4 Y119.875 E3.04127
G1 X122.4 Y119.41 E3.05674
G0 F6000 X122.4 Y100.125
G1 F1200 X123.357 Y100.125 E3.08857
G1 X123.357 Y100.61 E3.1047
G1 X122.4 Y100.61 E3.13653
G1 X122.4 Y100.125 E3.15266
G0 F6000 X122 Y99.725
G1 F1200 X123.757 Y99.725 E3.2111
G1 X123.757 Y101.01 E3.25384
G1 X122 Y101.01 E3.31228
G1 X122 Y99.725 E3.35502
G0 F6000 X121.6 Y99.325
G1 F1200 X124.157 Y99.325 E3.44006
G1 X124.157 Y101.41 E3.50941
G1 X121.6 Y101.41 E3.59446
G1 X121.6 Y99.325 E3.6638
G0 F6000 X121.2 Y98.925
G1 F1200 X124.557 Y98.925 E3.77546
G1 X124.557 Y101.81 E3.87141
G1 X121.2 Y101.81 E3.98307
G1 X121.2 Y98.925 E4.07902
G1 F1500 E0.07902
;MESH:ensamblaje del sensor externo.stl
G0 F6000 X124.892 Y98.925
G0 X125.957 Y98.925
G0 X126.557 Y123.075
;TYPE:WALL-INNER
G1 F1500 E4.07902
G1 F1200 X126.557 Y96.925 E4.94878
G1 X93.442 Y96.925 E6.05018
G1 X93.442 Y123.075 E6.91994
G1 X126.557 Y123.075 E8.02135
G0 F6000 X126.157 Y122.675
G1 F1200 X126.157 Y97.325 E8.86449
G1 X93.842 Y97.325 E9.93929
G1 X93.842 Y122.675 E10.78244
G1 X126.157 Y122.675 E11.85724
G0 F6000 X125.757 Y122.275
;TYPE:WALL-OUTER
G1 F1200 X125.757 Y97.725 E12.67377
G1 X94.242 Y97.725 E13.72197
G1 X94.242 Y122.275 E14.5385
G1 X125.757 Y122.275 E15.5867
G0 F6000 X126.057 Y122.275
G0 X126.67 Y123.166
G0 X127.034 Y123.447
;TYPE:WALL-INNER
G1 F1200 X126.557 Y123.447 E15.60256
G1 X93.442 Y123.447 E16.62944
G1 X92.966 Y123.447 E16.64527
G1 X92.966 Y96.553 E17.53977
G1 X93.442 Y96.553 E17.5556
G1 X126.557 Y96.553 E18.58248
G1 X127.034 Y96.553 E18.59834
G1 X127.034 Y123.447 E19.49284
G0 F6000 X127.434 Y123.847
G1 F1200 X92.566 Y123.847 E20.65256
G1 X92.566 Y96.153 E21.57366
G1 X127.434 Y96.153 E22.73338
G1 X127.434 Y123.847 E23.65448
G0 F6000 X127.834 Y124.247
;TYPE:WALL-OUTER
G1 F1200 X92.166 Y124.247 E24.84081
G1 X92.166 Y95.753 E25.78852
G1 X127.834 Y95.753 E26.97484
G1 X127.834 Y124.247 E27.92256
G0 F6000 X127.564 Y123.977
G0 X126.924 Y122.913
G0 X126.873 Y122.913
;TYPE:SKIN
G1 F1200 X126.716 Y122.756 E27.92994
G0 F6000 X126.873 Y122.347
G1 F1200 X126.716 Y122.19 E27.93733
G0 F6000 X126.873 Y121.782
G1 F1200 X126.716 Y121.625 E27.94471
G0 F6000 X126.873 Y121.216
G1 F1200 X126.716 Y121.059 E27.9521
G0 F6000 X126.873 Y120.65
G1 F1200 X126.716 Y120.493 E27.95948
G0 F6000 X126.873 Y120.085
G1 F1200 X126.716 Y119.928 E27.96687
G0 F6000 X126.873 Y119.519
G1 F1200 X126.716 Y119.362 E27.97425
G0 F6000 X126.873 Y118.953
G1 F1200 X126.716 Y118.796 E27.98164
G0 F6000 X126.873 Y118.388
G1 F1200 X126.716 Y118.231 E27.98902
G0 F6000 X126.873 Y117.822
G1 F1200 X126.716 Y117.665 E27.99641
G0 F6000 X126.873 Y117.256
G1 F1200 X126.716 Y117.099 E28.00379
G0 F6000 X126.873 Y116.691
G1 F1200 X126.716 Y116.534 E28.01118
G0 F6000 X126.873 Y116.125
G1 F1200 X126.716 Y115.968 E28.01856
G0 F6000 X126.873 Y115.559
G1 F1200 X126.716 Y115.402 E28.02594
G0 F6000 X126.873 Y114.993
G1 F1200 X126.716 Y114.836 E28.03333
G0 F6000 X126.873 Y114.428
G1 F1200 X126.716 Y114.271 E28.04071
G0 F6000 X126.873 Y113.862
G1 F1200 X126.716 Y113.705 E28.0481
G0 F6000 X126.873 Y113.296
G1 F1200 X126.716 Y113.139 E28.05548
G0 F6000 X126.873 Y112.731
G1 F1200 X126.716 Y112.574 E28.06287
G0 F6000 X126.873 Y112.165
G1 F1200 X126.716 Y112.008 E28.07025
G0 F6000 X126.873 Y111.599
G1 F1200 X126.716 Y111.442 E28.07764
G0 F6000 X126.873 Y111.034
G1 F1200 X126.716 Y110.877 E28.08502
G0 F6000 X126.873 Y110.468
G1 F1200 X126.716 Y110.311 E28.09241
G0 F6000 X126.873 Y109.902
G1 F1200 X126.716 Y109.745 E28.09979
G0 F6000 X126.873 Y109.337
G1 F1200 X126.716 Y109.18 E28.10718
G0 F6000 X126.873 Y108.771
G1 F1200 X126.716 Y108.614 E28.11456
G0 F6000 X126.873 Y108.205
G1 F1200 X126.716 Y108.048 E28.12195
G0 F6000 X126.873 Y107.64
G1 F1200 X126.716 Y107.483 E28.12933
G0 F6000 X126.873 Y107.074
G1 F1200 X126.716 Y106.917 E28.13672
G0 F6000 X126.873 Y106.508
G1 F1200 X126.716 Y106.351 E28.1441
G0 F6000 X126.873 Y105.942
G1 F1200 X126.716 Y105.786 E28.15146
G0 F6000 X126.873 Y105.377
G1 F1200 X126.716 Y105.22 E28.15885
G0 F6000 X126.873 Y104.811
G1 F1200 X126.716 Y104.654 E28.16623
G0 F6000 X126.873 Y104.245
G1 F1200 X126.716 Y104.088 E28.17362
G0 F6000 X126.873 Y103.68
G1 F1200 X126.716 Y103.523 E28.181
G0 F6000 X126.873 Y103.114
G1 F1200 X126.716 Y102.957 E28.18839
G0 F6000 X126.873 Y102.548
G1 F1200 X126.716 Y102.391 E28.19577
G0 F6000 X126.873 Y101.983
G1 F1200 X126.716 Y101.826 E28.20316
G0 F6000 X126.873 Y101.417
G1 F1200 X126.716 Y101.26 E28.21054
G0 F6000 X126.873 Y100.851
G1 F1200 X126.716 Y100.694 E28.21793
G0 F6000 X126.873 Y100.286
G1 F1200 X126.716 Y100.129 E28.22531
G0 F6000 X126.873 Y99.72
G1 F1200 X126.716 Y99.563 E28.2327
G0 F6000 X126.873 Y99.154
G1 F1200 X126.716 Y98.997 E28.24008
G0 F6000 X126.873 Y98.589
G1 F1200 X126.716 Y98.432 E28.24747
G0 F6000 X126.873 Y98.023
G1 F1200 X126.716 Y97.866 E28.25485
G0 F6000 X126.873 Y97.457
G1 F1200 X126.716 Y97.3 E28.26223
G0 F6000 X126.873 Y96.892
G1 F1200 X126.716 Y96.735 E28.26962
G1 F1500 E24.26962
G0 F6000 X126.697 Y96.693
G0 X93.148 Y96.735
G0 X93.076 Y97.085
G0 X93.125 Y97.085
G1 F1500 E28.26962
G1 F1200 X93.282 Y97.242 E28.277
G0 F6000 X93.125 Y97.651
G1 F1200 X93.282 Y97.807 E28.28437
G0 F6000 X93.125 Y98.217
G1 F1200 X93.282 Y98.373 E28.29173
G0 F6000 X93.125 Y98.782
G1 F1200 X93.282 Y98.939 E28.29911
G0 F6000 X93.125 Y99.348
G1 F1200 X93.282 Y99.504 E28.30647
G0 F6000 X93.125 Y99.914
G1 F1200 X93.282 Y100.07 E28.31383
G0 F6000 X93.125 Y100.479
G1 F1200 X93.282 Y100.636 E28.32122
G0 F6000 X93.125 Y101.045
G1 F1200 X93.282 Y101.201 E28.32858
G0 F6000 X93.125 Y101.611
G1 F1200 X93.282 Y101.767 E28.33594
G0 F6000 X93.125 Y102.176
G1 F1200 X93.282 Y102.333 E28.34333
G0 F6000 X93.125 Y102.742
G1 F1200 X93.282 Y102.898 E28.35069
G0 F6000 X93.125 Y103.308
G1 F1200 X93.282 Y103.464 E28.35805
G0 F6000 X93.125 Y103.873
G1 F1200 X93.282 Y104.03 E28.36543
G0 F6000 X93.125 Y104.439
G1 F1200 X93.282 Y104.595 E28.3728
G0 F6000 X93.125 Y105.005
G1 F1200 X93.282 Y105.161 E28.38016
G0 F6000 X93.125 Y105.571
G1 F1200 X93.282 Y105.727 E28.38752
G0 F6000 X93.125 Y106.136
G1 F1200 X93.282 Y106.292 E28.39488
G0 F6000 X93.125 Y106.702
G1 F1200 X93.282 Y106.858 E28.40224
G0 F6000 X93.125 Y107.268
G1 F1200 X93.282 Y107.424 E28.4096
G0 F6000 X93.125 Y107.833
G1 F1200 X93.282 Y107.99 E28.41699
G0 F6000 X93.125 Y108.399
G1 F1200 X93.282 Y108.555 E28.42435
G0 F6000 X93.125 Y108.965
G1 F1200 X93.282 Y109.121 E28.43171
G0 F6000 X93.125 Y109.53
G1 F1200 X93.282 Y109.687 E28.43909
G0 F6000 X93.125 Y110.096
G1 F1200 X93.282 Y110.252 E28.44646
G0 F6000 X93.125 Y110.662
G1 F1200 X93.282 Y110.818 E28.45382
G0 F6000 X93.125 Y111.227
G1 F1200 X93.282 Y111.384 E28.4612
G0 F6000 X93.125 Y111.793
G1 F1200 X93.282 Y111.949 E28.46856
G0 F6000 X93.125 Y112.359
G1 F1200 X93.282 Y112.515 E28.47592
G0 F6000 X93.125 Y112.924
G1 F1200 X93.282 Y113.081 E28.48331
G0 F6000 X93.125 Y113.49
G1 F1200 X93.282 Y113.646 E28.49067
G0 F6000 X93.125 Y114.056
G1 F1200 X93.282 Y114.212 E28.49803
G0 F6000 X93.125 Y114.622
G1 F1200 X93.282 Y114.778 E28.50539
G0 F6000 X93.125 Y115.187
G1 F1200 X93.282 Y115.343 E28.51275
G0 F6000 X93.125 Y115.753
G1 F1200 X93.282 Y115.909 E28.52012
G0 F6000 X93.125 Y116.319
G1 F1200 X93.282 Y116.475 E28.52748
G0 F6000 X93.125 Y116.884
G1 F1200 X93.282 Y117.041 E28.53486
G0 F6000 X93.125 Y117.45
G1 F1200 X93.282 Y117.606 E28.54222
G0 F6000 X93.125 Y118.016
G1 F1200 X93.282 Y118.172 E28.54958
G0 F6000 X93.125 Y118.581
G1 F1200 X93.282 Y118.738 E28.55697
G0 F6000 X93.125 Y119.147
G1 F1200 X93.282 Y119.303 E28.56433
G0 F6000 X93.125 Y119.713
G1 F1200 X93.282 Y119.869 E28.57169
G0 F6000 X93.125 Y120.278
G1 F1200 X93.282 Y120.435 E28.57908
G0 F6000 X93.125 Y120.844
G1 F1200 X93.282 Y121 E28.58644
G0 F6000 X93.125 Y121.41
G1 F1200 X93.282 Y121.566 E28.5938
G0 F6000 X93.125 Y121.975
G1 F1200 X93.282 Y122.132 E28.60118
G0 F6000 X93.125 Y122.541
G1 F1200 X93.282 Y122.697 E28.60855
G0 F6000 X93.125 Y123.107
G1 F1200 X93.282 Y123.263 E28.61591
G0 F6000 X93.514 Y123.519
G1 F1500 E24.61591
;MESH:NONMESH
G0 F300 X93.514 Y123.519 Z0.4
G0 F6000 X94.042 Y98.925
G0 X95.442 Y98.925
;TIME_ELAPSED:59.209482
;LAYER:1
M106 S85
;TYPE:SUPPORT
G1 F1500 E28.61591
G1 F1350 X98.8 Y98.925 E28.72759
G1 X98.8 Y101.81 E28.82355
G1 X95.442 Y101.81 E28.93524
G1 X95.442 Y98.925 E29.03119
G0 F7500 X96 Y99.205
G1 F1350 X95.722 Y99.205 E29.04044
G1 X95.722 Y101.53 E29.11777
G1 X96 Y101.53 E29.12702
G1 X96 Y99.205 E29.20435
G1 X98 Y99.205 E29.27087
G1 X98 Y101.53 E29.3482
G1 X98.52 Y101.53 E29.36549
G1 X98.52 Y99.205 E29.44282
G1 X98 Y99.205 E29.46012
G1 F1500 E25.46012
G0 F7500 X99.665 Y99.205
G0 X99.663 Y101.603
G0 X98.8 Y117.345
G0 X98.8 Y118.21
G1 F1500 E29.46012
G1 F1350 X98.8 Y121.075 E29.55541
G1 X95.442 Y121.075 E29.66709
G1 X95.442 Y118.21 E29.76238
G1 X98.8 Y118.21 E29.87407
G0 F7500 X98.52 Y118.49
G1 F1350 X98.52 Y120.795 E29.95074
G1 X98 Y120.795 E29.96803
G1 X98 Y118.49 E30.0447
G1 X96 Y118.49 E30.11122
G1 X95.722 Y118.49 E30.12046
G1 X95.722 Y120.795 E30.19713
G1 X96 Y120.795 E30.20637
G1 X96 Y118.49 E30.28304
G0 F7500 X98 Y118.49
G1 F1350 X98.52 Y118.49 E30.30033
G1 F1500 E26.30033
G0 F7500 X99.665 Y118.49
G0 X120.335 Y118.21
G0 X121.2 Y118.21
G1 F1500 E30.30033
G1 F1350 X124.557 Y118.21 E30.41199
G1 X124.557 Y121.075 E30.50728
G1 X121.2 Y121.075 E30.61893
G1 X121.2 Y118.21 E30.71422
G0 F7500 X122 Y120.795
G1 F1350 X121.48 Y120.795 E30.73152
G1 X121.48 Y118.49 E30.80818
G1 X122 Y118.49 E30.82548
G1 X122 Y120.795 E30.90214
G1 X124 Y120.795 E30.96866
G1 X124 Y118.49 E31.04533
G1 X124.277 Y118.49 E31.05454
G1 X124.277 Y120.795 E31.1312
G1 X124 Y120.795 E31.14042
G1 F1500 E27.14042
G0 F7500 X124 Y117.345
G0 X124.557 Y102.675
G0 X124.557 Y101.81
G1 F1500 E31.14042
G1 F1350 X121.2 Y101.81 E31.25207
G1 X121.2 Y98.925 E31.34803
G1 X124.557 Y98.925 E31.45968
G1 X124.557 Y101.81 E31.55564
G0 F7500 X124 Y101.53
G1 F1350 X124.277 Y101.53 E31.56485
G1 X124.277 Y99.205 E31.64218
G1 X124 Y99.205 E31.65139
G1 X124 Y101.53 E31.72872
G1 X122 Y101.53 E31.79524
G1 X121.48 Y101.53 E31.81254
G1 X121.48 Y99.205 E31.88987
G1 X122 Y99.205 E31.90716
G1 X122 Y101.53 E31.98449
G1 F1500 E27.98449
;MESH:ensamblaje del sensor externo.stl
G0 F7500 X122 Y102.675
G0 X124.904 Y102.663
G0 X125.957 Y101.53
G0 X126.557 Y123.075
;TYPE:WALL-INNER
G1 F1500 E31.98449
G1 F1350 X126.557 Y96.925 E32.85425
G1 X93.442 Y96.925 E33.95566
G1 X93.442 Y123.075 E34.82541
G1 X126.557 Y123.075 E35.92682
G0 F7500 X126.157 Y122.675
G1 F1350 X126.157 Y97.325 E36.76996
G1 X93.842 Y97.325 E37.84476
G1 X93.842 Y122.675 E38.68791
G1 X126.157 Y122.675 E39.76271
G0 F7500 X125.757 Y122.275
;TYPE:WALL-OUTER
G1 F1350 X125.757 Y97.725 E40.57924
G1 X94.242 Y97.725 E41.62744
G1 X94.242 Y122.275 E42.44397
G1 X125.757 Y122.275 E43.49217
G0 F7500 X126.057 Y122.275
G0 X126.67 Y123.166
G0 X127.034 Y123.447
;TYPE:WALL-INNER
G1 F1350 X126.557 Y123.447 E43.50803
G1 X93.442 Y123.447 E44.53491
G1 X92.966 Y123.447 E44.55074
G1 X92.966 Y96.553 E45.44524
G1 X93.442 Y96.553 E45.46107
G1 X126.557 Y96.553 E46.48795
G1 X127.034 Y96.553 E46.50382
G1 X127.034 Y123.447 E47.39831
G0 F7500 X127.434 Y123.847
G1 F1350 X92.566 Y123.847 E48.55803
G1 X92.566 Y96.153 E49.47913
G1 X127.434 Y96.153 E50.63885
G1 X127.434 Y123.847 E51.55995
G0 F7500 X127.834 Y124.247
;TYPE:WALL-OUTER
G1 F1350 X92.166 Y124.247 E52.74628
G1 X92.166 Y95.753 E53.69399
G1 X127.834 Y95.753 E54.88031
G1 X127.834 Y124.247 E55.82803
G0 F7500 X127.564 Y123.977
G0 X126.697 Y123.307
G0 X126.746 Y123.286
;TYPE:SKIN
G1 F1350 X126.873 Y123.159 E55.834
G0 F7500 X126.716 Y122.75
G1 F1350 X126.873 Y122.593 E55.84139
G0 F7500 X126.716 Y122.185
G1 F1350 X126.873 Y122.028 E55.84877
G0 F7500 X126.716 Y121.619
G1 F1350 X126.873 Y121.462 E55.85616
G0 F7500 X126.716 Y121.053
G1 F1350 X126.873 Y120.896 E55.86354
G0 F7500 X126.716 Y120.488
G1 F1350 X126.873 Y120.331 E55.87093
G0 F7500 X126.716 Y119.922
G1 F1350 X126.873 Y119.765 E55.87831
G0 F7500 X126.716 Y119.356
G1 F1350 X126.873 Y119.199 E55.8857
G0 F7500 X126.716 Y118.791
G1 F1350 X126.873 Y118.634 E55.89308
G0 F7500 X126.716 Y118.225
G1 F1350 X126.873 Y118.068 E55.90046
G0 F7500 X126.716 Y117.659
G1 F1350 X126.873 Y117.502 E55.90785
G0 F7500 X126.716 Y117.094
G1 F1350 X126.873 Y116.937 E55.91523
G0 F7500 X126.716 Y116.528
G1 F1350 X126.873 Y116.371 E55.92262
G0 F7500 X126.716 Y115.962
G1 F1350 X126.873 Y115.805 E55.93
G0 F7500 X126.716 Y115.396
G1 F1350 X126.873 Y115.24 E55.93737
G0 F7500 X126.716 Y114.831
G1 F1350 X126.873 Y114.674 E55.94475
G0 F7500 X126.716 Y114.265
G1 F1350 X126.873 Y114.108 E55.95213
G0 F7500 X126.716 Y113.699
G1 F1350 X126.873 Y113.542 E55.95952
G0 F7500 X126.716 Y113.134
G1 F1350 X126.873 Y112.977 E55.9669
G0 F7500 X126.716 Y112.568
G1 F1350 X126.873 Y112.411 E55.97429
G0 F7500 X126.716 Y112.002
G1 F1350 X126.873 Y111.845 E55.98167
G0 F7500 X126.716 Y111.437
G1 F1350 X126.873 Y111.28 E55.98906
G0 F7500 X126.716 Y110.871
G1 F1350 X126.873 Y110.714 E55.99644
G0 F7500 X126.716 Y110.305
G1 F1350 X126.873 Y110.148 E56.00383
G0 F7500 X126.716 Y109.74
G1 F1350 X126.873 Y109.583 E56.01121
G0 F7500 X126.716 Y109.174
