;FLAVOR:Marlin
;TIME:1995
;Filament used: 1.0729m
;Layer height: 0.16
;MINX:96.875
;MINY:84.173
;MINZ:0.2
;MAXX:121.901
;MAXY:108.631
;MAXZ:38.88
;Generated with Cura_SteamEngine 4.7.1
M140 S60
M105
M190 S60
M104 S200
M105
M109 S200
M82 ;absolute extrusion mode
; Ender 3 Custom Start G-code
G92 E0 ; Reset Extruder
G28 ; Home all axes
G1 Z2.0 F3000 ; Move Z Axis up little to prevent scratching of Heat Bed
G1 X0.1 Y20 Z0.3 F5000.0 ; Move to start position
G1 X0.1 Y200.0 Z0.3 F1500.0 E15 ; Draw the first line
G1 X0.4 Y200.0 Z0.3 F5000.0 ; Move to side a little
G1 X0.4 Y20 Z0.3 F1500.0 E30 ; Draw the second line
G92 E0 ; Reset Extruder
G1 Z2.0 F3000 ; Move Z Axis up little to prevent scratching of Heat Bed
G1 X5 Y20 Z0.3 F5000.0 ; Move over to prevent blob squish
G92 E0
G92 E0
G1 F1500 E-4
;LAYER_COUNT:196
;LAYER:0
M107
G0 F6000 X103.887 Y91.322 Z0.2
;TYPE:SKIRT
G1 F1500 E0
G1 F1200 X103.679 Y91.567 E0.01069
G1 X103.63 Y91.63 E0.01334
G1 X103.468 Y91.855 E0.02257
G1 X103.21 Y92.242 E0.03804
G1 X103.01 Y92.578 E0.05104
G1 X102.971 Y92.652 E0.05382
G1 X102.862 Y92.878 E0.06217
G1 X102.666 Y93.318 E0.07819
G1 X102.468 Y93.873 E0.09779
G1 X102.34 Y94.347 E0.11412
G1 X102.274 Y94.638 E0.12404
G1 X102.259 Y94.718 E0.12675
G1 X102.213 Y95.042 E0.13763
G1 X102.167 Y95.505 E0.15311
G1 X102.154 Y96.088 E0.1725
G1 X102.181 Y96.583 E0.18899
G1 X102.196 Y96.776 E0.19543
G1 X102.205 Y96.861 E0.19827
G1 X102.28 Y97.308 E0.21335
G1 X102.392 Y97.798 E0.23007
G1 X102.569 Y98.365 E0.24982
G1 X102.769 Y98.864 E0.2677
G1 X103.048 Y99.422 E0.28845
G1 X103.32 Y99.87 E0.30589
G1 X103.67 Y100.356 E0.3258
G1 X103.988 Y100.731 E0.34216
G1 X104.199 Y100.96 E0.35252
G1 X104.258 Y101.019 E0.35529
G1 X104.483 Y101.227 E0.36548
G1 X104.857 Y101.545 E0.38181
G1 X105.353 Y101.902 E0.40214
G1 X105.816 Y102.182 E0.42013
G1 X106.378 Y102.461 E0.441
G1 X106.861 Y102.653 E0.45829
G1 X107.422 Y102.827 E0.47782
G1 X107.91 Y102.938 E0.49447
G1 X108.293 Y103.005 E0.5074
G1 X108.375 Y103.015 E0.51015
G1 X108.623 Y103.037 E0.51843
G1 X109.106 Y103.064 E0.53452
G1 X109.685 Y103.052 E0.55378
G1 X110.159 Y103.006 E0.56962
G1 X110.424 Y102.971 E0.57851
G1 X110.507 Y102.957 E0.58131
G1 X110.866 Y102.879 E0.59353
G1 X111.303 Y102.761 E0.60859
G1 X111.572 Y102.677 E0.61796
G1 X111.646 Y102.651 E0.62057
G1 X111.941 Y102.533 E0.63113
G1 X112.398 Y102.328 E0.64779
G1 X112.934 Y102.034 E0.66813
G1 X113.365 Y101.75 E0.68529
G1 X113.835 Y101.384 E0.70511
G1 X114.2 Y101.051 E0.72154
G1 X114.461 Y100.789 E0.73384
G1 X114.516 Y100.728 E0.73657
G1 X114.684 Y100.528 E0.74526
G1 X114.975 Y100.157 E0.76094
G1 X115.168 Y99.888 E0.77195
G1 X115.213 Y99.819 E0.77469
G1 X115.363 Y99.569 E0.78439
G1 X115.592 Y99.151 E0.80024
G1 X115.836 Y98.607 E0.82007
G1 X116.007 Y98.13 E0.83693
G1 X116.124 Y97.738 E0.85053
G1 X116.144 Y97.655 E0.85337
G1 X116.191 Y97.43 E0.86102
G1 X116.276 Y96.952 E0.87717
G1 X116.334 Y96.368 E0.89668
G1 X116.344 Y95.897 E0.91235
G1 X116.335 Y95.539 E0.92426
G1 X116.329 Y95.457 E0.927
G1 X116.301 Y95.198 E0.93566
G1 X116.231 Y94.707 E0.95216
G1 X116.102 Y94.129 E0.97186
G1 X115.961 Y93.669 E0.98786
G1 X115.859 Y93.38 E0.99805
G1 X115.828 Y93.302 E1.00084
G1 X115.691 Y92.995 E1.01203
G1 X115.488 Y92.592 E1.02703
G1 X115.344 Y92.332 E1.03692
G1 X115.304 Y92.266 E1.03949
G1 X115.146 Y92.027 E1.04902
G1 X114.873 Y91.645 E1.06463
G1 X114.666 Y91.381 E1.07579
G1 X114.612 Y91.318 E1.07855
G1 X114.414 Y91.104 E1.08825
G1 X114.114 Y90.804 E1.10236
G1 X113.9 Y90.606 E1.11205
G1 X113.837 Y90.552 E1.11481
G1 X113.568 Y90.342 E1.12617
G1 X113.158 Y90.05 E1.14291
G1 X112.675 Y89.757 E1.1617
G1 X112.234 Y89.533 E1.17815
G1 X111.901 Y89.384 E1.19028
G1 X111.822 Y89.353 E1.1931
G1 X111.543 Y89.256 E1.20293
G1 X111.068 Y89.111 E1.21945
G1 X110.496 Y88.983 E1.23894
G1 X110.02 Y88.915 E1.25493
G1 X109.712 Y88.884 E1.26523
G1 X109.629 Y88.879 E1.268
G1 X109.303 Y88.873 E1.27884
G1 X108.833 Y88.885 E1.29448
G1 X108.267 Y88.942 E1.3134
G1 X107.787 Y89.027 E1.32961
G1 X107.517 Y89.085 E1.3388
G1 X107.438 Y89.105 E1.34151
G1 X107.107 Y89.205 E1.35301
G1 X106.642 Y89.369 E1.36941
G1 X106.1 Y89.61 E1.38914
G1 X105.639 Y89.859 E1.40656
G1 X105.103 Y90.21 E1.42787
G1 X104.698 Y90.527 E1.44498
G1 X104.474 Y90.716 E1.45473
G1 X104.415 Y90.77 E1.45739
G1 X104.189 Y90.995 E1.46799
G1 X103.887 Y91.322 E1.4828
G0 F6000 X104.181 Y91.593
G1 F1200 X103.995 Y91.813 E1.49238
G1 X103.946 Y91.876 E1.49503
G1 X103.801 Y92.077 E1.50328
G1 X103.543 Y92.464 E1.51875
G1 X103.364 Y92.765 E1.5304
G1 X103.325 Y92.839 E1.53318
G1 X103.227 Y93.041 E1.54065
G1 X103.031 Y93.481 E1.55667
G1 X102.855 Y93.978 E1.5742
G1 X102.727 Y94.452 E1.59053
G1 X102.667 Y94.711 E1.59937
G1 X102.652 Y94.791 E1.60208
G1 X102.611 Y95.082 E1.61186
G1 X102.565 Y95.545 E1.62733
G1 X102.553 Y96.066 E1.64466
G1 X102.58 Y96.561 E1.66115
G1 X102.594 Y96.734 E1.66693
G1 X102.603 Y96.819 E1.66977
G1 X102.669 Y97.219 E1.68325
G1 X102.781 Y97.709 E1.69997
G1 X102.94 Y98.216 E1.71764
G1 X103.14 Y98.715 E1.73552
G1 X103.39 Y99.215 E1.75412
G1 X103.662 Y99.663 E1.77155
G1 X103.975 Y100.097 E1.78935
G1 X104.293 Y100.472 E1.8057
G1 X104.482 Y100.677 E1.81497
G1 X104.541 Y100.736 E1.81775
G1 X104.743 Y100.922 E1.82688
G1 X105.117 Y101.24 E1.84321
G1 X105.56 Y101.559 E1.86137
G1 X106.023 Y101.839 E1.87936
G1 X106.526 Y102.09 E1.89806
G1 X107.009 Y102.282 E1.91535
G1 X107.511 Y102.437 E1.93282
G1 X107.999 Y102.548 E1.94947
G1 X108.341 Y102.608 E1.96102
G1 X108.423 Y102.618 E1.96376
G1 X108.645 Y102.638 E1.97118
G1 X109.128 Y102.665 E1.98727
G1 X109.646 Y102.654 E2.0045
G1 X110.12 Y102.608 E2.02034
G1 X110.358 Y102.577 E2.02832
G1 X110.441 Y102.563 E2.03112
G1 X110.761 Y102.492 E2.04202
G1 X111.198 Y102.374 E2.05708
G1 X111.439 Y102.3 E2.06546
G1 X111.513 Y102.274 E2.06807
G1 X111.778 Y102.168 E2.07756
G1 X112.235 Y101.963 E2.09422
G1 X112.714 Y101.7 E2.1124
G1 X113.145 Y101.416 E2.12957
G1 X113.566 Y101.089 E2.1473
G1 X113.931 Y100.756 E2.16373
G1 X114.164 Y100.521 E2.17474
G1 X114.219 Y100.46 E2.17747
G1 X114.369 Y100.281 E2.18524
G1 X114.66 Y99.91 E2.20092
G1 X114.833 Y99.669 E2.21078
G1 X114.878 Y99.6 E2.21352
G1 X115.012 Y99.377 E2.22218
G1 X115.241 Y98.959 E2.23803
G1 X115.46 Y98.472 E2.25579
G1 X115.631 Y97.995 E2.27264
G1 X115.735 Y97.644 E2.28482
G1 X115.755 Y97.561 E2.28766
G1 X115.797 Y97.36 E2.29449
G1 X115.882 Y96.882 E2.31064
G1 X115.934 Y96.359 E2.32812
G1 X115.944 Y95.888 E2.34379
G1 X115.936 Y95.568 E2.35443
G1 X115.93 Y95.486 E2.35717
G1 X115.905 Y95.254 E2.36493
G1 X115.835 Y94.763 E2.38143
G1 X115.72 Y94.247 E2.39901
G1 X115.579 Y93.787 E2.41501
G1 X115.488 Y93.527 E2.42417
G1 X115.457 Y93.449 E2.42696
G1 X115.334 Y93.175 E2.43695
G1 X115.131 Y92.772 E2.45196
G1 X115.002 Y92.54 E2.46079
G1 X114.962 Y92.474 E2.46336
G1 X114.82 Y92.259 E2.47193
G1 X114.547 Y91.877 E2.48754
G1 X114.362 Y91.641 E2.49752
G1 X114.308 Y91.578 E2.50028
G1 X114.131 Y91.387 E2.50894
G1 X113.831 Y91.087 E2.52305
G1 X113.64 Y90.91 E2.53171
G1 X113.577 Y90.856 E2.53447
G1 X113.336 Y90.668 E2.54464
G1 X112.926 Y90.376 E2.56138
G1 X112.494 Y90.114 E2.57818
G1 X112.053 Y89.89 E2.59463
G1 X111.755 Y89.756 E2.6055
G1 X111.676 Y89.725 E2.60832
G1 X111.427 Y89.638 E2.6171
G1 X110.952 Y89.493 E2.63362
G1 X110.44 Y89.379 E2.65106
G1 X109.964 Y89.311 E2.66705
G1 X109.687 Y89.283 E2.67631
G1 X109.604 Y89.278 E2.67908
G1 X109.313 Y89.273 E2.68876
G1 X108.843 Y89.285 E2.7044
G1 X108.337 Y89.336 E2.72131
G1 X107.857 Y89.421 E2.73753
G1 X107.616 Y89.473 E2.74573
G1 X107.537 Y89.493 E2.74844
G1 X107.24 Y89.583 E2.75876
G1 X106.775 Y89.747 E2.77516
G1 X106.29 Y89.961 E2.79279
G1 X105.829 Y90.21 E2.81022
G1 X105.349 Y90.525 E2.82931
G1 X104.944 Y90.842 E2.84642
G1 X104.744 Y91.011 E2.85513
G1 X104.685 Y91.065 E2.85779
G1 X104.483 Y91.266 E2.86726
G1 X104.181 Y91.593 E2.88207
G0 F6000 X104.475 Y91.865
G1 F1200 X104.311 Y92.058 E2.89049
G1 X104.262 Y92.121 E2.89315
G1 X104.134 Y92.299 E2.90044
G1 X103.876 Y92.686 E2.91591
G1 X103.718 Y92.951 E2.92617
G1 X103.679 Y93.025 E2.92895
G1 X103.593 Y93.203 E2.93553
G1 X103.397 Y93.643 E2.95155
G1 X103.241 Y94.082 E2.96704
G1 X103.113 Y94.556 E2.98337
G1 X103.06 Y94.785 E2.99119
G1 X103.045 Y94.865 E2.9939
G1 X103.009 Y95.121 E3.0025
G1 X102.963 Y95.584 E3.01797
G1 X102.952 Y96.044 E3.03328
G1 X102.979 Y96.539 E3.04977
G1 X102.992 Y96.692 E3.05487
G1 X103.001 Y96.777 E3.05772
G1 X103.059 Y97.129 E3.06958
G1 X103.171 Y97.619 E3.0863
G1 X103.311 Y98.067 E3.10191
G1 X103.511 Y98.566 E3.11979
G1 X103.732 Y99.007 E3.1362
G1 X104.004 Y99.455 E3.15363
G1 X104.28 Y99.838 E3.16933
G1 X104.598 Y100.213 E3.18568
G1 X104.765 Y100.394 E3.19387
G1 X104.824 Y100.453 E3.19665
G1 X105.002 Y100.618 E3.20472
G1 X105.376 Y100.936 E3.22105
G1 X105.767 Y101.217 E3.23707
G1 X106.23 Y101.497 E3.25506
G1 X106.674 Y101.718 E3.27156
G1 X107.157 Y101.91 E3.28884
G1 X107.6 Y102.047 E3.30427
G1 X108.088 Y102.158 E3.32091
G1 X108.39 Y102.211 E3.33111
G1 X108.472 Y102.221 E3.33386
G1 X108.668 Y102.238 E3.3404
G1 X109.151 Y102.265 E3.35649
G1 X109.608 Y102.256 E3.37169
G1 X110.082 Y102.21 E3.38753
G1 X110.291 Y102.182 E3.39455
G1 X110.374 Y102.168 E3.39735
G1 X110.657 Y102.106 E3.40698
G1 X111.094 Y101.988 E3.42204
G1 X111.306 Y101.922 E3.42942
G1 X111.38 Y101.896 E3.43203
G1 X111.614 Y101.803 E3.44041
G1 X112.071 Y101.598 E3.45707
G1 X112.494 Y101.366 E3.47311
G1 X112.925 Y101.082 E3.49028
G1 X113.296 Y100.793 E3.50592
G1 X113.661 Y100.46 E3.52235
G1 X113.867 Y100.253 E3.53207
G1 X113.922 Y100.192 E3.5348
G1 X114.054 Y100.034 E3.54165
G1 X114.345 Y99.663 E3.55733
G1 X114.498 Y99.451 E3.56602
G1 X114.543 Y99.382 E3.56876
G1 X114.661 Y99.184 E3.57643
G1 X114.89 Y98.766 E3.59228
G1 X115.083 Y98.337 E3.60793
G1 X115.254 Y97.86 E3.62478
G1 X115.347 Y97.551 E3.63552
G1 X115.367 Y97.468 E3.63836
G1 X115.404 Y97.29 E3.6444
G1 X115.489 Y96.812 E3.66055
G1 X115.534 Y96.351 E3.67596
G1 X115.544 Y95.88 E3.69163
G1 X115.537 Y95.597 E3.70104
G1 X115.531 Y95.515 E3.70378
G1 X115.509 Y95.311 E3.7106
G1 X115.439 Y94.82 E3.7271
G1 X115.337 Y94.364 E3.74264
G1 X115.196 Y93.904 E3.75864
G1 X115.116 Y93.675 E3.76671
G1 X115.085 Y93.597 E3.7695
G1 X114.976 Y93.355 E3.77833
G1 X114.773 Y92.952 E3.79333
G1 X114.66 Y92.747 E3.80112
G1 X114.62 Y92.681 E3.80369
G1 X114.495 Y92.492 E3.81122
G1 X114.222 Y92.11 E3.82684
G1 X114.059 Y91.902 E3.83563
G1 X114.005 Y91.839 E3.83839
G1 X113.848 Y91.67 E3.84606
G1 X113.548 Y91.37 E3.86017
G1 X113.379 Y91.213 E3.86785
G1 X113.316 Y91.159 E3.8706
G1 X113.104 Y90.993 E3.87956
G1 X112.694 Y90.701 E3.8963
G1 X112.313 Y90.47 E3.91112
G1 X111.872 Y90.246 E3.92757
G1 X111.609 Y90.128 E3.93716
G1 X111.53 Y90.097 E3.93998
G1 X111.31 Y90.021 E3.94772
G1 X110.835 Y89.876 E3.96424
G1 X110.383 Y89.775 E3.97965
G1 X109.907 Y89.707 E3.99564
G1 X109.663 Y89.682 E4.0038
G1 X109.58 Y89.677 E4.00656
G1 X109.323 Y89.673 E4.01511
G1 X108.853 Y89.685 E4.03075
G1 X108.407 Y89.73 E4.04566
G1 X107.927 Y89.815 E4.06187
G1 X107.714 Y89.861 E4.06912
G1 X107.635 Y89.881 E4.07183
G1 X107.373 Y89.96 E4.08093
G1 X106.908 Y90.124 E4.09733
G1 X106.48 Y90.313 E4.11289
G1 X106.019 Y90.562 E4.13032
G1 X105.596 Y90.84 E4.14715
G1 X105.191 Y91.157 E4.16426
G1 X105.015 Y91.306 E4.17193
G1 X104.956 Y91.36 E4.17459
G1 X104.777 Y91.538 E4.18299
G1 X104.475 Y91.865 E4.19779
G0 F6000 X104.769 Y92.136
G1 F1200 X104.627 Y92.304 E4.20511
G1 X104.578 Y92.367 E4.20776
G1 X104.467 Y92.521 E4.21408
G1 X104.209 Y92.908 E4.22955
G1 X104.072 Y93.138 E4.23845
G1 X104.033 Y93.212 E4.24123
G1 X103.958 Y93.366 E4.24693
G1 X103.762 Y93.806 E4.26295
G1 X103.627 Y94.186 E4.27636
G1 X103.499 Y94.66 E4.29269
G1 X103.454 Y94.859 E4.29948
G1 X103.439 Y94.939 E4.30219
G1 X103.407 Y95.161 E4.30965
G1 X103.361 Y95.624 E4.32512
G1 X103.352 Y96.023 E4.3384
G1 X103.379 Y96.518 E4.35488
G1 X103.389 Y96.65 E4.35929
G1 X103.398 Y96.735 E4.36213
G1 X103.449 Y97.04 E4.37242
G1 X103.561 Y97.53 E4.38913
G1 X103.683 Y97.918 E4.40266
G1 X103.883 Y98.417 E4.42054
G1 X104.074 Y98.799 E4.43475
G1 X104.346 Y99.247 E4.45218
G1 X104.585 Y99.58 E4.46581
G1 X104.903 Y99.955 E4.48216
G1 X105.048 Y100.111 E4.48925
G1 X105.107 Y100.17 E4.49202
G1 X105.261 Y100.313 E4.49901
G1 X105.635 Y100.631 E4.51534
G1 X105.974 Y100.875 E4.52923
G1 X106.437 Y101.155 E4.54723
G1 X106.822 Y101.346 E4.56152
G1 X107.305 Y101.538 E4.57881
G1 X107.688 Y101.657 E4.59215
G1 X108.176 Y101.768 E4.6088
G1 X108.438 Y101.814 E4.61764
G1 X108.52 Y101.824 E4.62039
G1 X108.69 Y101.839 E4.62607
G1 X109.173 Y101.866 E4.64216
G1 X109.569 Y101.858 E4.65533
G1 X110.043 Y101.812 E4.67117
G1 X110.224 Y101.788 E4.67724
G1 X110.307 Y101.774 E4.68004
G1 X110.553 Y101.72 E4.68842
G1 X110.99 Y101.602 E4.70347
G1 X111.174 Y101.545 E4.70988
G1 X111.248 Y101.519 E4.71249
G1 X111.45 Y101.438 E4.71973
G1 X111.907 Y101.233 E4.73639
G1 X112.274 Y101.032 E4.75031
G1 X112.705 Y100.748 E4.76747
G1 X113.026 Y100.498 E4.78101
G1 X113.391 Y100.165 E4.79744
G1 X113.57 Y99.985 E4.80588
G1 X113.625 Y99.924 E4.80861
G1 X113.74 Y99.788 E4.81454
G1 X114.031 Y99.417 E4.83022
G1 X114.163 Y99.232 E4.83778
G1 X114.208 Y99.163 E4.84052
G1 X114.31 Y98.992 E4.84714
G1 X114.539 Y98.574 E4.86299
G1 X114.706 Y98.202 E4.87656
G1 X114.877 Y97.725 E4.89341
G1 X114.958 Y97.457 E4.90272
G1 X114.978 Y97.374 E4.90556
G1 X115.01 Y97.22 E4.91079
G1 X115.095 Y96.742 E4.92694
G1 X115.134 Y96.342 E4.94031
G1 X115.144 Y95.871 E4.95598
G1 X115.138 Y95.626 E4.96413
G1 X115.132 Y95.544 E4.96686
G1 X115.113 Y95.367 E4.97278
G1 X115.043 Y94.876 E4.98928
G1 X114.955 Y94.481 E5.00274
G1 X114.814 Y94.021 E5.01874
G1 X114.744 Y93.823 E5.02573
G1 X114.713 Y93.745 E5.02852
G1 X114.619 Y93.535 E5.03617
G1 X114.416 Y93.132 E5.05118
G1 X114.318 Y92.954 E5.05794
G1 X114.278 Y92.888 E5.0605
G1 X114.169 Y92.724 E5.06705
G1 X113.896 Y92.342 E5.08267
G1 X113.755 Y92.162 E5.09027
G1 X113.701 Y92.099 E5.09303
G1 X113.565 Y91.953 E5.09967
G1 X113.265 Y91.653 E5.11378
G1 X113.119 Y91.517 E5.12042
G1 X113.056 Y91.463 E5.12318
G1 X112.872 Y91.319 E5.13095
G1 X112.462 Y91.027 E5.14769
G1 X112.131 Y90.827 E5.16055
G1 X111.69 Y90.603 E5.177
G1 X111.463 Y90.501 E5.18528
G1 X111.384 Y90.47 E5.1881
G1 X111.193 Y90.403 E5.19484
G1 X110.718 Y90.258 E5.21135
G1 X110.327 Y90.171 E5.22468
G1 X109.851 Y90.103 E5.24067
G1 X109.639 Y90.082 E5.24776
G1 X109.556 Y90.077 E5.25052
G1 X109.334 Y90.073 E5.25791
G1 X108.864 Y90.085 E5.27354
G1 X108.477 Y90.124 E5.28648
G1 X107.997 Y90.209 E5.30269
G1 X107.812 Y90.249 E5.30899
G1 X107.733 Y90.269 E5.3117
G1 X107.506 Y90.337 E5.31958
G1 X107.041 Y90.501 E5.33598
G1 X106.67 Y90.665 E5.34947
G1 X106.209 Y90.914 E5.3669
G1 X105.842 Y91.155 E5.3815
G1 X105.437 Y91.472 E5.39861
G1 X105.285 Y91.601 E5.40524
G1 X105.226 Y91.655 E5.4079
G1 X105.071 Y91.809 E5.41517
G1 X104.769 Y92.136 E5.42997
G0 F6000 X105.063 Y92.407
G1 F1200 X104.942 Y92.549 E5.43618
G1 X104.893 Y92.612 E5.43883
G1 X104.799 Y92.743 E5.44419
G1 X104.541 Y93.13 E5.45966
G1 X104.426 Y93.324 E5.46716
G1 X104.387 Y93.398 E5.46995
G1 X104.323 Y93.529 E5.4748
G1 X104.127 Y93.969 E5.49082
G1 X104.013 Y94.29 E5.50215
G1 X103.885 Y94.764 E5.51848
G1 X103.847 Y94.933 E5.52424
G1 X103.832 Y95.013 E5.52694
G1 X103.805 Y95.2 E5.53323
G1 X103.759 Y95.663 E5.5487
G1 X103.751 Y96.001 E5.55995
G1 X103.778 Y96.496 E5.57644
G1 X103.787 Y96.608 E5.58017
G1 X103.796 Y96.693 E5.58302
G1 X103.839 Y96.951 E5.59172
G1 X103.951 Y97.441 E5.60843
G1 X104.054 Y97.769 E5.61987
G1 X104.254 Y98.268 E5.63775
G1 X104.415 Y98.592 E5.64978
G1 X104.687 Y99.04 E5.66721
G1 X104.89 Y99.321 E5.67874
G1 X105.208 Y99.696 E5.6951
G1 X105.33 Y99.829 E5.7011
