;FLAVOR:Marlin
;TIME:2927
;Filament used: 2.01104m
;Layer height: 0.12
;MINX:92.166
;MINY:95.753
;MINZ:0.2
;MAXX:127.834
;MAXY:124.247
;MAXZ:14.96
;Generated with Cura_SteamEngine 4.7.1
M140 S60
M105
M190 S60
M104 S200
M105
M109 S200
M82 ;absolute extrusion mode
; Ender 3 Custom Start G-code
G92 E0 ; Reset Extruder
G28 ; Home all axes
G1 Z2.0 F3000 ; Move Z Axis up little to prevent scratching of Heat Bed
G1 X0.1 Y20 Z0.3 F5000.0 ; Move to start position
G1 X0.1 Y200.0 Z0.3 F1500.0 E15 ; Draw the first line
G1 X0.4 Y200.0 Z0.3 F5000.0 ; Move to side a little
G1 X0.4 Y20 Z0.3 F1500.0 E30 ; Draw the second line
G92 E0 ; Reset Extruder
G1 Z2.0 F3000 ; Move Z Axis up little to prevent scratching of Heat Bed
G1 X5 Y20 Z0.3 F5000.0 ; Move over to prevent blob squish
G92 E0
G92 E0
G1 F1500 E-4
;LAYER_COUNT:95
;LAYER:0
M107
G0 F9000 X96.642 Y100.125 Z0.2
;TYPE:SKIRT
G1 F1500 E0
G1 F1800 X97.6 Y100.125 E0.03186
G1 X97.6 Y100.61 E0.04799
G1 X96.642 Y100.61 E0.07986
G1 X96.642 Y100.125 E0.09599
G0 F9000 X96.242 Y99.725
G1 F1800 X98 Y99.725 E0.15446
G1 X98 Y101.01 E0.1972
G1 X96.242 Y101.01 E0.25567
G1 X96.242 Y99.725 E0.29841
G0 F9000 X95.842 Y99.325
G1 F1800 X98.4 Y99.325 E0.38349
G1 X98.4 Y101.41 E0.45284
G1 X95.842 Y101.41 E0.53792
G1 X95.842 Y99.325 E0.60726
G0 F9000 X95.442 Y98.925
G1 F1800 X98.8 Y98.925 E0.71895
G1 X98.8 Y101.81 E0.81491
G1 X95.442 Y101.81 E0.92659
G1 X95.442 Y98.925 E1.02255
G0 F9000 X95.442 Y118.21
G1 F1800 X98.8 Y118.21 E1.13424
G1 X98.8 Y121.075 E1.22953
G1 X95.442 Y121.075 E1.34121
G1 X95.442 Y118.21 E1.43651
G0 F9000 X95.842 Y118.61
G1 F1800 X98.4 Y118.61 E1.52158
G1 X98.4 Y120.675 E1.59027
G1 X95.842 Y120.675 E1.67535
G1 X95.842 Y118.61 E1.74403
G0 F9000 X96.242 Y119.01
G1 F1800 X98 Y119.01 E1.8025
G1 X98 Y120.275 E1.84457
G1 X96.242 Y120.275 E1.90305
G1 X96.242 Y119.01 E1.94512
G0 F9000 X96.642 Y119.41
G1 F1800 X97.6 Y119.41 E1.97698
G1 X97.6 Y119.875 E1.99245
G1 X96.642 Y119.875 E2.02431
G1 X96.642 Y119.41 E2.03978
G0 F9000 X121.2 Y118.21
G1 F1800 X124.558 Y118.21 E2.15147
G1 X124.558 Y121.075 E2.24676
G1 X121.2 Y121.075 E2.35844
G1 X121.2 Y118.21 E2.45373
G0 F9000 X121.6 Y118.61
G1 F1800 X124.158 Y118.61 E2.53881
G1 X124.158 Y120.675 E2.60749
G1 X121.6 Y120.675 E2.69257
G1 X121.6 Y118.61 E2.76126
G0 F9000 X122 Y119.01
G1 F1800 X123.758 Y119.01 E2.81973
G1 X123.758 Y120.275 E2.8618
G1 X122 Y120.275 E2.92027
G1 X122 Y119.01 E2.96235
G0 F9000 X122.4 Y119.41
G1 F1800 X123.358 Y119.41 E2.99421
G1 X123.358 Y119.875 E3.00968
G1 X122.4 Y119.875 E3.04154
G1 X122.4 Y119.41 E3.05701
G0 F9000 X122.4 Y100.125
G1 F1800 X123.358 Y100.125 E3.08887
G1 X123.358 Y100.61 E3.105
G1 X122.4 Y100.61 E3.13686
G1 X122.4 Y100.125 E3.15299
G0 F9000 X122 Y99.725
G1 F1800 X123.758 Y99.725 E3.21147
G1 X123.758 Y101.01 E3.2542
G1 X122 Y101.01 E3.31268
G1 X122 Y99.725 E3.35542
G0 F9000 X121.6 Y99.325
G1 F1800 X124.158 Y99.325 E3.44049
G1 X124.158 Y101.41 E3.50984
G1 X121.6 Y101.41 E3.59492
G1 X121.6 Y99.325 E3.66427
G0 F9000 X121.2 Y98.925
G1 F1800 X124.558 Y98.925 E3.77596
G1 X124.558 Y101.81 E3.87191
G1 X121.2 Y101.81 E3.9836
G1 X121.2 Y98.925 E4.07956
G1 F1500 E0.07956
;MESH:ensamblaje del sensor externo.stl
G0 F9000 X121.2 Y121.41
G0 X121.2 Y122.475
G0 X93.442 Y123.075
;TYPE:WALL-INNER
G1 F1500 E4.07956
G1 F1800 X126.558 Y123.075 E5.181
G1 X126.558 Y96.925 E6.05075
G1 X93.442 Y96.925 E7.15219
G1 X93.442 Y123.075 E8.02195
G0 F9000 X93.842 Y122.675
G1 F1800 X126.158 Y122.675 E9.09678
G1 X126.158 Y97.325 E9.93992
G1 X93.842 Y97.325 E11.01476
G1 X93.842 Y122.675 E11.8579
G0 F9000 X94.242 Y122.275
;TYPE:WALL-OUTER
G1 F1800 X125.758 Y122.275 E12.90613
G1 X125.758 Y97.725 E13.72267
G1 X94.242 Y97.725 E14.77089
G1 X94.242 Y122.275 E15.58743
G1 F1500 E11.58743
G0 F9000 X93.942 Y122.275
G0 X94.006 Y122.48
G0 X127.034 Y123.447
;TYPE:WALL-INNER
G1 F1500 E15.58743
G1 F1800 X126.558 Y123.447 E15.60326
G1 X93.442 Y123.447 E16.63017
G1 X92.966 Y123.447 E16.646
G1 X92.966 Y96.553 E17.5405
G1 X93.442 Y96.553 E17.55633
G1 X126.558 Y96.553 E18.58324
G1 X127.034 Y96.553 E18.59907
G1 X127.034 Y123.447 E19.49357
G0 F9000 X127.434 Y123.847
G1 F1800 X92.566 Y123.847 E20.65328
G1 X92.566 Y96.153 E21.57439
G1 X127.434 Y96.153 E22.73411
G1 X127.434 Y123.847 E23.65521
G0 F9000 X127.834 Y124.247
;TYPE:WALL-OUTER
G1 F1800 X92.166 Y124.247 E24.84153
G1 X92.166 Y95.753 E25.78925
G1 X127.834 Y95.753 E26.97557
G1 X127.834 Y124.247 E27.92328
G0 F9000 X127.564 Y123.977
G0 X126.924 Y122.913
G0 X126.873 Y122.913
;TYPE:SKIN
G1 F1800 X126.717 Y122.757 E27.93062
G0 F9000 X126.873 Y122.347
G1 F1800 X126.717 Y122.191 E27.93796
G0 F9000 X126.873 Y121.782
G1 F1800 X126.717 Y121.625 E27.94532
G0 F9000 X126.873 Y121.216
G1 F1800 X126.717 Y121.06 E27.95266
G0 F9000 X126.873 Y120.65
G1 F1800 X126.717 Y120.494 E27.96
G0 F9000 X126.873 Y120.085
G1 F1800 X126.717 Y119.928 E27.96736
G0 F9000 X126.873 Y119.519
G1 F1800 X126.717 Y119.363 E27.9747
G0 F9000 X126.873 Y118.953
G1 F1800 X126.717 Y118.797 E27.98203
G0 F9000 X126.873 Y118.388
G1 F1800 X126.717 Y118.231 E27.9894
G0 F9000 X126.873 Y117.822
G1 F1800 X126.717 Y117.666 E27.99673
G0 F9000 X126.873 Y117.256
G1 F1800 X126.717 Y117.1 E28.00407
G0 F9000 X126.873 Y116.691
G1 F1800 X126.717 Y116.534 E28.01143
G0 F9000 X126.873 Y116.125
G1 F1800 X126.717 Y115.969 E28.01877
G0 F9000 X126.873 Y115.559
G1 F1800 X126.717 Y115.403 E28.02611
G0 F9000 X126.873 Y114.993
G1 F1800 X126.717 Y114.837 E28.03345
G0 F9000 X126.873 Y114.428
G1 F1800 X126.717 Y114.271 E28.04081
G0 F9000 X126.873 Y113.862
G1 F1800 X126.717 Y113.706 E28.04814
G0 F9000 X126.873 Y113.296
G1 F1800 X126.717 Y113.14 E28.05548
G0 F9000 X126.873 Y112.731
G1 F1800 X126.717 Y112.574 E28.06284
G0 F9000 X126.873 Y112.165
G1 F1800 X126.717 Y112.009 E28.07018
G0 F9000 X126.873 Y111.599
G1 F1800 X126.717 Y111.443 E28.07752
G0 F9000 X126.873 Y111.034
G1 F1800 X126.717 Y110.877 E28.08488
G0 F9000 X126.873 Y110.468
G1 F1800 X126.717 Y110.312 E28.09222
G0 F9000 X126.873 Y109.902
G1 F1800 X126.717 Y109.746 E28.09956
G0 F9000 X126.873 Y109.337
G1 F1800 X126.717 Y109.18 E28.10692
G0 F9000 X126.873 Y108.771
G1 F1800 X126.717 Y108.615 E28.11426
G0 F9000 X126.873 Y108.205
G1 F1800 X126.717 Y108.049 E28.12159
G0 F9000 X126.873 Y107.64
G1 F1800 X126.717 Y107.483 E28.12895
G0 F9000 X126.873 Y107.074
G1 F1800 X126.717 Y106.918 E28.13629
G0 F9000 X126.873 Y106.508
G1 F1800 X126.717 Y106.352 E28.14363
G0 F9000 X126.873 Y105.942
G1 F1800 X126.717 Y105.786 E28.15097
G0 F9000 X126.873 Y105.377
G1 F1800 X126.717 Y105.221 E28.15831
G0 F9000 X126.873 Y104.811
G1 F1800 X126.717 Y104.655 E28.16564
G0 F9000 X126.873 Y104.245
G1 F1800 X126.717 Y104.089 E28.17298
G0 F9000 X126.873 Y103.68
G1 F1800 X126.717 Y103.523 E28.18034
G0 F9000 X126.873 Y103.114
G1 F1800 X126.717 Y102.958 E28.18768
G0 F9000 X126.873 Y102.548
G1 F1800 X126.717 Y102.392 E28.19502
G0 F9000 X126.873 Y101.983
G1 F1800 X126.717 Y101.826 E28.20238
G0 F9000 X126.873 Y101.417
G1 F1800 X126.717 Y101.261 E28.20972
G0 F9000 X126.873 Y100.851
G1 F1800 X126.717 Y100.695 E28.21705
G0 F9000 X126.873 Y100.286
G1 F1800 X126.717 Y100.129 E28.22442
G0 F9000 X126.873 Y99.72
G1 F1800 X126.717 Y99.564 E28.23175
G0 F9000 X126.873 Y99.154
G1 F1800 X126.717 Y98.998 E28.23909
G0 F9000 X126.873 Y98.589
G1 F1800 X126.717 Y98.432 E28.24645
G0 F9000 X126.873 Y98.023
G1 F1800 X126.717 Y97.867 E28.25379
G0 F9000 X126.873 Y97.457
G1 F1800 X126.717 Y97.301 E28.26113
G0 F9000 X126.873 Y96.892
G1 F1800 X126.717 Y96.735 E28.26849
G1 F1500 E24.26849
G0 F9000 X126.698 Y96.693
G0 X93.148 Y96.735
G0 X93.076 Y97.085
G0 X93.125 Y97.085
G1 F1500 E28.26849
G1 F1800 X93.282 Y97.242 E28.27587
G0 F9000 X93.125 Y97.651
G1 F1800 X93.282 Y97.807 E28.28324
G0 F9000 X93.125 Y98.217
G1 F1800 X93.282 Y98.373 E28.2906
G0 F9000 X93.125 Y98.782
G1 F1800 X93.282 Y98.939 E28.29798
G0 F9000 X93.125 Y99.348
G1 F1800 X93.282 Y99.504 E28.30534
G0 F9000 X93.125 Y99.914
G1 F1800 X93.282 Y100.07 E28.3127
G0 F9000 X93.125 Y100.479
G1 F1800 X93.282 Y100.636 E28.32009
G0 F9000 X93.125 Y101.045
G1 F1800 X93.282 Y101.201 E28.32745
G0 F9000 X93.125 Y101.611
G1 F1800 X93.282 Y101.767 E28.33481
G0 F9000 X93.125 Y102.176
G1 F1800 X93.282 Y102.333 E28.3422
G0 F9000 X93.125 Y102.742
G1 F1800 X93.282 Y102.898 E28.34956
G0 F9000 X93.125 Y103.308
G1 F1800 X93.282 Y103.464 E28.35692
G0 F9000 X93.125 Y103.873
G1 F1800 X93.282 Y104.03 E28.3643
G0 F9000 X93.125 Y104.439
G1 F1800 X93.282 Y104.595 E28.37167
G0 F9000 X93.125 Y105.005
G1 F1800 X93.282 Y105.161 E28.37903
G0 F9000 X93.125 Y105.571
G1 F1800 X93.282 Y105.727 E28.38639
G0 F9000 X93.125 Y106.136
G1 F1800 X93.282 Y106.292 E28.39375
G0 F9000 X93.125 Y106.702
G1 F1800 X93.282 Y106.858 E28.40111
G0 F9000 X93.125 Y107.268
G1 F1800 X93.282 Y107.424 E28.40847
G0 F9000 X93.125 Y107.833
G1 F1800 X93.282 Y107.99 E28.41586
G0 F9000 X93.125 Y108.399
G1 F1800 X93.282 Y108.555 E28.42322
G0 F9000 X93.125 Y108.965
G1 F1800 X93.282 Y109.121 E28.43058
G0 F9000 X93.125 Y109.53
G1 F1800 X93.282 Y109.687 E28.43796
G0 F9000 X93.125 Y110.096
G1 F1800 X93.282 Y110.252 E28.44533
G0 F9000 X93.125 Y110.662
G1 F1800 X93.282 Y110.818 E28.45269
G0 F9000 X93.125 Y111.227
G1 F1800 X93.282 Y111.384 E28.46007
G0 F9000 X93.125 Y111.793
G1 F1800 X93.282 Y111.949 E28.46743
G0 F9000 X93.125 Y112.359
G1 F1800 X93.282 Y112.515 E28.47479
G0 F9000 X93.125 Y112.924
G1 F1800 X93.282 Y113.081 E28.48218
G0 F9000 X93.125 Y113.49
G1 F1800 X93.282 Y113.646 E28.48954
G0 F9000 X93.125 Y114.056
G1 F1800 X93.282 Y114.212 E28.4969
G0 F9000 X93.125 Y114.622
G1 F1800 X93.282 Y114.778 E28.50426
G0 F9000 X93.125 Y115.187
G1 F1800 X93.282 Y115.343 E28.51162
G0 F9000 X93.125 Y115.753
G1 F1800 X93.282 Y115.909 E28.51899
G0 F9000 X93.125 Y116.319
G1 F1800 X93.282 Y116.475 E28.52635
G0 F9000 X93.125 Y116.884
G1 F1800 X93.282 Y117.041 E28.53373
G0 F9000 X93.125 Y117.45
G1 F1800 X93.282 Y117.606 E28.54109
G0 F9000 X93.125 Y118.016
G1 F1800 X93.282 Y118.172 E28.54845
G0 F9000 X93.125 Y118.581
G1 F1800 X93.282 Y118.738 E28.55584
G0 F9000 X93.125 Y119.147
G1 F1800 X93.282 Y119.303 E28.5632
G0 F9000 X93.125 Y119.713
G1 F1800 X93.282 Y119.869 E28.57056
G0 F9000 X93.125 Y120.278
G1 F1800 X93.282 Y120.435 E28.57795
G0 F9000 X93.125 Y120.844
G1 F1800 X93.282 Y121 E28.58531
G0 F9000 X93.125 Y121.41
G1 F1800 X93.282 Y121.566 E28.59267
G0 F9000 X93.125 Y121.975
G1 F1800 X93.282 Y122.132 E28.60005
G0 F9000 X93.125 Y122.541
G1 F1800 X93.282 Y122.697 E28.60742
G0 F9000 X93.125 Y123.107
G1 F1800 X93.282 Y123.263 E28.61478
G0 F9000 X93.514 Y123.519
G1 F1500 E24.61478
;MESH:NONMESH
G0 F300 X93.514 Y123.519 Z0.36
G0 F9000 X94.042 Y98.925
G0 X95.442 Y98.925
;TIME_ELAPSED:47.647271
;LAYER:1
M106 S85
;TYPE:SUPPORT
G1 F1500 E28.61478
G1 F2100 X98.8 Y98.925 E28.70413
G1 X98.8 Y101.81 E28.78089
G1 X95.442 Y101.81 E28.87024
G1 X95.442 Y98.925 E28.94701
G0 F9000 X96 Y99.205
G1 F2100 X95.722 Y99.205 E28.9544
G1 X95.722 Y101.53 E29.01627
G1 X96 Y101.53 E29.02366
G1 X96 Y99.205 E29.08553
G1 X98 Y99.205 E29.13874
G1 X98 Y101.53 E29.20061
G1 X98.52 Y101.53 E29.21444
G1 X98.52 Y99.205 E29.27631
G1 X98 Y99.205 E29.29014
G1 F1500 E25.29014
G0 F9000 X99.665 Y99.205
G0 X99.663 Y101.603
G0 X98.8 Y117.345
G0 X98.8 Y118.21
G1 F1500 E29.29014
G1 F2100 X98.8 Y121.075 E29.36638
G1 X95.442 Y121.075 E29.45573
G1 X95.442 Y118.21 E29.53196
G1 X98.8 Y118.21 E29.62131
G0 F9000 X98.52 Y118.49
G1 F2100 X98.52 Y120.795 E29.68264
G1 X98 Y120.795 E29.69648
G1 X98 Y118.49 E29.75781
G1 X96 Y118.49 E29.81102
G1 X95.722 Y118.49 E29.81842
G1 X95.722 Y120.795 E29.87975
G1 X96 Y120.795 E29.88715
G1 X96 Y118.49 E29.94848
G0 F9000 X98 Y118.49
G1 F2100 X98.52 Y118.49 E29.96232
G1 F1500 E25.96232
G0 F9000 X99.665 Y118.49
G0 X120.335 Y118.21
G0 X121.2 Y118.21
G1 F1500 E29.96232
G1 F2100 X124.558 Y118.21 E30.05167
G1 X124.558 Y121.075 E30.1279
G1 X121.2 Y121.075 E30.21725
G1 X121.2 Y118.21 E30.29348
G0 F9000 X122 Y120.795
G1 F2100 X121.48 Y120.795 E30.30732
G1 X121.48 Y118.49 E30.36865
G1 X122 Y118.49 E30.38249
G1 X122 Y120.795 E30.44382
G1 X124 Y120.795 E30.49703
G1 X124 Y118.49 E30.55837
G1 X124.278 Y118.49 E30.56576
G1 X124.278 Y120.795 E30.62709
G1 X124 Y120.795 E30.63449
G1 F1500 E26.63449
G0 F9000 X124 Y117.345
G0 X124.558 Y102.675
G0 X124.558 Y101.81
G1 F1500 E30.63449
G1 F2100 X121.2 Y101.81 E30.72384
G1 X121.2 Y98.925 E30.80061
G1 X124.558 Y98.925 E30.88996
G1 X124.558 Y101.81 E30.96672
G0 F9000 X124 Y101.53
G1 F2100 X124.278 Y101.53 E30.97412
G1 X124.278 Y99.205 E31.03598
G1 X124 Y99.205 E31.04338
G1 X124 Y101.53 E31.10524
G1 X122 Y101.53 E31.15846
G1 X121.48 Y101.53 E31.17229
G1 X121.48 Y99.205 E31.23416
G1 X122 Y99.205 E31.24799
G1 X122 Y101.53 E31.30986
G1 F1500 E27.30986
;MESH:ensamblaje del sensor externo.stl
G0 F9000 X122 Y102.675
G0 X120.339 Y117.853
G0 X120.347 Y121.422
G0 X122 Y122.475
G0 X93.442 Y123.075
;TYPE:WALL-INNER
G1 F1500 E31.30986
G1 F2100 X126.558 Y123.075 E32.19101
G1 X126.558 Y96.925 E32.88681
G1 X93.442 Y96.925 E33.76797
G1 X93.442 Y123.075 E34.46377
G0 F9000 X93.842 Y122.675
G1 F2100 X126.158 Y122.675 E35.32364
G1 X126.158 Y97.325 E35.99815
G1 X93.842 Y97.325 E36.85802
G1 X93.842 Y122.675 E37.53254
G0 F9000 X94.242 Y122.275
;TYPE:WALL-OUTER
G1 F2100 X125.758 Y122.275 E38.37112
G1 X125.758 Y97.725 E39.02435
G1 X94.242 Y97.725 E39.86293
G1 X94.242 Y122.275 E40.51616
G1 F1500 E36.51616
G0 F9000 X93.942 Y122.275
G0 X94.006 Y122.48
G0 X127.034 Y123.447
;TYPE:WALL-INNER
G1 F1500 E40.51616
G1 F2100 X126.558 Y123.447 E40.52882
G1 X93.442 Y123.447 E41.35035
G1 X92.966 Y123.447 E41.36302
G1 X92.966 Y96.553 E42.07861
G1 X93.442 Y96.553 E42.09128
G1 X126.558 Y96.553 E42.91281
G1 X127.034 Y96.553 E42.92547
G1 X127.034 Y123.447 E43.64107
G0 F9000 X127.434 Y123.847
G1 F2100 X92.566 Y123.847 E44.56884
G1 X92.566 Y96.153 E45.30573
G1 X127.434 Y96.153 E46.2335
G1 X127.434 Y123.847 E46.97038
G0 F9000 X127.834 Y124.247
;TYPE:WALL-OUTER
G1 F2100 X92.166 Y124.247 E47.91944
G1 X92.166 Y95.753 E48.67761
G1 X127.834 Y95.753 E49.62667
G1 X127.834 Y124.247 E50.38484
G0 F9000 X127.564 Y123.977
G0 X126.698 Y123.307
G0 X126.746 Y123.286
;TYPE:SKIN
G1 F1800 X126.873 Y123.159 E50.38962
G0 F9000 X126.717 Y122.749
G1 F1800 X126.873 Y122.593 E50.39549
G0 F9000 X126.717 Y122.183
G1 F1800 X126.873 Y122.028 E50.40134
G0 F9000 X126.717 Y121.618
G1 F1800 X126.873 Y121.462 E50.40721
G0 F9000 X126.717 Y121.052
G1 F1800 X126.873 Y120.896 E50.41308
G0 F9000 X126.717 Y120.486
G1 F1800 X126.873 Y120.331 E50.41893
G0 F9000 X126.717 Y119.921
G1 F1800 X126.873 Y119.765 E50.42481
G0 F9000 X126.717 Y119.355
G1 F1800 X126.873 Y119.199 E50.43068
G0 F9000 X126.717 Y118.789
G1 F1800 X126.873 Y118.634 E50.43653
G0 F9000 X126.717 Y118.224
G1 F1800 X126.873 Y118.068 E50.4424
G0 F9000 X126.717 Y117.658
G1 F1800 X126.873 Y117.502 E50.44827
G0 F9000 X126.717 Y117.092
G1 F1800 X126.873 Y116.937 E50.45412
G0 F9000 X126.717 Y116.526
G1 F1800 X126.873 Y116.371 E50.45997
G0 F9000 X126.717 Y115.961
G1 F1800 X126.873 Y115.805 E50.46584
G0 F9000 X126.717 Y115.395
G1 F1800 X126.873 Y115.24 E50.47169
G0 F9000 X126.717 Y114.829
G1 F1800 X126.873 Y114.674 E50.47754
G0 F9000 X126.717 Y114.264
G1 F1800 X126.873 Y114.108 E50.48341
G0 F9000 X126.717 Y113.698
G1 F1800 X126.873 Y113.542 E50.48928
G0 F9000 X126.717 Y113.132
G1 F1800 X126.873 Y112.977 E50.49513
G0 F9000 X126.717 Y112.567
G1 F1800 X126.873 Y112.411 E50.50101
G0 F9000 X126.717 Y112.001
G1 F1800 X126.873 Y111.845 E50.50688
G0 F9000 X126.717 Y111.435
G1 F1800 X126.873 Y111.28 E50.51273
G0 F9000 X126.717 Y110.87
G1 F1800 X126.873 Y110.714 E50.5186
G0 F9000 X126.717 Y110.304
G1 F1800 X126.873 Y110.148 E50.52447
