;FLAVOR:Marlin
;TIME:5602
;Filament used: 2.27927m
;Layer height: 0.16
;MINX:88.124
;MINY:75.624
;MINZ:0.2
;MAXX:131.101
;MAXY:132.26
;MAXZ:9.96
;Generated with Cura_SteamEngine 4.7.1
M140 S60
M105
M190 S60
M104 S200
M105
M109 S200
M82 ;absolute extrusion mode
; Ender 3 Custom Start G-code
G92 E0 ; Reset Extruder
G28 ; Home all axes
G1 Z2.0 F3000 ; Move Z Axis up little to prevent scratching of Heat Bed
G1 X0.1 Y20 Z0.3 F5000.0 ; Move to start position
G1 X0.1 Y200.0 Z0.3 F1500.0 E15 ; Draw the first line
G1 X0.4 Y200.0 Z0.3 F5000.0 ; Move to side a little
G1 X0.4 Y20 Z0.3 F1500.0 E30 ; Draw the second line
G92 E0 ; Reset Extruder
G1 Z2.0 F3000 ; Move Z Axis up little to prevent scratching of Heat Bed
G1 X5 Y20 Z0.3 F5000.0 ; Move over to prevent blob squish
G92 E0
G92 E0
G1 F1500 E-4
;LAYER_COUNT:81
;LAYER:0
M107
G0 F6000 X89.243 Y77.415 Z0.2
;TYPE:SKIRT
G1 F1500 E0
G1 F1200 X89.442 Y77.2 E0.00974
G1 X89.7 Y76.942 E0.02188
G1 X90.117 Y76.582 E0.0402
G1 X90.373 Y76.407 E0.05052
G1 X90.413 Y76.382 E0.05209
G1 X90.9 Y76.124 E0.07042
G1 X91.164 Y76.02 E0.07985
G1 X91.584 Y75.872 E0.09466
G1 X92.116 Y75.727 E0.113
G1 X92.583 Y75.665 E0.12867
G1 X92.741 Y75.654 E0.13394
G1 X92.997 Y75.645 E0.14246
G1 X103.436 Y75.624 E0.48966
G1 X104.013 Y75.626 E0.50885
G1 X115.582 Y75.625 E0.89364
G1 X126.007 Y75.644 E1.24038
G1 X126.286 Y75.655 E1.24967
G1 X126.564 Y75.676 E1.25894
G1 X127.109 Y75.757 E1.27726
G1 X127.551 Y75.885 E1.29257
G1 X127.835 Y75.986 E1.30259
G1 X128.498 Y76.296 E1.32694
G1 X128.753 Y76.447 E1.33679
G1 X129.206 Y76.762 E1.35515
G1 X129.593 Y77.122 E1.37273
G1 X129.766 Y77.307 E1.38115
G1 X130.16 Y77.807 E1.40232
G1 X130.271 Y77.975 E1.40902
G1 X130.571 Y78.52 E1.42971
G1 X130.659 Y78.717 E1.43689
G1 X130.846 Y79.235 E1.4552
G1 X130.953 Y79.746 E1.47257
G1 X130.993 Y80.035 E1.48227
G1 X131.029 Y80.548 E1.49938
G1 X131.04 Y85.487 E1.66365
G1 X131.023 Y91.06 E1.84901
G1 X131.023 Y101.596 E2.19944
G1 X131.031 Y109.994 E2.47876
G1 X131.028 Y112.4 E2.55878
G1 X131.01 Y112.764 E2.5709
G1 X130.963 Y113.246 E2.58701
G1 X130.91 Y113.609 E2.59921
G1 X130.846 Y113.933 E2.6102
G1 X131.004 Y114.431 E2.62757
G1 X131.092 Y114.975 E2.6459
G1 X131.101 Y115.526 E2.66423
G1 X131.043 Y115.973 E2.67922
G1 X131.061 Y116.21 E2.68713
G1 X131.024 Y116.752 E2.7052
G1 X131.017 Y117.266 E2.72229
G1 X130.931 Y117.81 E2.74061
G1 X130.766 Y118.336 E2.75895
G1 X130.645 Y118.582 E2.76807
G1 X130.647 Y118.703 E2.77209
G1 X130.576 Y119.249 E2.7904
G1 X130.427 Y119.779 E2.80871
G1 X130.203 Y120.283 E2.82706
G1 X129.908 Y120.748 E2.84537
G1 X129.55 Y121.166 E2.86368
G1 X129.134 Y121.528 E2.88202
G1 X128.866 Y121.712 E2.89283
G1 X128.477 Y121.955 E2.90809
G1 X127.852 Y122.269 E2.93135
G1 X127.587 Y122.373 E2.94082
G1 X127.061 Y122.537 E2.95915
G1 X126.385 Y122.631 E2.98185
G1 X126.181 Y122.641 E2.98864
G1 X125.998 Y122.646 E2.99473
G1 X107.318 Y122.659 E3.61603
G1 X93.012 Y122.645 E4.09185
G1 X92.718 Y122.633 E4.10163
G1 X92.502 Y122.616 E4.10884
G1 X91.957 Y122.533 E4.12718
G1 X91.43 Y122.372 E4.1455
G1 X91.101 Y122.227 E4.15746
G1 X90.899 Y122.126 E4.16497
G1 X90.382 Y121.814 E4.18506
G1 X90.042 Y121.57 E4.19898
G1 X89.619 Y121.217 E4.2173
G1 X89.252 Y120.807 E4.2356
G1 X88.947 Y120.348 E4.25393
G1 X88.712 Y119.849 E4.27228
G1 X88.552 Y119.322 E4.2906
G1 X88.469 Y118.777 E4.30893
G1 X88.468 Y118.393 E4.3217
G1 X88.46 Y118.301 E4.32478
G1 X88.459 Y118.01 E4.33445
G1 X88.445 Y117.737 E4.34355
G1 X88.337 Y117.477 E4.35291
G1 X88.202 Y116.943 E4.37123
G1 X88.145 Y116.395 E4.38955
G1 X88.168 Y115.844 E4.4079
G1 X88.175 Y115.806 E4.40918
G1 X88.164 Y115.703 E4.41263
G1 X88.185 Y115.152 E4.43097
G1 X88.285 Y114.61 E4.4493
G1 X88.375 Y114.346 E4.45857
G1 X88.233 Y113.503 E4.48701
G1 X88.194 Y113.184 E4.4977
G1 X88.159 Y112.756 E4.51198
G1 X88.146 Y112.459 E4.52187
G1 X88.145 Y112.276 E4.52795
G1 X88.125 Y112.016 E4.53663
G1 X88.124 Y102.043 E4.86833
G1 X88.126 Y101.486 E4.88686
G1 X88.125 Y90.444 E5.25412
G1 X88.144 Y80.495 E5.58502
G1 X88.157 Y80.186 E5.59531
G1 X88.17 Y80.03 E5.60051
G1 X88.256 Y79.486 E5.61883
G1 X88.372 Y79.086 E5.63268
G1 X88.52 Y78.665 E5.64753
G1 X88.74 Y78.16 E5.66585
G1 X88.892 Y77.896 E5.67598
G1 X88.916 Y77.858 E5.67748
G1 X89.243 Y77.415 E5.69579
G0 F6000 X89.725 Y77.483
G1 F1200 X89.983 Y77.225 E5.70792
G1 X90.585 Y76.746 E5.73351
G1 X90.625 Y76.721 E5.73508
G1 X91.297 Y76.397 E5.75989
G1 X91.717 Y76.249 E5.7747
G1 X92.22 Y76.114 E5.79203
G1 X92.611 Y76.064 E5.80514
G1 X92.769 Y76.053 E5.81041
G1 X92.998 Y76.045 E5.81803
G1 X103.435 Y76.024 E6.16516
G1 X104.012 Y76.026 E6.18435
G1 X115.581 Y76.025 E6.56914
G1 X126.006 Y76.044 E6.91588
G1 X126.256 Y76.054 E6.9242
G1 X126.534 Y76.075 E6.93347
G1 X127.049 Y76.154 E6.9508
G1 X127.417 Y76.262 E6.96356
G1 X127.701 Y76.363 E6.97358
G1 X128.294 Y76.64 E6.99535
G1 X128.549 Y76.791 E7.00521
G1 X128.976 Y77.091 E7.02257
G1 X129.3 Y77.395 E7.03734
G1 X129.473 Y77.58 E7.04577
G1 X129.827 Y78.028 E7.06476
G1 X129.938 Y78.196 E7.07146
G1 X130.205 Y78.683 E7.08993
G1 X130.293 Y78.88 E7.0971
G1 X130.469 Y79.371 E7.11445
G1 X130.557 Y79.801 E7.12905
G1 X130.597 Y80.09 E7.13875
G1 X130.629 Y80.548 E7.15402
G1 X130.64 Y85.485 E7.31823
G1 X130.623 Y91.058 E7.50359
G1 X130.623 Y101.596 E7.85409
G1 X130.631 Y109.993 E8.13337
G1 X130.628 Y112.399 E8.21339
G1 X130.612 Y112.725 E8.22425
G1 X130.565 Y113.207 E8.24036
G1 X130.517 Y113.532 E8.25128
G1 X130.428 Y113.986 E8.26667
G1 X130.506 Y114.159 E8.27298
G1 X130.644 Y114.662 E8.29033
G1 X130.704 Y115.179 E8.30764
G1 X130.685 Y115.7 E8.32498
G1 X130.644 Y115.912 E8.33216
G1 X130.657 Y116.381 E8.34777
G1 X130.615 Y116.721 E8.35916
G1 X130.63 Y116.88 E8.36448
G1 X130.6 Y117.4 E8.3818
G1 X130.49 Y117.91 E8.39915
G1 X130.304 Y118.396 E8.41646
G1 X130.243 Y118.511 E8.42079
G1 X130.242 Y118.765 E8.42924
G1 X130.16 Y119.279 E8.44655
G1 X130 Y119.775 E8.46388
G1 X129.767 Y120.241 E8.48121
G1 X129.465 Y120.666 E8.49855
G1 X129.101 Y121.04 E8.51591
G1 X128.654 Y121.373 E8.53445
G1 X128.265 Y121.616 E8.54971
G1 X127.706 Y121.897 E8.57052
G1 X127.441 Y122.001 E8.57998
G1 X126.943 Y122.154 E8.59731
G1 X126.365 Y122.232 E8.61671
G1 X126.161 Y122.242 E8.6235
G1 X125.997 Y122.246 E8.62896
G1 X107.319 Y122.259 E9.25019
G1 X93.013 Y122.245 E9.72601
G1 X92.749 Y122.235 E9.7348
G1 X92.533 Y122.218 E9.74201
G1 X92.018 Y122.137 E9.75935
G1 X91.522 Y121.979 E9.77666
G1 X91.279 Y121.869 E9.78553
G1 X91.077 Y121.768 E9.79304
G1 X90.616 Y121.489 E9.81097
G1 X90.276 Y121.245 E9.82488
G1 X89.877 Y120.91 E9.84221
G1 X89.534 Y120.517 E9.85956
G1 X89.255 Y120.077 E9.87689
G1 X89.047 Y119.6 E9.8942
G1 X88.914 Y119.096 E9.91154
G1 X88.859 Y118.577 E9.92889
G1 X88.869 Y118.384 E9.93532
G1 X88.859 Y118.268 E9.93919
G1 X88.857 Y117.971 E9.94907
G1 X88.84 Y117.646 E9.9599
G1 X88.708 Y117.324 E9.97147
G1 X88.586 Y116.817 E9.98882
G1 X88.543 Y116.298 E10.00614
G1 X88.579 Y115.797 E10.02284
G1 X88.563 Y115.632 E10.02836
G1 X88.593 Y115.112 E10.04568
G1 X88.702 Y114.602 E10.06303
G1 X88.787 Y114.381 E10.0709
G1 X88.628 Y113.437 E10.10274
G1 X88.592 Y113.151 E10.11233
G1 X88.557 Y112.723 E10.12661
G1 X88.546 Y112.457 E10.13547
G1 X88.545 Y112.277 E10.14145
G1 X88.525 Y112.016 E10.15016
G1 X88.524 Y102.045 E10.4818
G1 X88.526 Y101.488 E10.50032
G1 X88.525 Y90.445 E10.86761
G1 X88.544 Y80.496 E11.19852
G1 X88.556 Y80.22 E11.20771
G1 X88.569 Y80.064 E11.21292
G1 X88.652 Y79.549 E11.23027
G1 X88.749 Y79.218 E11.24174
G1 X88.897 Y78.797 E11.25658
G1 X89.23 Y78.109 E11.282
G1 X89.254 Y78.071 E11.2835
G1 X89.725 Y77.483 E11.30856
G0 F6000 X90.008 Y77.766
G1 F1200 X90.266 Y77.508 E11.32069
G1 X90.797 Y77.085 E11.34327
G1 X90.837 Y77.06 E11.34484
G1 X91.43 Y76.775 E11.36672
G1 X91.85 Y76.627 E11.38153
G1 X92.323 Y76.502 E11.39781
G1 X92.639 Y76.463 E11.4084
G1 X92.797 Y76.452 E11.41366
G1 X92.999 Y76.445 E11.42039
G1 X103.433 Y76.424 E11.76742
G1 X104.01 Y76.426 E11.78661
G1 X115.58 Y76.425 E12.17143
G1 X126.005 Y76.444 E12.51817
G1 X126.226 Y76.453 E12.52553
G1 X126.504 Y76.474 E12.5348
G1 X126.987 Y76.55 E12.55106
G1 X127.283 Y76.638 E12.56133
G1 X127.567 Y76.739 E12.57136
G1 X128.091 Y76.985 E12.59061
G1 X128.346 Y77.136 E12.60047
G1 X128.745 Y77.419 E12.61674
G1 X129.008 Y77.668 E12.62879
G1 X129.181 Y77.853 E12.63721
G1 X129.493 Y78.248 E12.65395
G1 X129.604 Y78.416 E12.66065
G1 X129.84 Y78.846 E12.67696
G1 X129.928 Y79.043 E12.68414
G1 X130.091 Y79.505 E12.70043
G1 X130.161 Y79.856 E12.71234
G1 X130.201 Y80.145 E12.72204
G1 X130.229 Y80.549 E12.73551
G1 X130.24 Y85.484 E12.89965
G1 X130.223 Y91.057 E13.08501
G1 X130.223 Y101.596 E13.43554
G1 X130.231 Y109.993 E13.71482
G1 X130.228 Y112.399 E13.79485
G1 X130.214 Y112.686 E13.8044
G1 X130.167 Y113.168 E13.82051
G1 X130.125 Y113.455 E13.83016
G1 X130.013 Y114.027 E13.84955
G1 X130.168 Y114.407 E13.8632
G1 X130.277 Y114.885 E13.8795
G1 X130.306 Y115.373 E13.89576
G1 X130.256 Y115.86 E13.91204
G1 X130.238 Y115.923 E13.91422
G1 X130.256 Y116.051 E13.91852
G1 X130.244 Y116.54 E13.93479
G1 X130.213 Y116.704 E13.94034
G1 X130.23 Y117.036 E13.9514
G1 X130.174 Y117.522 E13.96767
G1 X130.041 Y117.993 E13.98395
G1 X129.857 Y118.377 E13.99811
G1 X129.846 Y118.43 E13.99991
G1 X129.835 Y118.821 E14.01292
G1 X129.741 Y119.301 E14.02919
G1 X129.57 Y119.76 E14.04548
G1 X129.327 Y120.185 E14.06176
G1 X129.019 Y120.565 E14.07803
G1 X128.652 Y120.89 E14.09434
G1 X128.442 Y121.033 E14.10279
G1 X128.053 Y121.276 E14.11804
G1 X127.56 Y121.525 E14.13641
G1 X127.295 Y121.629 E14.14588
G1 X126.826 Y121.77 E14.16217
G1 X126.346 Y121.832 E14.17827
G1 X126.142 Y121.842 E14.18506
G1 X125.997 Y121.846 E14.18989
G1 X107.319 Y121.859 E14.81112
G1 X93.013 Y121.845 E15.28694
G1 X92.781 Y121.836 E15.29466
G1 X92.565 Y121.819 E15.30187
G1 X92.081 Y121.741 E15.31817
G1 X91.458 Y121.511 E15.34026
G1 X91.256 Y121.41 E15.34777
G1 X90.849 Y121.164 E15.36359
G1 X90.509 Y120.92 E15.37751
G1 X90.136 Y120.603 E15.39379
G1 X89.819 Y120.23 E15.41007
G1 X89.568 Y119.81 E15.42635
G1 X89.388 Y119.355 E15.44262
G1 X89.284 Y118.877 E15.45889
G1 X89.26 Y118.388 E15.47517
G1 X89.266 Y118.342 E15.47672
G1 X89.257 Y118.235 E15.48029
G1 X89.256 Y117.933 E15.49033
G1 X89.24 Y117.622 E15.50069
G1 X89.242 Y117.573 E15.50232
G1 X89.079 Y117.172 E15.51672
G1 X88.972 Y116.695 E15.53298
G1 X88.944 Y116.206 E15.54927
G1 X88.983 Y115.831 E15.56181
G1 X88.962 Y115.565 E15.57068
G1 X89.003 Y115.078 E15.58694
G1 X89.122 Y114.603 E15.60322
G1 X89.199 Y114.426 E15.60964
G1 X89.022 Y113.371 E15.64522
G1 X88.991 Y113.119 E15.65367
G1 X88.956 Y112.691 E15.66795
G1 X88.946 Y112.456 E15.67578
G1 X88.945 Y112.279 E15.68166
G1 X88.925 Y112.016 E15.69044
G1 X88.924 Y102.046 E16.02204
G1 X88.926 Y101.489 E16.04056
G1 X88.925 Y90.445 E16.40789
G1 X88.944 Y80.496 E16.7388
G1 X88.954 Y80.253 E16.74688
G1 X88.967 Y80.097 E16.75209
G1 X89.048 Y79.614 E16.76838
G1 X89.127 Y79.351 E16.77751
G1 X89.275 Y78.93 E16.79236
G1 X89.569 Y78.323 E16.81479
G1 X89.593 Y78.285 E16.81628
G1 X90.008 Y77.766 E16.83839
G0 F6000 X90.291 Y78.049
G1 F1200 X90.549 Y77.791 E16.85052
G1 X91.009 Y77.424 E16.87009
G1 X91.049 Y77.399 E16.87166
G1 X91.563 Y77.152 E16.89063
G1 X91.983 Y77.004 E16.90544
G1 X92.424 Y76.891 E16.92058
G1 X92.666 Y76.862 E16.92869
G1 X92.824 Y76.851 E16.93396
G1 X93 Y76.845 E16.93981
G1 X103.432 Y76.824 E17.28678
G1 X104.009 Y76.826 E17.30598
G1 X115.58 Y76.825 E17.69083
G1 X126.005 Y76.844 E18.03757
G1 X126.196 Y76.851 E18.04392
G1 X126.474 Y76.872 E18.0532
G1 X126.923 Y76.946 E18.06833
G1 X127.149 Y77.015 E18.07619
G1 X127.433 Y77.116 E18.08622
G1 X127.887 Y77.329 E18.10289
G1 X128.142 Y77.48 E18.11275
G1 X128.512 Y77.745 E18.12789
G1 X128.716 Y77.941 E18.1373
G1 X128.889 Y78.126 E18.14572
G1 X129.159 Y78.469 E18.16024
G1 X129.27 Y78.637 E18.16694
G1 X129.475 Y79.01 E18.18109
G1 X129.563 Y79.207 E18.18827
G1 X129.712 Y79.637 E18.20341
G1 X129.764 Y79.911 E18.21268
G1 X129.804 Y80.2 E18.22239
G1 X129.829 Y80.55 E18.23406
G1 X129.84 Y85.483 E18.39813
G1 X129.823 Y91.056 E18.58349
G1 X129.823 Y101.596 E18.93405
G1 X129.831 Y109.992 E19.2133
G1 X129.828 Y112.398 E19.29333
G1 X129.816 Y112.647 E19.30162
G1 X129.769 Y113.129 E19.31773
G1 X129.732 Y113.378 E19.3261
G1 X129.592 Y114.089 E19.3502
G1 X129.667 Y114.22 E19.35522
G1 X129.821 Y114.649 E19.37038
G1 X129.898 Y115.098 E19.38553
G1 X129.896 Y115.554 E19.4007
G1 X129.833 Y115.898 E19.41233
G1 X129.861 Y116.232 E19.42348
G1 X129.82 Y116.685 E19.43861
G1 X129.822 Y116.725 E19.43994
G1 X129.82 Y117.181 E19.45511
G1 X129.739 Y117.629 E19.47025
G1 X129.58 Y118.056 E19.4854
G1 X129.473 Y118.256 E19.49295
G1 X129.448 Y118.383 E19.49725
G1 X129.452 Y118.416 E19.49836
G1 X129.425 Y118.87 E19.51349
G1 X129.319 Y119.314 E19.52867
G1 X129.137 Y119.731 E19.5438
G1 X128.885 Y120.111 E19.55897
G1 X128.571 Y120.441 E19.57412
G1 X128.23 Y120.694 E19.58824
G1 X127.841 Y120.937 E19.60349
G1 X127.414 Y121.152 E19.6194
G1 X127.149 Y121.256 E19.62886
G1 X126.712 Y121.385 E19.64402
G1 X126.326 Y121.433 E19.65696
G1 X126.122 Y121.443 E19.66375
G1 X125.997 Y121.446 E19.66791
G1 X107.319 Y121.459 E20.28914
G1 X93.013 Y121.445 E20.76496
G1 X92.812 Y121.437 E20.77165
G1 X92.596 Y121.42 E20.77886
G1 X92.147 Y121.345 E20.794
G1 X91.637 Y121.154 E20.81211
G1 X91.435 Y121.053 E20.81962
G1 X91.082 Y120.839 E20.83335
G1 X90.742 Y120.595 E20.84727
G1 X90.397 Y120.298 E20.86241
G1 X90.108 Y119.945 E20.87759
G1 X89.886 Y119.548 E20.89272
G1 X89.737 Y119.117 E20.90788
G1 X89.665 Y118.667 E20.92304
G1 X89.67 Y118.367 E20.93302
G1 X89.656 Y118.202 E20.93853
G1 X89.655 Y117.91 E20.94824
G1 X89.639 Y117.602 E20.9585
G1 X89.643 Y117.492 E20.96216
G1 X89.62 Y117.446 E20.96387
G1 X89.452 Y117.023 E20.97901
G1 X89.36 Y116.577 E20.99415
G1 X89.348 Y116.121 E21.00933
G1 X89.386 Y115.869 E21.0178
G1 X89.363 Y115.503 E21.03
G1 X89.414 Y115.05 E21.04516
G1 X89.544 Y114.613 E21.06032
G1 X89.613 Y114.475 E21.06546
G1 X89.417 Y113.305 E21.10491
G1 X89.39 Y113.086 E21.11225
G1 X89.355 Y112.658 E21.12654
G1 X89.346 Y112.455 E21.13329
G1 X89.345 Y112.28 E21.13911
G1 X89.325 Y112.016 E21.14792
G1 X89.324 Y102.048 E21.47946
G1 X89.326 Y101.491 E21.49798
G1 X89.325 Y90.446 E21.86534
G1 X89.344 Y80.497 E22.19625
G1 X89.353 Y80.286 E22.20327
G1 X89.366 Y80.13 E22.20848
G1 X89.504 Y79.484 E22.23045
G1 X89.652 Y79.063 E22.24529
G1 X89.907 Y78.537 E22.26473
G1 X89.931 Y78.499 E22.26623
G1 X90.291 Y78.049 E22.2854
G0 F6000 X90.573 Y78.331
G1 F1200 X90.831 Y78.073 E22.29753
G1 X91.221 Y77.763 E22.3141
G1 X91.261 Y77.738 E22.31567
G1 X91.696 Y77.529 E22.33172
G1 X92.116 Y77.381 E22.34653
G1 X92.694 Y77.261 E22.36617
G1 X92.852 Y77.25 E22.37143
G1 X93.001 Y77.245 E22.37639
G1 X103.431 Y77.224 E22.7233
G1 X104.008 Y77.226 E22.74249
G1 X115.579 Y77.225 E23.12734
G1 X126.004 Y77.244 E23.47408
G1 X126.166 Y77.25 E23.47947
G1 X126.444 Y77.271 E23.48874
G1 X127.015 Y77.392 E23.50816
G1 X127.299 Y77.493 E23.51818
G1 X127.683 Y77.673 E23.53229
G1 X127.938 Y77.824 E23.54214
G1 X128.424 Y78.214 E23.56287
G1 X128.597 Y78.399 E23.57129
G1 X128.826 Y78.689 E23.58358
G1 X128.937 Y78.857 E23.59028
G1 X129.11 Y79.173 E23.60226
G1 X129.198 Y79.37 E23.60944
G1 X129.368 Y79.965 E23.63002
G1 X129.408 Y80.254 E23.63973
G1 X129.429 Y80.551 E23.64963
G1 X129.44 Y85.482 E23.81363
G1 X129.423 Y91.055 E23.99899
G1 X129.423 Y101.596 E24.34959
G1 X129.431 Y109.992 E24.62884
G1 X129.428 Y112.398 E24.70887
G1 X129.418 Y112.609 E24.71589
G1 X129.371 Y113.091 E24.732
G1 X129.34 Y113.301 E24.73906
G1 X129.173 Y114.153 E24.76794
G1 X129.344 Y114.481 E24.78024
G1 X129.465 Y114.882 E24.79417
G1 X129.507 Y115.299 E24.80811
