;FLAVOR:Marlin
;TIME:1345
;Filament used: 0.805882m
;Layer height: 0.16
;MINX:87.54
;MINY:87.672
;MINZ:0.2
;MAXX:132.462
;MAXY:132.39
;MAXZ:9
;Generated with Cura_SteamEngine 4.7.1
M140 S60
M105
M190 S60
M104 S200
M105
M109 S200
M82 ;absolute extrusion mode
; Ender 3 Custom Start G-code
G92 E0 ; Reset Extruder
G28 ; Home all axes
G1 Z2.0 F3000 ; Move Z Axis up little to prevent scratching of Heat Bed
G1 X0.1 Y20 Z0.3 F5000.0 ; Move to start position
G1 X0.1 Y200.0 Z0.3 F1500.0 E15 ; Draw the first line
G1 X0.4 Y200.0 Z0.3 F5000.0 ; Move to side a little
G1 X0.4 Y20 Z0.3 F1500.0 E30 ; Draw the second line
G92 E0 ; Reset Extruder
G1 Z2.0 F3000 ; Move Z Axis up little to prevent scratching of Heat Bed
G1 X5 Y20 Z0.3 F5000.0 ; Move over to prevent blob squish
G92 E0
G92 E0
G1 F1500 E-4
;LAYER_COUNT:47
;LAYER:0
M107
G0 F6000 X95.27 Y93.229 Z0.2
;TYPE:SKIRT
G1 F1500 E0
G1 F1200 X95.947 Y92.605 E0.03062
G1 X96.37 Y92.265 E0.04867
G1 X96.546 Y92.131 E0.05603
G1 X96.935 Y91.849 E0.07201
G1 X97.237 Y91.64 E0.08423
G1 X97.473 Y91.481 E0.09369
G1 X97.888 Y91.21 E0.11018
G1 X98.122 Y91.061 E0.1194
G1 X98.526 Y90.812 E0.13519
G1 X98.948 Y90.566 E0.15143
G1 X99.251 Y90.398 E0.16296
G1 X100.095 Y89.978 E0.19431
G1 X100.952 Y89.641 E0.22494
G1 X101.505 Y89.467 E0.24422
G1 X102.516 Y89.18 E0.27918
G1 X102.916 Y89.072 E0.29296
G1 X104.956 Y88.469 E0.36371
G1 X105.913 Y88.174 E0.39702
G1 X106.804 Y87.941 E0.42765
G1 X107.711 Y87.786 E0.45825
G1 X108.659 Y87.71 E0.48989
G1 X109.664 Y87.674 E0.52333
G1 X110.366 Y87.672 E0.54668
G1 X111.054 Y87.693 E0.56958
G1 X111.308 Y87.704 E0.57803
G1 X111.528 Y87.716 E0.58536
G1 X112.445 Y87.806 E0.61601
G1 X113.35 Y87.975 E0.64663
G1 X114.132 Y88.189 E0.67359
G1 X114.502 Y88.305 E0.68649
G1 X118.272 Y89.413 E0.81718
G1 X118.364 Y89.438 E0.82035
G1 X119.242 Y89.716 E0.85099
G1 X120.092 Y90.07 E0.88161
G1 X120.631 Y90.341 E0.90168
G1 X120.95 Y90.513 E0.91373
G1 X121.409 Y90.776 E0.93133
G1 X121.627 Y90.908 E0.9398
G1 X121.935 Y91.101 E0.95189
G1 X122.414 Y91.414 E0.97092
G1 X122.697 Y91.605 E0.98228
G1 X123.301 Y92.028 E1.0068
G1 X124.031 Y92.589 E1.03742
G1 X124.71 Y93.211 E1.06805
G1 X125.343 Y93.9 E1.09917
G1 X125.884 Y94.546 E1.1272
G1 X128.064 Y97.052 E1.23767
G1 X128.227 Y97.233 E1.24577
G1 X128.813 Y97.943 E1.27639
G1 X129.334 Y98.702 E1.30701
G1 X129.64 Y99.223 E1.32711
G1 X129.939 Y99.768 E1.34778
G1 X130.122 Y100.117 E1.36089
G1 X130.294 Y100.466 E1.37383
G1 X130.385 Y100.661 E1.38099
G1 X130.681 Y101.325 E1.40517
G1 X130.8 Y101.603 E1.41522
G1 X130.866 Y101.764 E1.42101
G1 X130.967 Y102.021 E1.4302
G1 X131.084 Y102.329 E1.44115
G1 X131.373 Y103.203 E1.47177
G1 X131.586 Y104.099 E1.5024
G1 X131.678 Y104.66 E1.52131
G1 X131.82 Y105.701 E1.55626
G1 X131.89 Y106.268 E1.57526
G1 X132.136 Y107.837 E1.62808
G1 X132.164 Y108.085 E1.63638
G1 X132.348 Y109.313 E1.67768
G1 X132.445 Y110.228 E1.70828
G1 X132.462 Y111.149 E1.73892
G1 X132.406 Y112.001 E1.76732
G1 X132.31 Y112.907 E1.79762
G1 X132.225 Y113.53 E1.81854
G1 X132.1 Y114.281 E1.84386
G1 X132.042 Y114.602 E1.85471
G1 X131.998 Y114.824 E1.86224
G1 X131.78 Y115.718 E1.89284
G1 X131.485 Y116.59 E1.92346
G1 X131.201 Y117.256 E1.94754
G1 X130.079 Y119.654 E2.0356
G1 X129.877 Y120.122 E2.05255
G1 X129.823 Y120.234 E2.05669
G1 X129.826 Y120.235 E2.05679
G1 X129.28 Y121.461 E2.10143
G1 X128.869 Y122.285 E2.13205
G1 X128.389 Y123.071 E2.16269
G1 X128.035 Y123.564 E2.18287
G1 X127.664 Y124.052 E2.20326
G1 X127.22 Y124.598 E2.22667
G1 X126.481 Y125.445 E2.26406
G1 X126.402 Y125.533 E2.26799
G1 X125.946 Y126.01 E2.28994
G1 X125.765 Y126.188 E2.29838
G1 X125.082 Y126.804 E2.32897
G1 X124.347 Y127.359 E2.3596
G1 X123.927 Y127.634 E2.3763
G1 X123.294 Y128.027 E2.40108
G1 X121.099 Y129.437 E2.48785
G1 X120.133 Y130.076 E2.52638
G1 X119.344 Y130.55 E2.55699
G1 X118.517 Y130.954 E2.5876
G1 X117.95 Y131.183 E2.60794
G1 X117.511 Y131.345 E2.62351
G1 X117.162 Y131.466 E2.63579
G1 X116.868 Y131.563 E2.64609
G1 X116.472 Y131.685 E2.65987
G1 X116.061 Y131.803 E2.67409
G1 X115.759 Y131.885 E2.6845
G1 X115.297 Y132.003 E2.70036
G1 X115.009 Y132.073 E2.71022
G1 X114.761 Y132.129 E2.71867
G1 X113.471 Y132.337 E2.76213
G1 X112.351 Y132.39 E2.79943
G1 X111.225 Y132.382 E2.83688
G1 X110.637 Y132.37 E2.85644
G1 X109.064 Y132.382 E2.90876
G1 X108.976 Y132.379 E2.91169
G1 X107.677 Y132.39 E2.95489
G1 X106.757 Y132.358 E2.98551
G1 X105.843 Y132.246 E3.01614
G1 X105.021 Y132.075 E3.04406
G1 X104.219 Y131.875 E3.07156
G1 X103.639 Y131.713 E3.09158
G1 X102.844 Y131.466 E3.11927
G1 X102.298 Y131.28 E3.13846
G1 X102.053 Y131.189 E3.14715
G1 X101.205 Y130.831 E3.17777
G1 X100.391 Y130.401 E3.20838
G1 X99.931 Y130.116 E3.22638
G1 X98.955 Y129.476 E3.2652
G1 X98.682 Y129.292 E3.27615
G1 X96.723 Y128.055 E3.35321
G1 X95.927 Y127.542 E3.38471
G1 X95.175 Y127.01 E3.41535
G1 X94.229 Y126.183 E3.45714
G1 X94.034 Y125.988 E3.46631
G1 X93.879 Y125.83 E3.47367
G1 X93.693 Y125.635 E3.48263
G1 X93.569 Y125.502 E3.48868
G1 X93.306 Y125.21 E3.50175
G1 X92.728 Y124.542 E3.53113
G1 X92.588 Y124.377 E3.53833
G1 X92.456 Y124.218 E3.5452
G1 X92.144 Y123.823 E3.56195
G1 X91.949 Y123.564 E3.57273
G1 X91.427 Y122.805 E3.60337
G1 X90.974 Y122.004 E3.63397
G1 X90.725 Y121.481 E3.65324
G1 X90.264 Y120.44 E3.69111
G1 X90.171 Y120.246 E3.69826
G1 X89.408 Y118.551 E3.76009
G1 X89.104 Y117.919 E3.78341
G1 X89.031 Y117.764 E3.78911
G1 X88.781 Y117.222 E3.80896
G1 X88.432 Y116.37 E3.83959
G1 X88.083 Y115.188 E3.88058
G1 X88.052 Y115.055 E3.88512
G1 X87.954 Y114.588 E3.90099
G1 X87.847 Y114.013 E3.92044
G1 X87.767 Y113.519 E3.93709
G1 X87.699 Y113.025 E3.95367
G1 X87.663 Y112.733 E3.96346
G1 X87.635 Y112.477 E3.97202
G1 X87.606 Y112.167 E3.98238
G1 X87.574 Y111.766 E3.99576
G1 X87.54 Y110.846 E4.02638
G1 X87.608 Y109.726 E4.0637
G1 X87.618 Y109.638 E4.06665
G1 X87.666 Y109.269 E4.07902
G1 X87.8 Y108.372 E4.10919
G1 X87.954 Y107.435 E4.14077
G1 X88.21 Y105.495 E4.20585
G1 X88.347 Y104.544 E4.23781
G1 X88.518 Y103.639 E4.26844
G1 X88.881 Y102.421 E4.31072
G1 X88.931 Y102.284 E4.31557
G1 X89.065 Y101.937 E4.32794
G1 X89.157 Y101.71 E4.33608
G1 X89.266 Y101.452 E4.3454
G1 X89.451 Y101.028 E4.36079
G1 X89.581 Y100.741 E4.37127
G1 X89.717 Y100.453 E4.38186
G1 X89.867 Y100.147 E4.39319
G1 X90.183 Y99.53 E4.41625
G1 X90.638 Y98.73 E4.44686
G1 X91.161 Y97.972 E4.47749
G1 X91.717 Y97.295 E4.50663
G1 X92.173 Y96.786 E4.52936
G1 X94.534 Y94.05 E4.64956
G1 X94.651 Y93.91 E4.65562
G1 X95.27 Y93.229 E4.68623
G0 F6000 X95.566 Y93.499
G1 F1200 X96.232 Y92.888 E4.71629
G1 X96.612 Y92.583 E4.7325
G1 X96.788 Y92.449 E4.73986
G1 X97.163 Y92.178 E4.75525
G1 X97.465 Y91.969 E4.76746
G1 X97.692 Y91.816 E4.77657
G1 X98.107 Y91.545 E4.79305
G1 X98.332 Y91.402 E4.80192
G1 X98.736 Y91.153 E4.8177
G1 X99.142 Y90.915 E4.83336
G1 X99.445 Y90.747 E4.84488
G1 X100.257 Y90.343 E4.87504
G1 X101.098 Y90.013 E4.90509
G1 X101.615 Y89.852 E4.9231
G1 X102.768 Y89.525 E4.96296
G1 X103.054 Y89.448 E4.97281
G1 X105.035 Y88.863 E5.04152
G1 X106.031 Y88.556 E5.07618
G1 X106.905 Y88.329 E5.10621
G1 X107.795 Y88.179 E5.13623
G1 X108.673 Y88.11 E5.16553
G1 X109.678 Y88.074 E5.19897
G1 X110.354 Y88.072 E5.22146
G1 X111.042 Y88.093 E5.24435
G1 X111.287 Y88.103 E5.25251
G1 X111.507 Y88.115 E5.25983
G1 X112.405 Y88.204 E5.28985
G1 X113.293 Y88.372 E5.31991
G1 X114.012 Y88.57 E5.34471
G1 X114.413 Y88.696 E5.35869
G1 X118.153 Y89.795 E5.48834
G1 X118.26 Y89.824 E5.49203
G1 X119.121 Y90.098 E5.52208
G1 X119.954 Y90.447 E5.55212
G1 X120.441 Y90.693 E5.57027
G1 X120.76 Y90.865 E5.58232
G1 X121.202 Y91.118 E5.59926
G1 X121.42 Y91.25 E5.60774
G1 X121.717 Y91.436 E5.61939
G1 X122.196 Y91.749 E5.63843
G1 X122.467 Y91.933 E5.64932
G1 X123.071 Y92.356 E5.67385
G1 X123.787 Y92.906 E5.70388
G1 X124.452 Y93.518 E5.73393
G1 X125.036 Y94.157 E5.76273
G1 X125.56 Y94.782 E5.78985
G1 X127.747 Y97.297 E5.90071
G1 X127.93 Y97.5 E5.9098
G1 X128.504 Y98.198 E5.93985
G1 X129.013 Y98.943 E5.96986
G1 X129.29 Y99.416 E5.98809
G1 X129.589 Y99.961 E6.00877
G1 X129.766 Y100.299 E6.02146
G1 X129.931 Y100.636 E6.03394
G1 X130.022 Y100.831 E6.0411
G1 X130.102 Y101.007 E6.04753
G1 X130.315 Y101.487 E6.06499
G1 X130.43 Y101.755 E6.07469
G1 X130.496 Y101.916 E6.08048
G1 X130.593 Y102.163 E6.08931
G1 X130.71 Y102.471 E6.10027
G1 X130.993 Y103.328 E6.13028
G1 X131.199 Y104.208 E6.16034
G1 X131.281 Y104.714 E6.17739
G1 X131.441 Y105.895 E6.21703
G1 X131.493 Y106.318 E6.23121
G1 X131.741 Y107.899 E6.28443
G1 X131.769 Y108.154 E6.29297
G1 X131.952 Y109.372 E6.33393
G1 X132.047 Y110.27 E6.36397
G1 X132.061 Y111.173 E6.394
G1 X132.008 Y111.959 E6.42021
G1 X131.912 Y112.865 E6.45051
G1 X131.831 Y113.465 E6.47064
G1 X131.706 Y114.216 E6.49597
G1 X131.649 Y114.524 E6.50639
G1 X131.605 Y114.746 E6.51391
G1 X131.391 Y115.623 E6.54394
G1 X131.099 Y116.478 E6.57399
G1 X130.838 Y117.086 E6.59599
G1 X129.736 Y119.44 E6.68244
G1 X129.51 Y119.963 E6.70139
G1 X129.457 Y120.071 E6.70539
G1 X129.461 Y120.073 E6.70554
G1 X128.915 Y121.299 E6.75018
G1 X128.511 Y122.107 E6.78023
G1 X128.038 Y122.876 E6.81026
G1 X127.717 Y123.322 E6.82853
G1 X127.346 Y123.81 E6.84892
G1 X126.919 Y124.335 E6.87143
G1 X126.286 Y125.062 E6.90349
G1 X126.104 Y125.266 E6.91258
G1 X125.666 Y125.725 E6.93368
G1 X125.485 Y125.903 E6.94213
G1 X124.814 Y126.507 E6.97216
G1 X123.716 Y127.294 E7.01709
G1 X123.122 Y127.663 E7.04035
G1 X120.818 Y129.142 E7.13141
G1 X119.912 Y129.742 E7.16755
G1 X119.138 Y130.207 E7.19758
G1 X118.325 Y130.601 E7.22763
G1 X117.811 Y130.807 E7.24605
G1 X117.372 Y130.969 E7.26161
G1 X117.037 Y131.086 E7.27341
G1 X116.743 Y131.183 E7.28371
G1 X116.362 Y131.301 E7.29698
G1 X115.951 Y131.419 E7.3112
G1 X115.66 Y131.498 E7.32123
G1 X115.198 Y131.616 E7.33709
G1 X114.921 Y131.682 E7.34656
G1 X114.673 Y131.738 E7.35501
G1 X113.431 Y131.939 E7.39686
G1 X112.353 Y131.99 E7.43276
G1 X111.233 Y131.982 E7.47001
G1 X110.642 Y131.97 E7.48967
G1 X109.061 Y131.982 E7.54225
G1 X108.975 Y131.979 E7.54512
G1 X107.674 Y131.99 E7.58839
G1 X106.771 Y131.957 E7.61844
G1 X105.875 Y131.845 E7.64848
G1 X105.118 Y131.687 E7.6742
G1 X104.316 Y131.487 E7.70169
G1 X103.758 Y131.331 E7.72096
G1 X102.963 Y131.084 E7.74865
G1 X102.437 Y130.905 E7.76713
G1 X102.192 Y130.814 E7.77582
G1 X101.361 Y130.462 E7.80584
G1 X100.563 Y130.038 E7.83589
G1 X100.151 Y129.782 E7.85203
G1 X99.175 Y129.142 E7.89084
G1 X98.905 Y128.96 E7.90167
G1 X96.939 Y127.719 E7.979
G1 X96.143 Y127.206 E8.0105
G1 X95.407 Y126.683 E8.04053
G1 X94.51 Y125.898 E8.08017
G1 X94.32 Y125.708 E8.08911
G1 X94.165 Y125.55 E8.09647
G1 X93.986 Y125.363 E8.10508
G1 X93.862 Y125.23 E8.11113
G1 X93.609 Y124.948 E8.12373
G1 X93.031 Y124.28 E8.15311
G1 X92.896 Y124.121 E8.16005
G1 X92.764 Y123.962 E8.16692
G1 X92.463 Y123.582 E8.18305
G1 X92.268 Y123.323 E8.19383
G1 X91.758 Y122.578 E8.22386
G1 X91.315 Y121.791 E8.2539
G1 X91.091 Y121.319 E8.27127
G1 X90.587 Y120.181 E8.31267
G1 X90.536 Y120.082 E8.31637
G1 X89.783 Y118.409 E8.37739
G1 X89.464 Y117.746 E8.40186
G1 X89.144 Y117.054 E8.42722
G1 X88.802 Y116.218 E8.45726
G1 X88.472 Y115.097 E8.49613
G1 X88.441 Y114.964 E8.50067
G1 X88.347 Y114.515 E8.51593
G1 X88.24 Y113.94 E8.53538
G1 X88.163 Y113.465 E8.55139
G1 X88.095 Y112.971 E8.56797
G1 X88.06 Y112.689 E8.57742
G1 X88.032 Y112.433 E8.58599
G1 X88.004 Y112.135 E8.59595
G1 X87.972 Y111.734 E8.60932
G1 X87.94 Y110.832 E8.63934
G1 X88.005 Y109.771 E8.6747
G1 X88.015 Y109.683 E8.67765
G1 X88.062 Y109.328 E8.68956
G1 X88.219 Y108.282 E8.72474
G1 X88.355 Y107.457 E8.75255
G1 X88.606 Y105.552 E8.81645
G1 X88.743 Y104.601 E8.84841
G1 X88.911 Y103.713 E8.87847
G1 X89.257 Y102.558 E8.91857
G1 X89.307 Y102.421 E8.92342
G1 X89.436 Y102.087 E8.93533
G1 X89.528 Y101.86 E8.94348
G1 X89.632 Y101.612 E8.95242
G1 X89.817 Y101.188 E8.96781
G1 X89.943 Y100.912 E8.9779
G1 X90.079 Y100.624 E8.98849
G1 X90.223 Y100.329 E8.99941
G1 X90.539 Y99.712 E9.02247
G1 X90.986 Y98.928 E9.05248
G1 X91.501 Y98.185 E9.08255
G1 X92.016 Y97.562 E9.10944
G1 X92.463 Y97.063 E9.13172
G1 X94.808 Y94.346 E9.25109
G1 X94.958 Y94.166 E9.25888
G1 X95.566 Y93.499 E9.2889
G1 F1500 E5.2889
;MESH:perilla_carrete.stl
G0 F6000 X102.368 Y102.961
G0 X103.354 Y103.416
G0 X102.372 Y105.399
G0 X100.249 Y105.688
G0 X101.246 Y109.844
G0 X99.39 Y111.624
G0 X99.406 Y111.728
G0 X102.471 Y114.629
G0 X101.871 Y117.125
G0 X101.939 Y117.206
G0 X106.089 Y117.992
G0 X106.932 Y120.417
G0 X107.032 Y120.444
G0 X110.927 Y118.856
G0 X112.968 Y120.444
G0 X113.254 Y120.544
;TYPE:WALL-INNER
G1 F1500 E9.2889
G1 F1200 X112.884 Y120.655 E9.30175
G1 X112.871 Y120.633 E9.3026
G1 X112.696 Y120.333 E9.31415
G1 X112.419 Y119.977 E9.32915
G1 X112.093 Y119.661 E9.34425
G1 X111.724 Y119.395 E9.35938
G1 X111.308 Y119.173 E9.37507
G1 X110.88 Y119.021 E9.39017
G1 X110.438 Y118.929 E9.40519
G1 X110.41 Y118.928 E9.40612
G1 X109.988 Y118.9 E9.42019
G1 X109.556 Y118.929 E9.43459
G1 X109.11 Y119.021 E9.44973
G1 X108.684 Y119.178 E9.46484
G1 X108.286 Y119.387 E9.47979
G1 X107.946 Y119.633 E9.49374
G1 X107.878 Y119.689 E9.49667
G1 X107.576 Y119.983 E9.51069
G1 X107.299 Y120.339 E9.5257
G1 X107.13 Y120.632 E9.53695
G1 X107.119 Y120.652 E9.5377
G1 X106.865 Y120.585 E9.54644
G1 X106.746 Y120.546 E9.55061
G1 X106.747 Y120.522 E9.55141
G1 X106.764 Y120.172 E9.56306
G1 X106.723 Y119.723 E9.57806
G1 X106.62 Y119.281 E9.59315
G1 X106.453 Y118.857 E9.60831
G1 X106.232 Y118.463 E9.62333
G1 X105.96 Y118.104 E9.63831
G1 X105.638 Y117.783 E9.65344
G1 X105.274 Y117.513 E9.66851
G1 X104.877 Y117.295 E9.68357
G1 X104.437 Y117.129 E9.69922
G1 X104.009 Y117.034 E9.7138
G1 X103.563 Y116.996 E9.72869
G1 X103.114 Y117.018 E9.74364
G1 X102.632 Y117.111 E9.75996
G1 X102.541 Y117.15 E9.76326
G1 X102.238 Y117.254 E9.77391
G1 X101.917 Y117.419 E9.78592
G1 X101.894 Y117.43 E9.78676
G1 X101.645 Y117.135 E9.7996
G1 X101.659 Y117.114 E9.80044
G1 X101.869 Y116.816 E9.81257
G1 X102.069 Y116.428 E9.82709
G1 X102.22 Y116.001 E9.84215
G1 X102.302 Y115.592 E9.85603
G1 X102.313 Y115.507 E9.85888
G1 X102.336 Y115.105 E9.87227
G1 X102.302 Y114.655 E9.88728
G1 X102.202 Y114.212 E9.90238
G1 X102.044 Y113.789 E9.9174
G1 X101.828 Y113.39 E9.93249
G1 X101.559 Y113.027 E9.94752
G1 X101.244 Y112.704 E9.96253
G1 X100.883 Y112.426 E9.97768
G1 X100.486 Y112.202 E9.99284
G1 X100.067 Y112.037 E10.00782
G1 X99.627 Y111.931 E10.02287
G1 X99.274 Y111.895 E10.03467
G1 X99.249 Y111.893 E10.03551
G1 X99.191 Y111.511 E10.04836
G1 X99.215 Y111.502 E10.04921
G1 X99.545 Y111.368 E10.06106
G1 X99.937 Y111.143 E10.07609
G1 X100.295 Y110.863 E10.09121
G1 X100.61 Y110.538 E10.10626
G1 X100.875 Y110.173 E10.12126
G1 X101.09 Y109.774 E10.13634
G1 X101.246 Y109.348 E10.15143
G1 X101.341 Y108.907 E10.16643
G1 X101.374 Y108.456 E10.18147
G1 X101.344 Y108.004 E10.19654
G1 X101.256 Y107.58 E10.21094
G1 X101.121 Y107.19 E10.22467
G1 X101.085 Y107.106 E10.22771
G1 X100.888 Y106.731 E10.2418
G1 X100.623 Y106.366 E10.2568
G1 X100.311 Y106.039 E10.27183
G1 X100.035 Y105.82 E10.28355
G1 X100.015 Y105.804 E10.2844
G1 X100.091 Y105.623 E10.29093
G1 X100.175 Y105.452 E10.29727
G1 X100.2 Y105.456 E10.29811
G1 X100.549 Y105.522 E10.30992
G1 X100.89 Y105.54 E10.32128
G1 X100.96 Y105.548 E10.32362
G1 X101.451 Y105.504 E10.34002
G1 X101.891 Y105.401 E10.35505
G1 X102.299 Y105.244 E10.36959
G1 X102.709 Y105.016 E10.38519
G1 X103.071 Y104.742 E10.40029
G1 X103.389 Y104.422 E10.4153
G1 X103.662 Y104.06 E10.43038
G1 X103.882 Y103.66 E10.44556
G1 X104.043 Y103.237 E10.46062
G1 X104.143 Y102.799 E10.47556
G1 X104.183 Y102.35 E10.49055
G1 X104.161 Y101.914 E10.50507
G1 X104.075 Y101.454 E10.52064
G1 X103.961 Y101.121 E10.53234
