;FLAVOR:Marlin
;TIME:2048
;Filament used: 1.09832m
;Layer height: 0.16
;MINX:96.204
;MINY:96.209
;MINZ:0.2
;MAXX:123.784
;MAXY:123.797
;MAXZ:38.88
;Generated with Cura_SteamEngine 4.7.1
M140 S60
M105
M190 S60
M104 S200
M105
M109 S200
M82 ;absolute extrusion mode
; Ender 3 Custom Start G-code
G92 E0 ; Reset Extruder
G28 ; Home all axes
G1 Z2.0 F3000 ; Move Z Axis up little to prevent scratching of Heat Bed
G1 X0.1 Y20 Z0.3 F5000.0 ; Move to start position
G1 X0.1 Y200.0 Z0.3 F1500.0 E15 ; Draw the first line
G1 X0.4 Y200.0 Z0.3 F5000.0 ; Move to side a little
G1 X0.4 Y20 Z0.3 F1500.0 E30 ; Draw the second line
G92 E0 ; Reset Extruder
G1 Z2.0 F3000 ; Move Z Axis up little to prevent scratching of Heat Bed
G1 X5 Y20 Z0.3 F5000.0 ; Move over to prevent blob squish
G92 E0
G92 E0
G1 F1500 E-4
;LAYER_COUNT:196
;LAYER:0
M107
G0 F6000 X100.187 Y100.291 Z0.2
;TYPE:SKIRT
G1 F1500 E0
G1 F1200 X100.865 Y99.656 E0.0309
G1 X100.969 Y99.565 E0.03549
G1 X101.654 Y99.016 E0.06469
G1 X101.743 Y98.95 E0.06838
G1 X102.461 Y98.444 E0.09759
G1 X102.578 Y98.368 E0.10223
G1 X103.375 Y97.894 E0.13307
G1 X103.488 Y97.832 E0.13736
G1 X104.216 Y97.467 E0.16445
G1 X104.349 Y97.407 E0.1693
G1 X105.164 Y97.078 E0.19853
G1 X105.274 Y97.038 E0.20242
G1 X106.213 Y96.728 E0.23531
G1 X106.354 Y96.687 E0.2402
G1 X107.156 Y96.493 E0.26764
G1 X107.276 Y96.469 E0.27171
G1 X108.095 Y96.329 E0.29935
G1 X108.25 Y96.309 E0.30455
G1 X109.086 Y96.24 E0.33245
G1 X109.194 Y96.234 E0.33604
G1 X110.324 Y96.209 E0.37364
G1 X110.458 Y96.211 E0.37809
G1 X111.219 Y96.251 E0.40344
G1 X111.345 Y96.263 E0.40765
G1 X112.091 Y96.355 E0.43265
G1 X112.25 Y96.381 E0.43801
G1 X113.216 Y96.589 E0.47087
G1 X113.318 Y96.614 E0.47437
G1 X114.176 Y96.852 E0.50398
G1 X114.313 Y96.897 E0.50878
G1 X115.248 Y97.239 E0.54189
G1 X115.375 Y97.29 E0.54644
G1 X116.09 Y97.615 E0.57256
G1 X116.213 Y97.677 E0.57715
G1 X116.987 Y98.103 E0.60653
G1 X117.089 Y98.163 E0.61047
G1 X117.81 Y98.624 E0.63893
G1 X117.925 Y98.705 E0.64361
G1 X118.658 Y99.259 E0.67417
G1 X118.755 Y99.338 E0.67833
G1 X119.436 Y99.931 E0.70836
G1 X119.548 Y100.037 E0.71349
G1 X120.11 Y100.618 E0.74038
G1 X120.131 Y100.638 E0.74134
G1 X120.259 Y100.773 E0.74753
G1 X120.798 Y101.405 E0.77516
G1 X120.889 Y101.522 E0.78009
G1 X121.437 Y102.284 E0.8113
G1 X121.512 Y102.396 E0.81579
G1 X121.949 Y103.111 E0.84366
G1 X122.007 Y103.214 E0.84759
G1 X122.441 Y104.041 E0.87865
G1 X122.499 Y104.163 E0.88315
G1 X122.827 Y104.922 E0.91065
G1 X122.878 Y105.054 E0.91535
G1 X123.201 Y105.999 E0.94857
G1 X123.238 Y106.121 E0.95281
G1 X123.421 Y106.814 E0.97665
G1 X123.447 Y106.927 E0.98051
G1 X123.638 Y107.899 E1.01345
G1 X123.662 Y108.06 E1.01887
G1 X123.73 Y108.715 E1.04077
G1 X123.739 Y108.833 E1.04471
G1 X123.784 Y110.027 E1.08445
G1 X123.784 Y110.152 E1.0886
G1 X123.761 Y110.877 E1.11273
G1 X123.751 Y111.02 E1.1175
G1 X123.627 Y112.13 E1.15465
G1 X123.61 Y112.244 E1.15848
G1 X123.483 Y112.962 E1.18273
G1 X123.449 Y113.116 E1.18798
G1 X123.232 Y113.922 E1.21574
G1 X123.197 Y114.036 E1.21971
G1 X122.894 Y114.922 E1.25085
G1 X122.844 Y115.054 E1.25554
G1 X122.502 Y115.846 E1.28424
G1 X122.445 Y115.965 E1.28863
G1 X122.056 Y116.71 E1.31658
G1 X121.983 Y116.837 E1.32145
G1 X121.454 Y117.676 E1.35444
G1 X121.394 Y117.765 E1.35801
G1 X120.933 Y118.408 E1.38432
G1 X120.833 Y118.535 E1.3897
G1 X120.522 Y118.896 E1.40555
G1 X120.281 Y119.198 E1.4184
G1 X120.152 Y119.343 E1.42486
G1 X119.484 Y120.018 E1.45644
G1 X119.397 Y120.101 E1.46044
G1 X118.779 Y120.647 E1.48787
G1 X118.668 Y120.737 E1.49262
G1 X117.982 Y121.252 E1.52115
G1 X117.872 Y121.329 E1.52562
G1 X117.073 Y121.841 E1.55718
G1 X116.968 Y121.903 E1.56124
G1 X116.204 Y122.322 E1.59022
G1 X116.092 Y122.379 E1.5944
G1 X115.346 Y122.723 E1.62172
G1 X115.216 Y122.777 E1.6264
G1 X114.317 Y123.109 E1.65828
G1 X114.183 Y123.152 E1.66296
G1 X113.342 Y123.39 E1.69203
G1 X113.208 Y123.423 E1.69662
G1 X112.434 Y123.579 E1.72288
G1 X112.312 Y123.599 E1.72699
G1 X111.079 Y123.761 E1.76835
G1 X110.95 Y123.773 E1.77266
G1 X110.59 Y123.794 E1.78466
G1 X110.464 Y123.797 E1.78885
G1 X109.206 Y123.782 E1.83069
G1 X109.06 Y123.774 E1.83556
G1 X108.33 Y123.706 E1.85994
G1 X108.183 Y123.686 E1.86487
G1 X107.247 Y123.52 E1.89649
G1 X107.135 Y123.497 E1.90029
G1 X106.277 Y123.288 E1.92967
G1 X106.151 Y123.252 E1.93402
G1 X105.279 Y122.971 E1.9645
G1 X105.149 Y122.924 E1.96909
G1 X104.362 Y122.602 E1.99738
G1 X104.247 Y122.55 E2.00157
G1 X103.475 Y122.169 E2.03021
G1 X103.347 Y122.099 E2.03506
G1 X102.611 Y121.658 E2.0636
G1 X102.498 Y121.585 E2.06807
G1 X101.731 Y121.044 E2.09929
G1 X101.636 Y120.971 E2.10327
G1 X100.961 Y120.424 E2.13217
G1 X100.859 Y120.336 E2.13665
G1 X100.164 Y119.681 E2.16842
G1 X100.066 Y119.581 E2.17307
G1 X99.497 Y118.954 E2.20123
G1 X99.416 Y118.858 E2.20541
G1 X98.91 Y118.216 E2.2326
G1 X98.827 Y118.102 E2.23729
G1 X98.249 Y117.237 E2.27189
G1 X98.183 Y117.13 E2.27607
G1 X97.793 Y116.447 E2.30223
G1 X97.724 Y116.313 E2.30725
G1 X97.358 Y115.526 E2.33611
G1 X97.317 Y115.431 E2.33955
G1 X96.954 Y114.517 E2.37226
G1 X96.904 Y114.374 E2.3773
G1 X96.665 Y113.584 E2.40475
G1 X96.632 Y113.457 E2.40912
G1 X96.453 Y112.659 E2.43632
G1 X96.427 Y112.519 E2.44106
G1 X96.285 Y111.521 E2.47458
G1 X96.273 Y111.418 E2.47803
G1 X96.25 Y111.139 E2.48734
G1 X96.208 Y110.518 E2.50805
G1 X96.204 Y110.397 E2.51207
G1 X96.204 Y109.572 E2.53951
G1 X96.209 Y109.436 E2.54404
G1 X96.277 Y108.536 E2.57406
G1 X96.298 Y108.344 E2.58048
G1 X96.307 Y108.278 E2.5827
G1 X96.431 Y107.469 E2.60992
G1 X96.454 Y107.348 E2.61402
G1 X96.625 Y106.585 E2.64002
G1 X96.658 Y106.458 E2.64439
G1 X96.929 Y105.561 E2.67555
G1 X96.976 Y105.426 E2.68031
G1 X97.285 Y104.637 E2.70849
G1 X97.337 Y104.517 E2.71284
G1 X97.773 Y103.605 E2.74646
G1 X97.83 Y103.495 E2.75058
G1 X98.221 Y102.804 E2.77699
G1 X98.29 Y102.692 E2.78136
G1 X98.802 Y101.923 E2.81209
G1 X98.892 Y101.8 E2.81716
G1 X99.416 Y101.142 E2.84514
G1 X99.487 Y101.058 E2.8488
G1 X100.08 Y100.4 E2.87826
G1 X100.187 Y100.291 E2.88334
G0 F6000 X100.46 Y100.583
G1 F1200 X101.138 Y99.948 E2.91423
G1 X101.219 Y99.878 E2.91779
G1 X101.904 Y99.329 E2.94699
G1 X101.974 Y99.277 E2.94989
G1 X102.692 Y98.771 E2.97911
G1 X102.782 Y98.712 E2.98269
G1 X103.579 Y98.238 E3.01353
G1 X103.668 Y98.189 E3.01691
G1 X104.396 Y97.824 E3.04399
G1 X104.499 Y97.778 E3.04775
G1 X105.314 Y97.449 E3.07698
G1 X105.399 Y97.418 E3.07999
G1 X106.338 Y97.108 E3.11288
G1 X106.448 Y97.076 E3.11669
G1 X107.25 Y96.882 E3.14413
G1 X107.343 Y96.863 E3.14729
G1 X108.162 Y96.723 E3.17492
G1 X108.283 Y96.708 E3.17898
G1 X109.119 Y96.639 E3.20688
G1 X109.203 Y96.634 E3.20968
G1 X110.333 Y96.609 E3.24727
G1 X110.437 Y96.611 E3.25073
G1 X111.198 Y96.651 E3.27608
G1 X111.296 Y96.66 E3.27935
G1 X112.042 Y96.752 E3.30435
G1 X112.166 Y96.772 E3.30853
G1 X113.132 Y96.98 E3.34139
G1 X113.211 Y97 E3.3441
G1 X114.069 Y97.238 E3.37372
G1 X114.176 Y97.272 E3.37745
G1 X115.111 Y97.614 E3.41057
G1 X115.209 Y97.654 E3.41409
G1 X115.924 Y97.979 E3.44021
G1 X116.02 Y98.027 E3.44378
G1 X116.794 Y98.453 E3.47316
G1 X116.873 Y98.5 E3.47622
G1 X117.594 Y98.961 E3.50468
G1 X117.684 Y99.024 E3.50834
G1 X118.417 Y99.578 E3.5389
G1 X118.492 Y99.639 E3.54211
G1 X119.173 Y100.232 E3.57215
G1 X119.26 Y100.315 E3.57615
G1 X119.829 Y100.903 E3.60336
G1 X119.855 Y100.928 E3.60456
G1 X119.954 Y101.033 E3.60936
G1 X120.493 Y101.665 E3.63699
G1 X120.565 Y101.756 E3.64085
G1 X121.113 Y102.518 E3.67206
G1 X121.171 Y102.605 E3.67554
G1 X121.608 Y103.32 E3.70341
G1 X121.653 Y103.399 E3.70644
G1 X122.087 Y104.226 E3.7375
G1 X122.132 Y104.322 E3.74103
G1 X122.46 Y105.081 E3.76853
G1 X122.5 Y105.183 E3.77217
G1 X122.823 Y106.128 E3.80539
G1 X122.852 Y106.224 E3.80872
G1 X123.035 Y106.917 E3.83256
G1 X123.055 Y107.004 E3.83553
G1 X123.246 Y107.976 E3.86848
G1 X123.265 Y108.101 E3.87268
G1 X123.333 Y108.756 E3.89459
G1 X123.339 Y108.848 E3.89765
G1 X123.384 Y110.042 E3.93739
G1 X123.384 Y110.139 E3.94062
G1 X123.361 Y110.864 E3.96475
G1 X123.353 Y110.975 E3.96845
G1 X123.229 Y112.085 E4.0056
G1 X123.217 Y112.174 E4.00858
G1 X123.09 Y112.892 E4.03283
G1 X123.063 Y113.012 E4.03693
G1 X122.846 Y113.818 E4.06469
G1 X122.819 Y113.907 E4.06778
G1 X122.516 Y114.793 E4.09892
G1 X122.476 Y114.895 E4.10257
G1 X122.134 Y115.687 E4.13126
G1 X122.09 Y115.78 E4.13468
G1 X121.701 Y116.525 E4.16264
G1 X121.644 Y116.624 E4.16644
G1 X121.115 Y117.463 E4.19943
G1 X121.069 Y117.532 E4.20218
G1 X120.608 Y118.175 E4.2285
G1 X120.53 Y118.274 E4.23269
G1 X120.213 Y118.642 E4.24885
G1 X119.968 Y118.949 E4.26191
G1 X119.868 Y119.062 E4.26693
G1 X119.2 Y119.737 E4.29851
G1 X119.132 Y119.801 E4.30162
G1 X118.514 Y120.347 E4.32905
G1 X118.428 Y120.418 E4.33276
G1 X117.742 Y120.933 E4.36129
G1 X117.656 Y120.992 E4.36476
G1 X116.857 Y121.504 E4.39632
G1 X116.775 Y121.553 E4.3995
G1 X116.011 Y121.972 E4.42848
G1 X115.924 Y122.015 E4.43171
G1 X115.178 Y122.359 E4.45903
G1 X115.077 Y122.401 E4.46267
G1 X114.178 Y122.733 E4.49454
G1 X114.074 Y122.767 E4.49818
G1 X113.233 Y123.005 E4.52725
G1 X113.129 Y123.03 E4.53081
G1 X112.355 Y123.186 E4.55707
G1 X112.26 Y123.202 E4.56027
G1 X111.027 Y123.364 E4.60164
G1 X110.927 Y123.374 E4.60498
G1 X110.567 Y123.395 E4.61697
G1 X110.468 Y123.397 E4.62027
G1 X109.21 Y123.382 E4.66211
G1 X109.097 Y123.376 E4.66587
G1 X108.367 Y123.308 E4.69026
G1 X108.253 Y123.292 E4.69409
G1 X107.317 Y123.126 E4.7257
G1 X107.23 Y123.108 E4.72866
G1 X106.372 Y122.899 E4.75803
G1 X106.274 Y122.872 E4.76141
G1 X105.402 Y122.591 E4.79188
G1 X105.301 Y122.554 E4.79546
G1 X104.514 Y122.232 E4.82374
G1 X104.424 Y122.191 E4.82703
G1 X103.652 Y121.81 E4.85567
G1 X103.552 Y121.756 E4.85945
G1 X102.816 Y121.315 E4.88798
G1 X102.729 Y121.258 E4.89144
G1 X101.962 Y120.717 E4.92266
G1 X101.888 Y120.661 E4.92575
G1 X101.213 Y120.114 E4.95464
G1 X101.134 Y120.045 E4.95813
G1 X100.439 Y119.39 E4.9899
G1 X100.362 Y119.312 E4.99354
G1 X99.793 Y118.685 E5.0217
G1 X99.73 Y118.611 E5.02494
G1 X99.224 Y117.969 E5.05212
G1 X99.16 Y117.88 E5.05577
G1 X98.582 Y117.015 E5.09037
G1 X98.53 Y116.931 E5.09366
G1 X98.14 Y116.248 E5.11982
G1 X98.087 Y116.144 E5.1237
G1 X97.721 Y115.357 E5.15257
G1 X97.689 Y115.284 E5.15522
G1 X97.326 Y114.37 E5.18793
G1 X97.287 Y114.258 E5.19187
G1 X97.048 Y113.468 E5.21932
G1 X97.022 Y113.369 E5.22273
G1 X96.843 Y112.571 E5.24993
G1 X96.823 Y112.462 E5.25362
G1 X96.681 Y111.464 E5.28714
G1 X96.672 Y111.385 E5.28979
G1 X96.649 Y111.112 E5.2989
G1 X96.607 Y110.491 E5.3196
G1 X96.604 Y110.397 E5.32273
G1 X96.604 Y109.572 E5.35017
G1 X96.608 Y109.467 E5.35366
G1 X96.681 Y108.511 E5.38555
G1 X96.702 Y108.339 E5.39132
G1 X96.826 Y107.53 E5.41854
G1 X96.844 Y107.436 E5.42172
G1 X97.015 Y106.673 E5.44773
G1 X97.041 Y106.574 E5.45113
G1 X97.312 Y105.677 E5.4823
G1 X97.348 Y105.571 E5.48602
G1 X97.657 Y104.782 E5.51421
G1 X97.698 Y104.689 E5.51759
G1 X98.134 Y103.777 E5.55121
G1 X98.179 Y103.692 E5.55441
G1 X98.57 Y103.001 E5.58081
G1 X98.623 Y102.914 E5.5842
G1 X99.135 Y102.145 E5.61493
G1 X99.205 Y102.049 E5.61888
G1 X99.729 Y101.391 E5.64686
G1 X99.784 Y101.326 E5.64969
G1 X100.377 Y100.668 E5.67915
G1 X100.46 Y100.583 E5.6831
G0 F6000 X100.733 Y100.875
G1 F1200 X101.411 Y100.24 E5.714
G1 X101.47 Y100.19 E5.71657
G1 X102.155 Y99.641 E5.74577
G1 X102.204 Y99.604 E5.74781
G1 X102.922 Y99.098 E5.77703
G1 X102.987 Y99.056 E5.7796
G1 X103.784 Y98.582 E5.81044
G1 X103.847 Y98.547 E5.81284
G1 X104.575 Y98.182 E5.83992
G1 X104.649 Y98.149 E5.84262
G1 X105.464 Y97.82 E5.87185
G1 X105.525 Y97.797 E5.87402
G1 X106.464 Y97.487 E5.90691
G1 X106.542 Y97.465 E5.90961
G1 X107.344 Y97.271 E5.93705
G1 X107.411 Y97.257 E5.93933
G1 X108.23 Y97.117 E5.96696
G1 X108.316 Y97.106 E5.96984
G1 X109.152 Y97.037 E5.99774
G1 X109.212 Y97.034 E5.99974
G1 X110.342 Y97.009 E6.03734
G1 X110.416 Y97.01 E6.0398
G1 X111.177 Y97.05 E6.06514
G1 X111.247 Y97.057 E6.06748
G1 X111.993 Y97.149 E6.09248
G1 X112.081 Y97.163 E6.09545
G1 X113.047 Y97.371 E6.12831
G1 X113.104 Y97.385 E6.13026
G1 X113.962 Y97.623 E6.15988
G1 X114.039 Y97.648 E6.16257
G1 X114.974 Y97.99 E6.19569
G1 X115.044 Y98.019 E6.19821
G1 X115.759 Y98.344 E6.22433
G1 X115.827 Y98.378 E6.22686
G1 X116.601 Y98.804 E6.25624
G1 X116.658 Y98.837 E6.25843
G1 X117.379 Y99.298 E6.2869
G1 X117.443 Y99.343 E6.2895
G1 X118.176 Y99.897 E6.32006
G1 X118.23 Y99.941 E6.32237
G1 X118.911 Y100.534 E6.35241
G1 X118.973 Y100.593 E6.35525
G1 X119.548 Y101.188 E6.38278
G1 X119.579 Y101.217 E6.38419
G1 X119.65 Y101.292 E6.38762
G1 X120.189 Y101.924 E6.41525
G1 X120.24 Y101.989 E6.418
G1 X120.788 Y102.751 E6.44921
G1 X120.829 Y102.814 E6.45171
G1 X121.266 Y103.529 E6.47959
G1 X121.298 Y103.585 E6.48173
G1 X121.732 Y104.412 E6.51279
G1 X121.765 Y104.48 E6.51531
G1 X122.093 Y105.239 E6.54281
G1 X122.121 Y105.313 E6.54544
G1 X122.444 Y106.258 E6.57866
G1 X122.465 Y106.326 E6.58102
G1 X122.648 Y107.019 E6.60486
G1 X122.662 Y107.081 E6.60698
G1 X122.853 Y108.053 E6.63992
G1 X122.867 Y108.143 E6.64295
G1 X122.935 Y108.798 E6.66486
G1 X122.939 Y108.863 E6.66702
G1 X122.984 Y110.057 E6.70676
G1 X122.984 Y110.127 E6.70909
G1 X122.961 Y110.852 E6.73322
G1 X122.956 Y110.931 E6.73585
G1 X122.832 Y112.041 E6.773
G1 X122.823 Y112.104 E6.77511
G1 X122.696 Y112.822 E6.79937
G1 X122.677 Y112.908 E6.8023
G1 X122.46 Y113.714 E6.83006
G1 X122.44 Y113.778 E6.83229
G1 X122.137 Y114.664 E6.86343
G1 X122.109 Y114.736 E6.866
G1 X121.767 Y115.528 E6.89469
G1 X121.735 Y115.595 E6.89716
G1 X121.346 Y116.34 E6.92512
G1 X121.306 Y116.41 E6.9278
G1 X120.777 Y117.249 E6.96079
G1 X120.744 Y117.299 E6.96278
G1 X120.283 Y117.942 E6.9891
G1 X120.227 Y118.012 E6.99208
G1 X119.914 Y118.374 E7.00799
G1 X119.655 Y118.7 E7.02184
G1 X119.584 Y118.78 E7.0254
G1 X118.916 Y119.455 E7.05699
G1 X118.867 Y119.501 E7.05922
G1 X118.249 Y120.047 E7.08665
G1 X118.187 Y120.098 E7.08932
G1 X117.501 Y120.613 E7.11785
G1 X117.441 Y120.655 E7.12029
G1 X116.642 Y121.167 E7.15185
G1 X116.583 Y121.202 E7.15413
G1 X115.819 Y121.621 E7.18311
G1 X115.757 Y121.652 E7.18542
G1 X115.011 Y121.996 E7.21274
G1 X114.938 Y122.026 E7.21536
G1 X114.039 Y122.358 E7.24724
G1 X113.965 Y122.382 E7.24983
G1 X113.124 Y122.62 E7.2789
G1 X113.05 Y122.638 E7.28143
G1 X112.276 Y122.794 E7.30769
G1 X112.208 Y122.805 E7.30998
G1 X110.975 Y122.967 E7.35134
G1 X110.903 Y122.974 E7.35375
G1 X110.543 Y122.995 E7.36574
G1 X110.473 Y122.997 E7.36807
G1 X109.215 Y122.982 E7.40992
G1 X109.134 Y122.978 E7.41262
G1 X108.404 Y122.91 E7.437
G1 X108.322 Y122.899 E7.43975
G1 X107.386 Y122.733 E7.47137
G1 X107.324 Y122.72 E7.47348
G1 X106.466 Y122.511 E7.50285
G1 X106.396 Y122.491 E7.50527
G1 X105.524 Y122.21 E7.53574
G1 X105.452 Y122.184 E7.53829
G1 X104.665 Y121.862 E7.56657
G1 X104.601 Y121.833 E7.56891
G1 X103.829 Y121.452 E7.59754
G1 X103.758 Y121.413 E7.60023
G1 X103.022 Y120.972 E7.62877
G1 X102.96 Y120.931 E7.63124
G1 X102.193 Y120.39 E7.66246
G1 X102.139 Y120.35 E7.6647
G1 X101.464 Y119.803 E7.69359
G1 X101.408 Y119.754 E7.69607
G1 X100.713 Y119.099 E7.72783
G1 X100.658 Y119.043 E7.73044
G1 X100.089 Y118.416 E7.7586
G1 X100.045 Y118.363 E7.76089
G1 X99.539 Y117.721 E7.78808
G1 X99.493 Y117.658 E7.79068
G1 X98.915 Y116.793 E7.82528
G1 X98.878 Y116.733 E7.82762
G1 X98.488 Y116.05 E7.85378
G1 X98.449 Y115.976 E7.85657
G1 X98.083 Y115.189 E7.88543
G1 X97.698 Y114.222 E7.92005
G1 X97.67 Y114.143 E7.92284
G1 X97.431 Y113.353 E7.95029
G1 X97.412 Y113.282 E7.95273
G1 X97.233 Y112.484 E7.97994
G1 X97.219 Y112.406 E7.98257
G1 X97.077 Y111.408 E8.0161
G1 X97.048 Y111.085 E8.02689
G1 X97.006 Y110.464 E8.04759
