;FLAVOR:Marlin
;TIME:4603
;Filament used: 1.92941m
;Layer height: 0.16
;MINX:87.509
;MINY:82.203
;MINZ:0.2
;MAXX:132.03
;MAXY:129.803
;MAXZ:7.88
;Generated with Cura_SteamEngine 4.7.1
M140 S60
M105
M190 S60
M104 S200
M105
M109 S200
M82 ;absolute extrusion mode
; Ender 3 Custom Start G-code
G92 E0 ; Reset Extruder
G28 ; Home all axes
G1 Z2.0 F3000 ; Move Z Axis up little to prevent scratching of Heat Bed
G1 X0.1 Y20 Z0.3 F5000.0 ; Move to start position
G1 X0.1 Y200.0 Z0.3 F1500.0 E15 ; Draw the first line
G1 X0.4 Y200.0 Z0.3 F5000.0 ; Move to side a little
G1 X0.4 Y20 Z0.3 F1500.0 E30 ; Draw the second line
G92 E0 ; Reset Extruder
G1 Z2.0 F3000 ; Move Z Axis up little to prevent scratching of Heat Bed
G1 X5 Y20 Z0.3 F5000.0 ; Move over to prevent blob squish
G92 E0
G92 E0
G1 F1500 E-6.5
;LAYER_COUNT:66
;LAYER:0
M107
G0 F6000 X89.237 Y83.445 Z0.2
;TYPE:SKIRT
G1 F1500 E0
G1 F1200 X89.354 Y83.327 E0.00553
G1 X89.769 Y82.965 E0.02384
G1 X90.232 Y82.667 E0.04216
G1 X90.734 Y82.439 E0.06049
G1 X91.263 Y82.286 E0.07881
G1 X92.052 Y82.203 E0.1052
G1 X127.122 Y82.203 E1.27163
G1 X127.672 Y82.243 E1.28997
G1 X128.21 Y82.362 E1.3083
G1 X128.725 Y82.558 E1.32663
G1 X129.206 Y82.826 E1.34494
G1 X129.809 Y83.316 E1.37078
G1 X129.926 Y83.433 E1.37629
G1 X130.286 Y83.85 E1.39461
G1 X130.583 Y84.314 E1.41293
G1 X130.809 Y84.817 E1.43127
G1 X130.96 Y85.347 E1.4496
G1 X131.039 Y86.113 E1.47521
G1 X131.043 Y88.398 E1.55121
G1 X131.321 Y88.805 E1.56761
G1 X131.563 Y89.3 E1.58593
G1 X131.731 Y89.825 E1.60427
G1 X131.789 Y90.176 E1.6161
G1 X131.792 Y90.182 E1.61632
G1 X131.945 Y90.711 E1.63464
G1 X132.029 Y91.506 E1.66123
G1 X132.026 Y96.38 E1.82334
G1 X132.025 Y104.119 E2.08074
G1 X132.03 Y107.278 E2.18581
G1 X132.028 Y108.517 E2.22702
G1 X131.987 Y109.067 E2.24536
G1 X131.867 Y109.604 E2.26366
G1 X131.557 Y110.343 E2.29032
G1 X131.366 Y110.69 E2.30349
G1 X131.091 Y111.115 E2.32033
G1 X131.386 Y111.582 E2.3387
G1 X131.609 Y112.086 E2.35703
G1 X131.758 Y112.616 E2.37534
G1 X131.815 Y113.191 E2.39456
G1 X131.883 Y113.414 E2.40231
G1 X131.966 Y113.959 E2.42065
G1 X131.96 Y114.607 E2.4422
G1 X131.919 Y115.039 E2.45663
G1 X131.952 Y115.191 E2.46181
G1 X131.988 Y115.741 E2.48014
G1 X131.951 Y116.181 E2.49483
G1 X131.974 Y116.314 E2.49932
G1 X131.986 Y116.865 E2.51765
G1 X131.95 Y117.12 E2.52621
G1 X131.968 Y117.25 E2.53058
G1 X131.964 Y117.801 E2.5489
G1 X131.961 Y117.824 E2.54968
G1 X131.974 Y118.232 E2.56325
G1 X131.95 Y118.443 E2.57032
G1 X131.969 Y118.723 E2.57965
G1 X131.926 Y119.272 E2.59797
G1 X131.887 Y119.422 E2.60312
G1 X131.905 Y119.502 E2.60585
G1 X131.949 Y120.052 E2.6242
G1 X131.913 Y120.602 E2.64253
G1 X131.798 Y121.14 E2.66083
G1 X131.679 Y121.465 E2.67234
G1 X131.681 Y121.65 E2.67849
G1 X131.646 Y122.2 E2.69682
G1 X131.64 Y122.227 E2.69774
G1 X131.641 Y122.355 E2.702
G1 X131.632 Y122.481 E2.7062
G1 X131.637 Y122.884 E2.71961
G1 X131.603 Y123.434 E2.73794
G1 X131.49 Y123.974 E2.75629
G1 X131.3 Y124.491 E2.77461
G1 X131.215 Y124.648 E2.78054
G1 X131.215 Y125.078 E2.79485
G1 X131.175 Y125.628 E2.81319
G1 X131.056 Y126.166 E2.83151
G1 X130.86 Y126.681 E2.84984
G1 X130.592 Y127.162 E2.86815
G1 X130.535 Y127.236 E2.87126
G1 X130.405 Y127.529 E2.88192
G1 X130.111 Y127.995 E2.90025
G1 X129.753 Y128.414 E2.91858
G1 X129.338 Y128.776 E2.9369
G1 X128.861 Y129.082 E2.95574
G1 X128.617 Y129.214 E2.96497
G1 X127.907 Y129.51 E2.99056
G1 X127.516 Y129.628 E3.00414
G1 X126.757 Y129.775 E3.02985
G1 X126.612 Y129.788 E3.0347
G1 X126.273 Y129.803 E3.04598
G1 X125.934 Y129.803 E3.05726
G1 X125.384 Y129.763 E3.0756
G1 X124.846 Y129.644 E3.09392
G1 X124.789 Y129.621 E3.09597
G1 X94.316 Y129.622 E4.1095
G1 X93.852 Y129.742 E4.12545
G1 X93.171 Y129.803 E4.14819
G1 X92.736 Y129.803 E4.16265
G1 X92.014 Y129.734 E4.18678
G1 X91.983 Y129.728 E4.18783
G1 X91.537 Y129.613 E4.20315
G1 X91.153 Y129.489 E4.21657
G1 X90.445 Y129.177 E4.2423
G1 X90.246 Y129.064 E4.24991
G1 X89.957 Y128.883 E4.26125
G1 X89.869 Y128.822 E4.26482
G1 X89.44 Y128.476 E4.28315
G1 X89.066 Y128.072 E4.30146
G1 X88.754 Y127.618 E4.31978
G1 X88.511 Y127.123 E4.33812
G1 X88.342 Y126.599 E4.35643
G1 X88.253 Y126.077 E4.37405
G1 X88.145 Y125 E4.41005
G1 X88.067 Y124.838 E4.41603
G1 X87.902 Y124.312 E4.43436
G1 X87.814 Y123.768 E4.45269
G1 X87.8 Y123.465 E4.46278
G1 X87.796 Y122.917 E4.48101
G1 X87.62 Y120.918 E4.54775
G1 X87.612 Y120.89 E4.54872
G1 X87.534 Y120.344 E4.56706
G1 X87.525 Y120.029 E4.57754
G1 X87.534 Y119.382 E4.59907
G1 X87.533 Y119.375 E4.5993
G1 X87.535 Y119.325 E4.60097
G1 X87.536 Y119.218 E4.60452
G1 X87.538 Y119.218 E4.60459
G1 X87.543 Y119.043 E4.61041
G1 X87.517 Y118.729 E4.62089
G1 X87.532 Y118.403 E4.63175
G1 X87.519 Y118.28 E4.63586
G1 X87.54 Y117.954 E4.64673
G1 X87.527 Y117.884 E4.64909
G1 X87.509 Y117.333 E4.66743
G1 X87.534 Y117.067 E4.67632
G1 X87.52 Y116.924 E4.6811
G1 X87.544 Y116.373 E4.69944
G1 X87.551 Y116.334 E4.70076
G1 X87.515 Y116.004 E4.7118
G1 X87.553 Y115.304 E4.73511
G1 X87.559 Y115.262 E4.73653
G1 X87.57 Y114.767 E4.75299
G1 X87.66 Y114.224 E4.7713
G1 X87.829 Y113.699 E4.78964
G1 X88.072 Y113.204 E4.80798
G1 X88.135 Y113.113 E4.81167
G1 X88.126 Y110.281 E4.90586
G1 X88.127 Y94.007 E5.44713
G1 X88.125 Y93.33 E5.46965
G1 X88.135 Y86.116 E5.70959
G1 X88.176 Y85.566 E5.72793
G1 X88.295 Y85.028 E5.74626
G1 X88.492 Y84.514 E5.76457
G1 X88.76 Y84.032 E5.78291
G1 X89.237 Y83.445 E5.80807
G0 F6000 X89.521 Y83.727
G1 F1200 X89.638 Y83.609 E5.8136
G1 X90.032 Y83.268 E5.83093
G1 X90.474 Y82.992 E5.84826
G1 X90.952 Y82.786 E5.86557
G1 X91.457 Y82.655 E5.88292
G1 X92.052 Y82.603 E5.90279
G1 X127.122 Y82.603 E7.06922
G1 X127.642 Y82.643 E7.08657
G1 X128.149 Y82.762 E7.10389
G1 X128.632 Y82.957 E7.12121
G1 X129.08 Y83.223 E7.13854
G1 X129.526 Y83.599 E7.15794
G1 X129.643 Y83.716 E7.16345
G1 X129.982 Y84.112 E7.18079
G1 X130.257 Y84.554 E7.1981
G1 X130.461 Y85.034 E7.21545
G1 X130.589 Y85.539 E7.23277
G1 X130.639 Y86.114 E7.25197
G1 X130.643 Y88.228 E7.32228
G1 X130.642 Y88.536 E7.33253
G1 X130.671 Y88.566 E7.33392
G1 X130.969 Y88.994 E7.35126
G1 X131.198 Y89.463 E7.36862
G1 X131.352 Y89.96 E7.38593
G1 X131.385 Y90.257 E7.39586
G1 X131.426 Y90.347 E7.39915
G1 X131.565 Y90.85 E7.41651
G1 X131.629 Y91.506 E7.43843
G1 X131.626 Y96.38 E7.60054
G1 X131.625 Y104.119 E7.85794
G1 X131.63 Y107.277 E7.96298
G1 X131.628 Y108.516 E8.00419
G1 X131.587 Y109.036 E8.02154
G1 X131.468 Y109.543 E8.03886
G1 X131.207 Y110.151 E8.06087
G1 X131.016 Y110.498 E8.07404
G1 X130.73 Y110.933 E8.09135
G1 X130.642 Y111.031 E8.09574
G1 X130.642 Y111.203 E8.10146
G1 X130.745 Y111.32 E8.10664
G1 X131.027 Y111.758 E8.12397
G1 X131.238 Y112.235 E8.14131
G1 X131.374 Y112.738 E8.15865
G1 X131.425 Y113.28 E8.17675
G1 X131.499 Y113.53 E8.18542
G1 X131.571 Y114.046 E8.20275
G1 X131.562 Y114.569 E8.22015
G1 X131.516 Y115.065 E8.23672
G1 X131.559 Y115.274 E8.24381
G1 X131.587 Y115.795 E8.26117
G1 X131.549 Y116.207 E8.27493
G1 X131.578 Y116.38 E8.28076
G1 X131.583 Y116.901 E8.29809
G1 X131.548 Y117.135 E8.30596
G1 X131.571 Y117.304 E8.31164
G1 X131.56 Y117.807 E8.32837
G1 X131.573 Y118.244 E8.34291
G1 X131.549 Y118.435 E8.34931
G1 X131.569 Y118.749 E8.35978
G1 X131.521 Y119.268 E8.37711
G1 X131.477 Y119.431 E8.38273
G1 X131.531 Y119.731 E8.39287
G1 X131.545 Y120.252 E8.4102
G1 X131.478 Y120.769 E8.42754
G1 X131.279 Y121.391 E8.44926
G1 X131.281 Y121.654 E8.45801
G1 X131.246 Y122.174 E8.47534
G1 X131.24 Y122.199 E8.4762
G1 X131.241 Y122.357 E8.48145
G1 X131.232 Y122.478 E8.48549
G1 X131.237 Y122.889 E8.49916
G1 X131.203 Y123.409 E8.51649
G1 X131.089 Y123.918 E8.53384
G1 X130.9 Y124.403 E8.55115
G1 X130.815 Y124.542 E8.55657
G1 X130.815 Y125.078 E8.5744
G1 X130.775 Y125.598 E8.59175
G1 X130.656 Y126.105 E8.60907
G1 X130.461 Y126.588 E8.62639
G1 X130.195 Y127.036 E8.64372
G1 X129.969 Y127.488 E8.66053
G1 X129.668 Y127.913 E8.67785
G1 X129.305 Y128.287 E8.69519
G1 X128.671 Y128.73 E8.72091
G1 X128.427 Y128.862 E8.73014
G1 X127.791 Y129.127 E8.75305
G1 X127.4 Y129.245 E8.76664
G1 X126.722 Y129.376 E8.78961
G1 X126.577 Y129.389 E8.79445
G1 X126.273 Y129.403 E8.80457
G1 X125.934 Y129.403 E8.81585
G1 X125.414 Y129.363 E8.83319
G1 X124.907 Y129.244 E8.85051
G1 X124.851 Y129.221 E8.85253
G1 X94.26 Y129.222 E9.86999
G1 X94.231 Y129.234 E9.87103
G1 X93.724 Y129.358 E9.88839
G1 X93.171 Y129.403 E9.90684
G1 X92.736 Y129.403 E9.92131
G1 X92.09 Y129.341 E9.9429
G1 X92.059 Y129.335 E9.94395
G1 X91.66 Y129.232 E9.95765
G1 X91.276 Y129.108 E9.97107
G1 X90.642 Y128.83 E9.9941
G1 X90.443 Y128.717 E10.00171
G1 X90.185 Y128.554 E10.01186
G1 X90.097 Y128.493 E10.01542
G1 X89.693 Y128.164 E10.03275
G1 X89.343 Y127.778 E10.05008
G1 X89.057 Y127.342 E10.06743
G1 X88.841 Y126.868 E10.08475
G1 X88.7 Y126.366 E10.10209
G1 X88.651 Y126.037 E10.11316
G1 X88.536 Y124.889 E10.15153
G1 X88.419 Y124.638 E10.16074
G1 X88.273 Y124.137 E10.1781
G1 X88.2 Y123.462 E10.20068
G1 X88.196 Y122.904 E10.21924
G1 X88.014 Y120.836 E10.28829
G1 X87.997 Y120.777 E10.29033
G1 X87.925 Y120.035 E10.31512
G1 X87.934 Y119.343 E10.33814
G1 X87.931 Y119.306 E10.33938
G1 X87.943 Y119.03 E10.34856
G1 X87.917 Y118.668 E10.36064
G1 X87.933 Y118.379 E10.37026
G1 X87.917 Y118.211 E10.37588
G1 X87.939 Y117.909 E10.38595
G1 X87.922 Y117.813 E10.38919
G1 X87.911 Y117.292 E10.40652
G1 X87.936 Y117.056 E10.41441
G1 X87.919 Y116.884 E10.42016
G1 X87.948 Y116.364 E10.43749
G1 X87.953 Y116.338 E10.43837
G1 X87.913 Y115.961 E10.45098
G1 X87.949 Y115.363 E10.4709
G1 X87.958 Y115.297 E10.47312
G1 X87.971 Y114.776 E10.49045
G1 X88.063 Y114.263 E10.50779
G1 X88.233 Y113.771 E10.5251
G1 X88.476 Y113.31 E10.54243
G1 X88.535 Y113.23 E10.54574
G1 X88.526 Y110.281 E10.64382
G1 X88.527 Y94.007 E11.1851
G1 X88.525 Y93.33 E11.20761
G1 X88.535 Y86.116 E11.44755
G1 X88.576 Y85.597 E11.46487
G1 X88.695 Y85.089 E11.48222
G1 X88.891 Y84.606 E11.49956
G1 X89.158 Y84.159 E11.51688
G1 X89.521 Y83.727 E11.53564
G0 F6000 X89.805 Y84.009
G1 F1200 X89.922 Y83.891 E11.54117
G1 X90.294 Y83.572 E11.55747
G1 X90.712 Y83.319 E11.57372
G1 X91.167 Y83.137 E11.59002
G1 X91.644 Y83.031 E11.60627
G1 X92.052 Y83.003 E11.61988
G1 X127.122 Y83.003 E12.78631
G1 X127.61 Y83.043 E12.80259
G1 X128.085 Y83.162 E12.81888
G1 X128.534 Y83.356 E12.83515
G1 X128.946 Y83.621 E12.85144
G1 X129.243 Y83.882 E12.86459
G1 X129.36 Y83.999 E12.8701
G1 X129.677 Y84.372 E12.88638
G1 X129.929 Y84.792 E12.90267
G1 X130.109 Y85.247 E12.91894
G1 X130.213 Y85.725 E12.93521
G1 X130.239 Y86.114 E12.94818
G1 X130.243 Y88.227 E13.01846
G1 X130.242 Y88.695 E13.03402
G1 X130.352 Y88.808 E13.03927
G1 X130.632 Y89.21 E13.05556
G1 X130.842 Y89.652 E13.07184
G1 X130.978 Y90.123 E13.08814
G1 X131.004 Y90.385 E13.0969
G1 X131.06 Y90.511 E13.10149
G1 X131.184 Y90.985 E13.11778
G1 X131.229 Y91.506 E13.13518
G1 X131.226 Y96.38 E13.29729
G1 X131.225 Y104.119 E13.55469
G1 X131.23 Y107.277 E13.65972
G1 X131.228 Y108.516 E13.70093
G1 X131.187 Y109.004 E13.71722
G1 X131.068 Y109.478 E13.73347
G1 X130.856 Y109.958 E13.75093
G1 X130.665 Y110.305 E13.7641
G1 X130.395 Y110.713 E13.78037
G1 X130.242 Y110.878 E13.78786
G1 X130.241 Y111.354 E13.80369
G1 X130.418 Y111.55 E13.81247
G1 X130.682 Y111.962 E13.82875
G1 X130.876 Y112.411 E13.84502
G1 X130.994 Y112.886 E13.8613
G1 X131.032 Y113.363 E13.87721
G1 X131.115 Y113.644 E13.88696
G1 X131.174 Y114.13 E13.90324
G1 X131.164 Y114.532 E13.91661
G1 X131.112 Y115.087 E13.93515
G1 X131.167 Y115.356 E13.94429
G1 X131.185 Y115.845 E13.96056
G1 X131.151 Y116.182 E13.97183
G1 X131.146 Y116.216 E13.97297
G1 X131.182 Y116.444 E13.98065
G1 X131.18 Y116.934 E13.99694
G1 X131.146 Y117.147 E14.00412
G1 X131.173 Y117.356 E14.01113
G1 X131.159 Y117.744 E14.02404
G1 X131.161 Y117.765 E14.02474
G1 X131.172 Y118.255 E14.04104
G1 X131.147 Y118.398 E14.04587
G1 X131.168 Y118.773 E14.05836
G1 X131.116 Y119.259 E14.07462
G1 X131.071 Y119.418 E14.08012
G1 X131.085 Y119.465 E14.08175
G1 X131.146 Y119.95 E14.09801
G1 X131.127 Y120.439 E14.11428
G1 X131.029 Y120.919 E14.13058
G1 X130.89 Y121.299 E14.14404
G1 X130.878 Y121.326 E14.14502
G1 X130.881 Y121.658 E14.15606
G1 X130.845 Y122.146 E14.17234
G1 X130.84 Y122.167 E14.17305
G1 X130.841 Y122.359 E14.17944
G1 X130.832 Y122.471 E14.18318
G1 X130.837 Y122.893 E14.19721
G1 X130.802 Y123.382 E14.21352
G1 X130.689 Y123.858 E14.22979
G1 X130.5 Y124.309 E14.24606
G1 X130.415 Y124.443 E14.25133
G1 X130.415 Y125.078 E14.27245
G1 X130.375 Y125.566 E14.28874
G1 X130.256 Y126.041 E14.30503
G1 X130.062 Y126.49 E14.32129
G1 X129.83 Y126.85 E14.33554
G1 X129.772 Y127.008 E14.34114
G1 X129.53 Y127.433 E14.3574
G1 X129.221 Y127.813 E14.37369
G1 X128.856 Y128.138 E14.38995
G1 X128.48 Y128.379 E14.4048
G1 X128.236 Y128.511 E14.41403
G1 X127.676 Y128.744 E14.4342
G1 X127.285 Y128.862 E14.44779
G1 X126.686 Y128.978 E14.46808
G1 X126.541 Y128.991 E14.47292
G1 X126.273 Y129.003 E14.48184
G1 X125.934 Y129.003 E14.49312
G1 X125.446 Y128.963 E14.50941
G1 X124.971 Y128.844 E14.52569
G1 X124.916 Y128.821 E14.52767
G1 X94.178 Y128.822 E15.55002
G1 X94.078 Y128.863 E15.55362
G1 X93.601 Y128.972 E15.56989
G1 X93.171 Y129.003 E15.58423
G1 X92.736 Y129.003 E15.5987
G1 X92.166 Y128.948 E15.61775
G1 X92.135 Y128.942 E15.6188
G1 X91.783 Y128.852 E15.63088
G1 X91.399 Y128.728 E15.6443
G1 X90.84 Y128.482 E15.66462
G1 X90.641 Y128.369 E15.67223
G1 X90.413 Y128.226 E15.68118
G1 X90.325 Y128.165 E15.68474
G1 X89.947 Y127.854 E15.70102
G1 X89.624 Y127.486 E15.71731
G1 X89.366 Y127.07 E15.73359
G1 X89.178 Y126.618 E15.74987
G1 X89.049 Y125.998 E15.77093
G1 X88.928 Y124.787 E15.81141
G1 X88.772 Y124.441 E15.82403
G1 X88.647 Y123.967 E15.84034
G1 X88.6 Y123.46 E15.85727
G1 X88.596 Y122.879 E15.8766
G1 X88.41 Y120.759 E15.94738
G1 X88.383 Y120.666 E15.9506
G1 X88.325 Y120.04 E15.97151
G1 X88.335 Y119.292 E15.99639
G1 X88.331 Y119.24 E15.99813
G1 X88.343 Y119 E16.00612
G1 X88.332 Y118.391 E16.02638
G1 X88.334 Y118.368 E16.02715
G1 X88.317 Y118.145 E16.03459
G1 X88.339 Y117.873 E16.04366
G1 X88.317 Y117.745 E16.04798
G1 X88.339 Y117.071 E16.07041
G1 X88.318 Y116.846 E16.07793
G1 X88.353 Y116.358 E16.0942
G1 X88.356 Y116.345 E16.09464
G1 X88.313 Y115.92 E16.10885
G1 X88.345 Y115.422 E16.12545
G1 X88.36 Y115.325 E16.12871
G1 X88.357 Y115.276 E16.13035
G1 X88.372 Y114.787 E16.14662
G1 X88.466 Y114.307 E16.16289
G1 X88.636 Y113.848 E16.17917
G1 X88.88 Y113.423 E16.19546
G1 X88.938 Y113.352 E16.19851
G1 X88.935 Y113.249 E16.20194
G1 X88.926 Y110.281 E16.30066
G1 X88.927 Y94.007 E16.84193
G1 X88.925 Y93.331 E16.86442
G1 X88.935 Y86.117 E17.10436
G1 X88.976 Y85.629 E17.12064
G1 X89.095 Y85.154 E17.13693
G1 X89.29 Y84.705 E17.15321
G1 X89.555 Y84.294 E17.16948
G1 X89.805 Y84.009 E17.18209
G0 F6000 X90.089 Y84.29
G1 F1200 X90.206 Y84.172 E17.18761
G1 X90.554 Y83.878 E17.20277
G1 X90.948 Y83.649 E17.21792
G1 X91.375 Y83.493 E17.23304
G1 X91.824 Y83.413 E17.24821
G1 X92.052 Y83.403 E17.2558
G1 X127.122 Y83.403 E18.42224
G1 X127.576 Y83.443 E18.43739
G1 X128.016 Y83.561 E18.45255
G1 X128.428 Y83.755 E18.46769
G1 X128.96 Y84.165 E18.49003
G1 X129.077 Y84.282 E18.49554
G1 X129.37 Y84.631 E18.51069
G1 X129.597 Y85.026 E18.52584
G1 X129.752 Y85.454 E18.54098
G1 X129.839 Y86.115 E18.56316
G1 X129.843 Y88.226 E18.63337
G1 X129.842 Y88.857 E18.65436
G1 X130.054 Y89.076 E18.6645
G1 X130.31 Y89.453 E18.67965
G1 X130.495 Y89.869 E18.6948
G1 X130.605 Y90.311 E18.70994
G1 X130.621 Y90.509 E18.71655
G1 X130.693 Y90.674 E18.72254
G1 X130.8 Y91.116 E18.73766
G1 X130.829 Y91.506 E18.75067
G1 X130.826 Y96.38 E18.91278
G1 X130.825 Y104.119 E19.17018
G1 X130.83 Y107.276 E19.27518
G1 X130.828 Y108.515 E19.31639
