;FLAVOR:Marlin
;TIME:2323
;Filament used: 1.44332m
;Layer height: 0.16
;MINX:85.075
;MINY:93.925
;MINZ:0.2
;MAXX:135.521
;MAXY:118.075
;MAXZ:7.88
;Generated with Cura_SteamEngine 4.7.1
M140 S60
M105
M190 S60
M104 S200
M105
M109 S200
M82 ;absolute extrusion mode
; Ender 3 Custom Start G-code
G92 E0 ; Reset Extruder
G28 ; Home all axes
G1 Z2.0 F3000 ; Move Z Axis up little to prevent scratching of Heat Bed
G1 X0.1 Y20 Z0.3 F5000.0 ; Move to start position
G1 X0.1 Y200.0 Z0.3 F1500.0 E15 ; Draw the first line
G1 X0.4 Y200.0 Z0.3 F5000.0 ; Move to side a little
G1 X0.4 Y20 Z0.3 F1500.0 E30 ; Draw the second line
G92 E0 ; Reset Extruder
G1 Z2.0 F3000 ; Move Z Axis up little to prevent scratching of Heat Bed
G1 X5 Y20 Z0.3 F5000.0 ; Move over to prevent blob squish
G92 E0
G92 E0
G1 F1500 E-6.5
;LAYER_COUNT:42
;LAYER:0
M107
;MESH:nano lower case.STL
G0 F6000 X86.524 Y103.126 Z0.2
;TYPE:WALL-INNER
G1 F1500 E0
G1 F1200 X133.526 Y103.126 E1.56329
G1 X133.526 Y95.324 E1.82279
G1 X86.524 Y95.324 E3.38608
G1 X86.524 Y103.126 E3.64558
G0 F6000 X86.924 Y102.726
G1 F1200 X133.126 Y102.726 E5.18226
G1 X133.126 Y95.724 E5.41515
G1 X86.924 Y95.724 E6.95183
G1 X86.924 Y102.726 E7.18472
G0 F6000 X87.324 Y102.326
;TYPE:WALL-OUTER
G1 F1200 X132.726 Y102.326 E8.6948
G1 X132.726 Y96.124 E8.90108
G1 X87.324 Y96.124 E10.41115
G1 X87.324 Y102.326 E10.61743
G0 F6000 X87.024 Y102.326
G0 X86.458 Y103.308
G0 X86.524 Y116.676
;TYPE:WALL-INNER
G1 F1200 X133.526 Y116.676 E12.18073
G1 X133.526 Y108.874 E12.44022
G1 X86.524 Y108.874 E14.00351
G1 X86.524 Y116.676 E14.26301
G0 F6000 X86.924 Y116.276
G1 F1200 X133.126 Y116.276 E15.79969
G1 X133.126 Y109.274 E16.03258
G1 X86.924 Y109.274 E17.56927
G1 X86.924 Y116.276 E17.80215
G0 F6000 X87.324 Y115.876
;TYPE:WALL-OUTER
G1 F1200 X132.726 Y115.876 E19.31223
G1 X132.726 Y109.674 E19.51851
G1 X87.324 Y109.674 E21.02859
G1 X87.324 Y115.876 E21.23487
G0 F6000 X87.024 Y115.876
G0 X86.276 Y116.874
;TYPE:WALL-INNER
G1 F1200 X86.276 Y116.676 E21.24049
G1 X86.276 Y108.874 E21.40178
G1 X86.276 Y103.126 E21.59296
G1 X86.276 Y95.324 E21.75425
G1 X86.276 Y95.126 E21.75988
G1 X86.524 Y95.126 E21.76666
G1 X133.526 Y95.126 E22.54243
G1 X133.724 Y95.126 E22.5477
G1 X133.724 Y95.324 E22.55296
G1 X133.724 Y103.126 E22.68173
G1 X133.724 Y108.874 E22.87291
G1 X133.724 Y116.676 E23.00168
G1 X133.724 Y116.874 E23.00695
G1 X133.526 Y116.874 E23.01221
G1 X86.524 Y116.874 E23.78798
G1 X86.276 Y116.874 E23.79477
G0 F6000 X85.879 Y117.266
G1 F1200 X85.876 Y117.234 E23.79584
G1 X85.876 Y94.764 E24.54319
G1 X85.879 Y94.737 E24.5441
G1 X85.887 Y94.728 E24.5445
G1 X85.904 Y94.726 E24.54507
G1 X134.097 Y94.726 E26.14797
G1 X134.113 Y94.728 E26.14851
G1 X134.121 Y94.734 E26.14884
G1 X134.124 Y94.763 E26.14981
G1 X134.124 Y117.233 E26.89717
G1 X134.121 Y117.263 E26.89817
G1 X134.113 Y117.272 E26.89857
G1 X134.096 Y117.274 E26.89914
G1 X85.903 Y117.274 E28.50205
G1 X85.887 Y117.272 E28.50258
G1 X85.879 Y117.266 E28.50291
G0 F6000 X85.608 Y117.57
;TYPE:WALL-OUTER
G1 F1200 X85.537 Y117.479 E28.50675
G1 X85.49 Y117.378 E28.51046
G1 X85.476 Y117.259 E28.51444
G1 X85.476 Y94.741 E29.2634
G1 X85.49 Y94.624 E29.26731
G1 X85.53 Y94.54 E29.27041
G1 X85.538 Y94.52 E29.27113
G1 X85.613 Y94.426 E29.27513
G1 X85.707 Y94.368 E29.2788
G1 X85.794 Y94.335 E29.28189
G1 X85.885 Y94.326 E29.28494
G1 X134.115 Y94.326 E30.88907
G1 X134.208 Y94.335 E30.89218
G1 X134.292 Y94.368 E30.89518
G1 X134.392 Y94.43 E30.89909
G1 X134.463 Y94.521 E30.90293
G1 X134.51 Y94.622 E30.90664
G1 X134.524 Y94.741 E30.91062
G1 X134.524 Y117.259 E31.65958
G1 X134.51 Y117.376 E31.66349
G1 X134.47 Y117.46 E31.66659
G1 X134.462 Y117.48 E31.66731
G1 X134.387 Y117.574 E31.6713
G1 X134.293 Y117.632 E31.67498
G1 X134.206 Y117.665 E31.67807
G1 X134.115 Y117.674 E31.68111
G1 X85.885 Y117.674 E33.28525
G1 X85.792 Y117.665 E33.28836
G1 X85.708 Y117.632 E33.29136
G1 X85.608 Y117.57 E33.29527
G0 F6000 X85.901 Y117.243
G0 X86.386 Y108.484
G0 X86.666 Y108.484
;TYPE:SKIN
G1 F1200 X86.666 Y103.516 E33.46051
G1 X133.334 Y103.516 E35.01269
G1 X133.334 Y108.484 E35.17793
G1 X86.666 Y108.484 E36.73011
G0 F6000 X87.392 Y108.323
G1 F1200 X86.825 Y107.756 E36.75678
G0 F6000 X86.825 Y107.19
G1 F1200 X87.958 Y108.323 E36.81008
G0 F6000 X88.524 Y108.323
G1 F1200 X86.825 Y106.624 E36.88999
G0 F6000 X86.825 Y106.058
G1 F1200 X89.089 Y108.323 E36.99651
G0 F6000 X89.655 Y108.323
G1 F1200 X86.825 Y105.493 E37.12962
G0 F6000 X86.825 Y104.927
G1 F1200 X90.221 Y108.323 E37.28936
G0 F6000 X90.786 Y108.323
G1 F1200 X86.825 Y104.361 E37.4757
G0 F6000 X86.825 Y103.796
G1 F1200 X91.352 Y108.323 E37.68863
G0 F6000 X91.918 Y108.323
G1 F1200 X87.271 Y103.675 E37.90724
G0 F6000 X87.836 Y103.675
G1 F1200 X92.483 Y108.323 E38.12584
G0 F6000 X93.049 Y108.323
G1 F1200 X88.402 Y103.675 E38.34445
G0 F6000 X88.968 Y103.675
G1 F1200 X93.615 Y108.323 E38.56305
G0 F6000 X94.18 Y108.323
G1 F1200 X89.533 Y103.675 E38.78165
G0 F6000 X90.099 Y103.675
G1 F1200 X94.746 Y108.323 E39.00026
G0 F6000 X95.312 Y108.323
G1 F1200 X90.665 Y103.675 E39.21886
G0 F6000 X91.23 Y103.675
G1 F1200 X95.878 Y108.323 E39.43749
G0 F6000 X96.443 Y108.323
G1 F1200 X91.796 Y103.675 E39.65609
G0 F6000 X92.362 Y103.675
G1 F1200 X97.009 Y108.323 E39.8747
G0 F6000 X97.575 Y108.323
G1 F1200 X92.927 Y103.675 E40.09333
G0 F6000 X93.493 Y103.675
G1 F1200 X98.14 Y108.323 E40.31193
G0 F6000 X98.706 Y108.323
G1 F1200 X94.059 Y103.675 E40.53053
G0 F6000 X94.625 Y103.675
G1 F1200 X99.272 Y108.323 E40.74914
G0 F6000 X99.837 Y108.323
G1 F1200 X95.19 Y103.675 E40.96774
G0 F6000 X95.756 Y103.675
G1 F1200 X100.403 Y108.323 E41.18635
G0 F6000 X100.969 Y108.323
G1 F1200 X96.322 Y103.675 E41.40495
G0 F6000 X96.887 Y103.675
G1 F1200 X101.534 Y108.323 E41.62356
G0 F6000 X102.1 Y108.323
G1 F1200 X97.453 Y103.675 E41.84216
G0 F6000 X98.019 Y103.675
G1 F1200 X102.666 Y108.323 E42.06076
G0 F6000 X103.231 Y108.323
G1 F1200 X98.584 Y103.675 E42.27937
G0 F6000 X99.15 Y103.675
G1 F1200 X103.797 Y108.323 E42.49797
G0 F6000 X104.363 Y108.323
G1 F1200 X99.716 Y103.675 E42.71658
G0 F6000 X100.281 Y103.675
G1 F1200 X104.928 Y108.323 E42.93518
G0 F6000 X105.494 Y108.323
G1 F1200 X100.847 Y103.675 E43.15378
G0 F6000 X101.413 Y103.675
G1 F1200 X106.06 Y108.323 E43.37239
G0 F6000 X106.626 Y108.323
G1 F1200 X101.978 Y103.675 E43.59102
G0 F6000 X102.544 Y103.675
G1 F1200 X107.191 Y108.323 E43.80962
G0 F6000 X107.757 Y108.323
G1 F1200 X103.11 Y103.675 E44.02822
G0 F6000 X103.675 Y103.675
G1 F1200 X108.323 Y108.323 E44.24685
G0 F6000 X108.888 Y108.323
G1 F1200 X104.241 Y103.675 E44.46546
G0 F6000 X104.807 Y103.675
G1 F1200 X109.454 Y108.323 E44.68406
G0 F6000 X110.02 Y108.323
G1 F1200 X105.373 Y103.675 E44.90266
G0 F6000 X105.938 Y103.675
G1 F1200 X110.585 Y108.323 E45.12127
G0 F6000 X111.151 Y108.323
G1 F1200 X106.504 Y103.675 E45.33987
G0 F6000 X107.07 Y103.675
G1 F1200 X111.717 Y108.323 E45.55848
G0 F6000 X112.282 Y108.323
G1 F1200 X107.635 Y103.675 E45.77708
G0 F6000 X108.201 Y103.675
G1 F1200 X112.848 Y108.323 E45.99569
G0 F6000 X113.414 Y108.323
G1 F1200 X108.767 Y103.675 E46.21429
G0 F6000 X109.332 Y103.675
G1 F1200 X113.979 Y108.323 E46.43289
G0 F6000 X114.545 Y108.323
G1 F1200 X109.898 Y103.675 E46.6515
G0 F6000 X110.464 Y103.675
G1 F1200 X115.111 Y108.323 E46.8701
G0 F6000 X115.677 Y108.323
G1 F1200 X111.029 Y103.675 E47.08873
G0 F6000 X111.595 Y103.675
G1 F1200 X116.242 Y108.323 E47.30733
G0 F6000 X116.808 Y108.323
G1 F1200 X112.161 Y103.675 E47.52594
G0 F6000 X112.726 Y103.675
G1 F1200 X117.374 Y108.323 E47.74457
G0 F6000 X117.939 Y108.323
G1 F1200 X113.292 Y103.675 E47.96317
G0 F6000 X113.858 Y103.675
G1 F1200 X118.505 Y108.323 E48.18177
G0 F6000 X119.071 Y108.323
G1 F1200 X114.424 Y103.675 E48.40038
G0 F6000 X114.989 Y103.675
G1 F1200 X119.636 Y108.323 E48.61898
G0 F6000 X120.202 Y108.323
G1 F1200 X115.555 Y103.675 E48.83759
G0 F6000 X116.121 Y103.675
G1 F1200 X120.768 Y108.323 E49.05619
G0 F6000 X121.333 Y108.323
G1 F1200 X116.686 Y103.675 E49.27479
G0 F6000 X117.252 Y103.675
G1 F1200 X121.899 Y108.323 E49.4934
G0 F6000 X122.465 Y108.323
G1 F1200 X117.818 Y103.675 E49.712
G0 F6000 X118.383 Y103.675
G1 F1200 X123.03 Y108.323 E49.93061
G0 F6000 X123.596 Y108.323
G1 F1200 X118.949 Y103.675 E50.14921
G0 F6000 X119.515 Y103.675
G1 F1200 X124.162 Y108.323 E50.36782
G0 F6000 X124.727 Y108.323
G1 F1200 X120.08 Y103.675 E50.58642
G0 F6000 X120.646 Y103.675
G1 F1200 X125.293 Y108.323 E50.80502
G0 F6000 X125.859 Y108.323
G1 F1200 X121.212 Y103.675 E51.02363
G0 F6000 X121.777 Y103.675
G1 F1200 X126.425 Y108.323 E51.24226
G0 F6000 X126.99 Y108.323
G1 F1200 X122.343 Y103.675 E51.46086
G0 F6000 X122.909 Y103.675
G1 F1200 X127.556 Y108.323 E51.67946
G0 F6000 X128.122 Y108.323
G1 F1200 X123.474 Y103.675 E51.89809
G0 F6000 X124.04 Y103.675
G1 F1200 X128.687 Y108.323 E52.1167
G0 F6000 X129.253 Y108.323
G1 F1200 X124.606 Y103.675 E52.3353
G0 F6000 X125.172 Y103.675
G1 F1200 X129.819 Y108.323 E52.5539
G0 F6000 X130.384 Y108.323
G1 F1200 X125.737 Y103.675 E52.77251
G0 F6000 X126.303 Y103.675
G1 F1200 X130.95 Y108.323 E52.99111
G0 F6000 X131.516 Y108.323
G1 F1200 X126.869 Y103.675 E53.20972
G0 F6000 X127.434 Y103.675
G1 F1200 X132.081 Y108.323 E53.42832
G0 F6000 X132.647 Y108.323
G1 F1200 X128 Y103.675 E53.64692
G0 F6000 X128.566 Y103.675
G1 F1200 X133.173 Y108.283 E53.86365
G0 F6000 X133.173 Y107.717
G1 F1200 X129.131 Y103.675 E54.05377
G0 F6000 X129.697 Y103.675
G1 F1200 X133.173 Y107.152 E54.21729
G0 F6000 X133.173 Y106.586
G1 F1200 X130.263 Y103.675 E54.3542
G0 F6000 X130.828 Y103.675
G1 F1200 X133.173 Y106.02 E54.4645
G0 F6000 X133.173 Y105.455
G1 F1200 X131.394 Y103.675 E54.5482
G0 F6000 X131.96 Y103.675
G1 F1200 X133.173 Y104.889 E54.60528
G0 F6000 X133.173 Y104.323
G1 F1200 X132.525 Y103.675 E54.63576
G0 F6000 X133.091 Y103.675
G1 F1200 X133.173 Y103.758 E54.63964
G0 F6000 X133.914 Y103.758
G1 F1500 E48.13964
;MESH:NONMESH
G0 F300 X133.914 Y103.758 Z0.32
G0 F6000 X133.542 Y103.308
G0 X86.656 Y102.994
;TIME_ELAPSED:98.724918
;LAYER:1
M106 S85
;TYPE:WALL-INNER
;MESH:nano lower case.STL
G1 F1500 E54.63964
G1 F1350 X133.196 Y102.995 E55.5684
G1 X133.395 Y102.995 E55.57237
G1 X133.395 Y102.796 E55.57494
G1 X133.394 Y95.456 E55.72141
G1 X86.656 Y95.456 E56.65412
G1 X86.656 Y102.994 E56.80455
G0 F7500 X87.056 Y102.594
G1 F1350 X132.796 Y102.595 E57.71734
G1 X132.995 Y102.595 E57.72131
G1 X132.995 Y102.396 E57.72388
G1 X132.994 Y95.856 E57.85439
G1 X87.056 Y95.856 E58.77114
G1 X87.056 Y102.594 E58.9056
G0 F7500 X87.456 Y102.194
;TYPE:WALL-OUTER
G1 F1350 X132.595 Y102.195 E59.8064
G1 X132.594 Y96.256 E59.92492
G1 X87.456 Y96.256 E60.8257
G1 X87.456 Y102.194 E60.94419
G1 F1500 E54.44419
G0 F7500 X87.156 Y102.194
G0 X86.486 Y101.067
G0 X88.321 Y101.067
G0 X88.583 Y110.671
G0 X88.583 Y108.836
G0 X87.228 Y109.578
G0 X86.655 Y116.346
;TYPE:WALL-INNER
G1 F1500 E60.94419
G1 F1350 X86.655 Y116.545 E60.94817
G1 X86.854 Y116.545 E60.95073
G1 X133.394 Y116.544 E61.87949
G1 X133.394 Y109.006 E62.02992
G1 X86.656 Y109.006 E62.96263
G1 X86.655 Y116.346 E63.1091
G0 F7500 X87.055 Y116.145
G1 F1350 X87.254 Y116.145 E63.11308
G1 X132.994 Y116.144 E64.02587
G1 X132.994 Y109.406 E64.16033
G1 X87.056 Y109.406 E65.07707
G1 X87.055 Y115.946 E65.20759
G1 X87.055 Y116.145 E65.21016
G0 F7500 X87.455 Y115.745
;TYPE:WALL-OUTER
G1 F1350 X132.594 Y115.744 E66.11095
G1 X132.594 Y109.806 E66.22945
G1 X87.456 Y109.806 E67.13023
G1 X87.455 Y115.745 E67.24875
G1 F1500 E60.74875
G0 F7500 X87.156 Y115.744
G0 X87.227 Y115.973
G0 X132.822 Y115.972
G0 X133.646 Y115.944
G0 X133.856 Y117.005
;TYPE:WALL-INNER
G1 F1500 E67.24875
G1 F1350 X86.343 Y117.006 E68.19692
G1 X86.144 Y117.006 E68.20089
G1 X86.144 Y116.807 E68.20346
G1 X86.144 Y94.995 E68.63875
G1 X133.657 Y94.994 E69.58692
G1 X133.856 Y94.994 E69.59089
G1 X133.856 Y95.193 E69.59346
G1 X133.856 Y117.005 E70.02874
G0 F7500 X134.156 Y117.401
G1 F1350 X134.121 Y117.405 E70.02944
G1 X85.98 Y117.406 E70.99015
G1 X85.893 Y117.406 E70.99189
G1 X85.847 Y117.402 E70.99281
G1 X85.81 Y117.386 E70.99361
G1 X85.795 Y117.377 E70.99396
G1 X85.777 Y117.357 E70.9945
G1 X85.757 Y117.324 E70.99527
G1 X85.752 Y117.31 E70.99556
G1 X85.744 Y117.237 E70.99703
G1 X85.744 Y117.15 E70.99877
G1 X85.744 Y94.755 E71.44568
G1 X85.75 Y94.697 E71.44685
G1 X85.756 Y94.678 E71.44724
G1 X85.783 Y94.636 E71.44824
G1 X85.798 Y94.62 E71.44868
G1 X85.844 Y94.599 E71.44969
G1 X85.879 Y94.595 E71.45039
G1 X134.02 Y94.594 E72.4111
G1 X134.107 Y94.594 E72.41283
G1 X134.153 Y94.598 E72.41375
G1 X134.19 Y94.614 E72.41456
G1 X134.205 Y94.624 E72.41492
G1 X134.223 Y94.642 E72.41543
G1 X134.243 Y94.674 E72.41618
G1 X134.248 Y94.69 E72.41651
G1 X134.256 Y94.763 E72.41798
G1 X134.256 Y94.85 E72.41972
G1 X134.256 Y117.24 E72.86653
G1 X134.249 Y117.305 E72.86784
G1 X134.244 Y117.323 E72.86821
G1 X134.217 Y117.363 E72.86917
G1 X134.202 Y117.38 E72.86962
G1 X134.156 Y117.401 E72.87063
G0 F7500 X134.28 Y117.784
;TYPE:WALL-OUTER
G1 F1350 X134.202 Y117.8 E72.87222
G1 X134.142 Y117.805 E72.87342
G1 X85.876 Y117.806 E73.83662
G1 X85.796 Y117.8 E73.83823
G1 X85.739 Y117.789 E73.83938
G1 X85.709 Y117.779 E73.84002
G1 X85.621 Y117.739 E73.84194
G1 X85.557 Y117.7 E73.84344
G1 X85.523 Y117.67 E73.84434
G1 X85.46 Y117.603 E73.84618
G1 X85.404 Y117.515 E73.84826
G1 X85.383 Y117.468 E73.84929
G1 X85.358 Y117.391 E73.8509
G1 X85.344 Y117.262 E73.85349
G1 X85.344 Y94.735 E74.30304
G1 X85.356 Y94.615 E74.30545
G1 X85.393 Y94.502 E74.30782
G1 X85.441 Y94.429 E74.30957
G1 X85.462 Y94.393 E74.3104
G1 X85.523 Y94.329 E74.31216
G1 X85.558 Y94.298 E74.3131
G1 X85.622 Y94.26 E74.31458
G1 X85.72 Y94.216 E74.31673
G1 X85.798 Y94.2 E74.31831
G1 X85.858 Y94.195 E74.31952
G1 X134.124 Y94.194 E75.28272
G1 X134.204 Y94.2 E75.28432
G1 X134.261 Y94.211 E75.28548
G1 X134.291 Y94.221 E75.28611
G1 X134.379 Y94.261 E75.28804
G1 X134.443 Y94.3 E75.28953
G1 X134.477 Y94.33 E75.29044
G1 X134.539 Y94.395 E75.29223
G1 X134.599 Y94.489 E75.29445
G1 X134.616 Y94.528 E75.2953
G1 X134.642 Y94.61 E75.29702
G1 X134.656 Y94.738 E75.29959
G1 X134.656 Y117.265 E75.74914
G1 X134.643 Y117.384 E75.75153
G1 X134.608 Y117.498 E75.75391
G1 X134.56 Y117.57 E75.75564
G1 X134.538 Y117.607 E75.7565
G1 X134.477 Y117.671 E75.75826
G1 X134.442 Y117.702 E75.75919
G1 X134.378 Y117.74 E75.76068
G1 X134.28 Y117.784 E75.76282
G0 F7500 X134.145 Y117.366
G0 X133.746 Y108.616
G0 X133.466 Y108.616
;TYPE:SKIN
G1 F1350 X86.534 Y108.616 E76.6994
G1 X86.534 Y103.384 E76.80381
G1 X133.466 Y103.385 E77.74039
G1 X133.466 Y108.616 E77.84478
G0 F7500 X133.305 Y108.242
G1 F1350 X133.091 Y108.456 E77.85082
G0 F7500 X132.525 Y108.456
G1 F1350 X133.305 Y107.676 E77.87283
G0 F7500 X133.305 Y107.111
G1 F1350 X131.96 Y108.456 E77.91079
G0 F7500 X131.394 Y108.456
G1 F1350 X133.305 Y106.545 E77.96472
G0 F7500 X133.305 Y105.979
G1 F1350 X130.828 Y108.456 E78.03463
G0 F7500 X130.263 Y108.456
G1 F1350 X133.305 Y105.414 E78.12048
G0 F7500 X133.305 Y104.848
G1 F1350 X129.697 Y108.456 E78.22231
G0 F7500 X129.131 Y108.456
G1 F1350 X133.305 Y104.282 E78.34011
G0 F7500 X133.305 Y103.717
G1 F1350 X128.566 Y108.456 E78.47385
G0 F7500 X128 Y108.456
G1 F1350 X132.912 Y103.543 E78.61249
G0 F7500 X132.347 Y103.543
G1 F1350 X127.434 Y108.456 E78.75115
G0 F7500 X126.869 Y108.456
G1 F1350 X131.781 Y103.543 E78.88979
G0 F7500 X131.215 Y103.543
G1 F1350 X126.303 Y108.456 E79.02843
G0 F7500 X125.737 Y108.456
G1 F1350 X130.649 Y103.543 E79.16707
G0 F7500 X130.084 Y103.543
G1 F1350 X125.172 Y108.456 E79.30571
G0 F7500 X124.606 Y108.456
G1 F1350 X129.518 Y103.543 E79.44436
G0 F7500 X128.952 Y103.543
